P2
636 476
4095
4	4	4	4	2	4	7	5	4	4	3	1	4	4	5	7	2	4	1	3	4	4	2	7	4	4	5	2	4	1	7	7	4	5	1	2	3	3	0	4	4	4	3	3	2	4	1	3	7	7	5	4	4	4	4	2	4	5	0	4	2	3	4	1	4	4	2	3	4	7	3	6	4	6	5	4	4	3	1	3	3	3	1	4	2	4	4	3	1	3	3	3	3	4	5	3	4	4	4	4	3	2	4	0	5	6	8	7	4	2	2	2	4	4	2	4	4	3	3	1	3	4	4	4	4	2	1	3	1	4	7	7	4	4	3	2	5	4	3	5	5	4	5	5	3	6	3	5	3	2	4	4	0	4	4	4	1	0	0	0	0	1	4	3	1	4	2	3	4	2	2	2	2	4	3	1	0	1	3	4	4	4	4	3	1	3	2	7	4	1	5	4	1	1	7	11	12	8	5	4	5	6	4	4	3	2	4	1	1	2	0	4	4	7	3	4	2	1	0	3	4	4	4	3	1	1	3	5	6	5	4	3	4	4	1	1	3	3	3	5	3	4	1	0	0	0	3	4	4	4	4	4	4	3	4	0	3	5	7	7	7	3	1	3	3	3	3	3	4	4	2	4	1	3	3	2	4	2	2	1	0	1	3	2	4	9	8	3	5	7	4	4	4	4	4	6	5	4	5	7	5	1	4	2	0	0	4	4	4	1	4	4	4	5	7	7	5	4	4	4	2	7	3	5	1	2	0	4	4	4	2	4	2	1	2	4	4	4	3	3	3	4	1	3	3	4	2	4	4	4	2	3	1	1	3	4	5	3	7	1	4	2	5	4	5	3	4	3	3	2	4	3	2	1	3	4	3	3	2	3	2	1	0	3	4	4	3	6	4	3	0	3	2	3	3	0	1	4	4	4	4	0	2	4	4	4	4	3	1	3	5	4	4	4	1	0	4	3	4	3	0	0	2	3	3	5	7	4	2	5	4	4	4	2	2	5	5	0	4	1	0	0	4	5	2	5	2	1	3	5	4	5	7	7	5	4	4	4	4	4	4	4	4	4	5	5	3	3	2	4	4	1	1	3	3	1	0	1	3	4	4	4	4	1	0	0	0	3	4	4	4	3	3	0	3	4	0	3	5	7	7	5	4	4	4	4	4	4	5	5	2	0	0	0	0	0	1	3	5	5	4	4	3	1	2	2	3	3	5	5	1	4	4	4	3	4	1	4	4	1	0	0	0	4	8	3	5	7	6	2	1	2	2	3	2	4	5	3	3	3	3	4	4	3	0	4	4	4	4	1	0	0	1	2	1	4	1	3	3	1	2	2	0	0	0	1	4	6	4	3	2	2	2	2	3	3	4	4	3	3	2	4	6	5	4	3	1	3	4	4	3	0	1	4	5	2	0	0	0	4	4	0	0	0	3	3	2	4	3	1	2	2	2	1	4	1	
3	0	1	4	3	3	4	1	1	4	3	1	4	7	8	8	5	5	2	4	3	3	2	6	2	3	6	3	4	4	6	4	5	7	4	4	4	4	3	1	3	3	1	3	3	7	2	6	4	4	4	3	4	4	5	7	4	4	7	6	5	4	4	2	5	5	5	7	7	5	3	4	6	7	5	3	1	3	2	1	3	3	4	4	2	4	0	3	3	1	5	3	5	3	6	0	2	0	0	2	0	4	3	2	6	4	9	11	9	4	3	0	4	4	4	4	1	2	0	5	7	8	7	5	5	7	8	7	4	2	4	3	6	7	4	5	4	4	6	0	3	2	3	4	2	5	4	4	3	5	4	1	3	5	4	5	3	0	0	1	3	4	5	3	4	4	1	0	1	4	4	4	4	1	0	0	0	1	3	4	4	4	4	4	3	4	2	7	4	0	3	6	1	5	7	7	10	8	7	6	7	7	5	7	1	5	3	1	2	0	2	1	2	5	0	4	0	0	0	2	6	8	7	5	4	1	1	4	4	4	2	2	4	4	4	4	4	4	3	5	3	4	3	1	2	1	1	3	4	5	7	8	10	6	2	2	0	2	4	2	8	4	2	3	3	5	7	7	5	5	4	5	3	0	4	2	4	5	0	2	0	3	4	4	5	4	1	4	7	5	1	0	4	4	3	4	3	2	3	5	8	6	1	2	1	0	3	4	4	2	3	4	4	4	4	3	1	0	1	4	2	4	4	5	4	4	4	4	5	2	4	4	1	5	6	4	0	4	3	4	3	4	2	2	4	3	2	3	4	3	2	4	1	1	3	3	4	2	6	2	3	0	4	4	3	3	4	3	4	3	4	3	1	2	1	5	5	4	1	1	4	7	8	7	5	2	1	2	4	6	5	1	3	4	1	1	4	4	0	2	3	2	1	4	6	4	1	2	2	0	3	3	3	1	1	3	4	0	4	1	0	0	1	4	5	7	5	2	4	8	5	7	5	4	4	4	3	3	3	0	0	0	4	6	2	6	3	2	1	4	1	3	4	4	3	1	1	3	3	1	0	0	1	4	7	5	1	0	1	2	4	4	5	6	5	4	4	3	1	2	1	2	1	0	0	0	0	3	4	3	0	1	1	1	2	4	2	1	1	3	6	4	1	0	0	1	2	1	0	4	4	0	0	0	0	0	0	1	4	7	7	4	0	3	3	1	1	2	2	4	4	4	2	4	3	3	0	1	4	3	0	0	0	4	8	1	7	5	2	4	7	7	4	0	3	5	4	2	4	4	4	4	3	3	2	1	3	3	1	1	2	1	0	0	1	4	3	0	2	3	2	1	0	0	1	4	4	4	3	3	4	4	3	1	4	3	3	3	4	3	3	3	2	4	4	2	4	4	4	3	1	0	3	4	4	3	0	0	0	3	4	1	0	1	4	7	5	5	5	4	3	3	0	2	4	3	
1	0	1	4	3	4	4	0	3	3	2	4	4	4	5	5	4	7	1	4	1	1	2	2	3	4	5	3	1	2	2	4	8	7	3	2	0	4	3	1	2	2	2	1	5	4	6	7	0	4	3	3	4	4	4	5	7	7	7	2	6	4	4	4	7	5	4	4	3	1	4	1	5	4	5	4	3	2	2	2	3	4	3	1	3	4	5	7	7	6	8	6	8	4	4	2	1	0	0	1	2	2	3	3	4	2	4	7	9	7	2	0	4	5	4	5	4	4	5	9	8	7	5	4	4	5	6	5	4	6	4	1	3	3	4	6	4	4	4	2	1	0	2	6	7	5	5	4	4	5	4	0	4	6	0	6	4	0	0	3	4	4	5	3	6	4	4	3	2	4	2	4	7	7	5	4	4	3	1	1	3	3	0	3	4	5	6	5	3	0	1	5	6	5	6	2	4	3	4	4	4	4	7	8	3	7	4	4	5	6	4	1	0	4	1	4	1	0	1	4	4	4	4	5	5	4	4	5	4	5	0	1	3	2	3	4	3	2	2	4	4	3	4	3	3	4	1	0	0	2	2	3	5	7	7	5	4	3	2	2	6	4	0	4	2	3	4	5	6	7	4	5	4	4	4	3	3	5	5	2	1	4	3	4	7	3	4	3	4	2	0	0	4	4	3	4	4	3	1	2	7	10	8	3	4	4	5	7	7	5	4	4	4	3	1	0	0	0	0	1	4	3	1	4	2	4	7	4	4	3	4	4	4	8	4	3	3	4	1	4	4	1	4	3	3	2	3	0	0	0	2	4	2	2	2	2	3	2	2	2	1	0	4	4	1	2	0	4	2	4	3	2	5	4	5	5	4	2	4	4	4	3	2	3	4	4	4	3	2	4	8	4	3	4	1	3	4	1	2	3	2	0	4	4	4	5	0	2	1	3	3	1	0	0	3	4	2	3	3	0	0	0	0	2	6	7	4	3	7	5	2	5	7	6	2	3	3	4	1	0	1	2	4	5	6	7	5	3	2	4	4	2	3	3	1	0	0	0	0	0	0	0	0	1	5	7	4	4	4	4	5	5	4	2	4	4	3	2	2	2	2	1	0	0	0	0	0	1	4	6	5	5	6	5	4	4	1	2	0	5	2	4	3	3	2	4	3	3	0	3	4	4	4	3	1	0	1	4	5	6	5	4	3	1	2	1	1	2	1	1	2	1	0	1	2	1	0	0	4	4	0	0	0	3	7	2	6	5	4	4	3	1	2	1	3	5	7	7	5	2	2	4	4	4	1	0	1	3	3	4	2	3	0	0	0	3	4	1	1	4	3	0	0	0	2	4	2	4	4	4	4	4	4	0	1	3	3	1	1	1	1	4	2	5	3	3	4	2	2	1	0	0	4	3	4	3	0	0	1	1	3	3	1	4	4	5	7	7	5	4	4	4	2	2	4	3	
0	1	4	4	1	4	4	0	4	1	5	6	4	1	4	4	4	7	2	3	0	0	0	0	0	3	4	1	1	3	3	2	6	1	2	0	2	4	2	2	1	7	6	7	4	4	8	3	4	4	1	4	4	0	0	2	5	3	3	5	3	4	2	2	4	4	1	0	0	0	4	1	6	1	3	3	4	3	0	0	1	3	4	4	5	7	8	7	7	3	5	1	5	4	4	3	1	0	0	1	3	4	4	3	1	6	7	4	4	5	4	1	4	7	4	7	5	4	5	8	5	4	4	3	3	1	0	0	4	7	4	1	5	5	4	4	4	6	6	6	5	3	4	4	5	2	3	2	1	3	4	4	5	5	1	5	4	1	1	4	3	2	4	2	5	3	4	4	2	3	4	4	5	7	7	5	4	2	2	4	4	4	3	0	2	5	5	3	0	3	3	1	5	4	2	2	1	1	3	3	1	2	8	6	5	5	2	4	6	5	4	3	0	4	3	4	4	1	3	4	1	0	1	4	5	7	7	5	4	7	4	2	2	4	1	3	2	6	2	4	4	3	3	4	2	4	2	0	0	1	3	3	1	1	3	4	4	4	2	3	2	4	4	4	3	1	3	5	7	9	3	2	2	3	5	2	1	3	4	3	3	4	1	4	5	3	4	2	2	4	1	1	3	2	2	2	4	4	3	3	4	5	8	6	7	7	8	8	7	5	4	3	1	0	0	0	0	0	0	0	1	2	2	4	3	4	8	3	5	5	4	3	6	8	2	4	3	4	4	4	3	1	4	3	3	2	4	3	3	2	4	4	1	1	3	3	1	0	0	0	0	1	4	3	1	3	4	2	2	4	1	3	4	3	7	3	7	4	4	4	2	2	4	4	1	2	5	5	2	1	7	6	1	4	3	3	4	1	1	4	3	3	4	0	4	4	3	4	3	4	2	3	0	0	3	4	2	4	1	0	0	0	0	3	4	0	4	7	5	0	3	2	2	4	4	0	1	2	4	4	4	4	5	6	5	5	4	2	4	0	4	2	4	4	3	0	0	0	0	0	0	0	0	0	4	4	6	7	4	2	4	3	1	2	1	2	3	4	1	2	0	2	0	0	0	1	3	4	3	2	4	5	5	7	4	1	1	1	1	4	2	5	2	2	4	3	2	3	0	1	3	4	4	4	4	4	4	4	0	2	1	4	4	3	2	3	3	2	3	0	0	0	0	0	0	0	0	0	3	4	4	4	3	0	5	6	3	7	7	4	1	3	2	2	4	6	8	6	4	2	2	4	3	0	3	3	4	4	4	7	2	4	2	2	1	1	4	3	1	4	2	3	3	1	1	4	3	4	4	4	4	4	4	0	0	0	1	3	4	4	1	3	2	2	3	3	1	3	3	4	1	0	3	3	2	2	4	3	3	0	1	4	4	4	1	1	2	0	2	1	3	4	2	4	4	2	
0	3	4	0	3	4	3	0	4	0	7	4	4	4	3	4	4	5	3	4	4	3	1	0	0	4	4	1	5	7	7	4	4	2	1	0	1	4	4	5	7	9	6	9	8	8	7	3	3	2	4	4	2	2	2	4	3	6	2	3	0	4	2	1	2	3	2	0	0	0	3	3	4	4	1	0	4	3	3	4	4	4	4	4	5	7	7	4	7	4	5	5	4	0	4	4	4	4	4	5	7	8	8	7	7	4	4	4	3	2	4	5	7	7	2	4	3	1	5	7	3	4	4	0	1	2	1	0	4	5	4	5	0	4	3	0	5	8	11	11	9	7	8	5	5	8	9	6	4	5	7	8	7	5	4	5	7	5	5	7	4	0	4	2	2	4	4	4	4	1	5	4	3	1	4	2	0	4	4	0	1	4	2	2	3	1	3	4	4	3	2	5	2	3	0	0	0	2	2	3	2	4	7	3	7	5	4	4	3	3	3	4	1	4	4	1	4	4	4	4	3	3	1	1	3	4	4	3	2	5	7	4	5	7	5	4	1	7	1	3	2	2	1	3	3	4	1	0	0	0	0	0	0	0	0	0	0	1	4	2	3	5	7	7	4	2	5	7	6	10	7	2	4	6	2	3	0	0	3	4	3	4	0	3	4	4	5	6	4	3	3	2	1	3	4	3	1	4	4	4	3	4	5	2	4	4	4	4	4	4	1	0	0	0	1	3	4	4	4	4	3	2	3	5	7	4	7	2	6	4	1	3	4	7	1	3	4	7	8	6	2	3	4	0	4	6	5	4	4	4	4	1	0	0	0	0	0	0	0	0	1	4	4	0	4	4	2	2	4	1	1	4	3	3	5	7	8	4	1	0	3	3	1	3	2	3	3	5	4	2	4	4	4	4	3	1	4	4	3	3	4	3	4	2	4	1	3	4	4	6	2	4	2	1	1	4	3	3	1	2	1	0	0	3	4	7	7	5	2	4	3	3	2	1	4	4	5	7	7	5	3	2	3	4	3	3	2	1	4	4	4	2	4	4	3	0	0	0	0	0	0	0	0	0	3	4	6	5	2	5	7	4	1	1	2	1	3	4	4	5	6	5	4	3	1	2	2	0	1	2	2	4	4	3	2	1	2	1	2	1	1	3	7	6	1	3	4	3	1	0	0	0	0	2	2	1	2	1	3	3	4	4	3	4	1	4	4	1	4	0	1	3	3	2	2	1	0	0	1	3	4	4	4	4	4	6	2	1	2	2	1	4	3	3	4	3	0	2	1	4	2	3	4	4	4	4	7	4	6	8	1	4	5	6	5	4	4	3	2	3	3	4	4	4	1	4	4	4	4	4	3	4	3	0	0	0	3	4	4	5	5	2	0	0	0	0	0	4	3	4	3	0	2	1	3	4	4	4	5	3	2	3	3	1	1	2	3	2	2	3	3	5	4	4	1	2	
3	5	5	2	5	5	2	0	3	2	7	4	2	4	2	4	4	4	3	5	6	5	3	0	0	3	4	4	7	5	5	6	5	3	2	3	4	5	6	6	8	7	3	5	7	7	4	6	4	7	8	6	2	0	5	4	2	7	4	4	2	3	2	4	4	4	3	1	0	1	3	5	3	3	0	1	3	3	7	8	7	5	3	1	2	2	1	4	7	5	1	4	3	2	4	2	3	7	7	4	3	1	3	5	10	7	4	4	4	4	5	7	7	4	0	4	3	3	6	5	2	4	4	0	3	3	4	1	3	4	5	8	9	6	3	1	7	10	10	9	8	7	8	5	7	8	6	5	4	5	7	8	7	5	5	7	8	8	7	5	4	3	1	2	1	1	3	4	5	5	1	3	4	4	4	1	0	4	4	1	4	4	1	0	3	2	2	3	5	7	6	3	2	3	0	0	1	4	8	9	6	7	7	6	7	7	8	6	4	4	1	4	4	3	4	1	3	4	3	4	4	4	4	1	0	0	0	0	0	3	5	6	5	5	5	3	2	5	4	1	2	0	0	1	2	1	0	0	0	0	0	0	0	0	0	0	0	2	3	4	7	7	5	3	3	1	6	4	2	6	9	5	5	7	1	4	0	0	1	4	3	3	0	2	5	4	4	4	8	4	3	1	2	0	4	2	5	7	5	4	1	4	4	0	3	4	1	0	1	4	4	4	3	2	4	4	4	5	6	4	3	1	4	5	7	7	5	2	5	7	8	7	4	5	1	3	4	3	2	3	4	5	3	4	4	4	3	1	1	2	0	2	1	1	3	4	3	1	0	0	2	3	3	4	4	1	3	5	3	2	4	5	3	2	4	8	8	8	7	4	4	3	4	3	1	4	3	4	7	5	1	3	6	4	1	0	1	2	3	2	4	1	4	3	3	0	3	4	3	5	3	5	4	4	1	1	2	1	3	2	4	3	4	5	7	7	5	3	1	2	6	7	4	2	4	7	7	5	4	4	2	2	1	2	3	3	4	2	3	4	3	3	5	4	2	3	3	1	0	0	0	0	0	0	1	4	3	7	1	7	5	4	4	3	1	0	1	3	4	4	4	4	4	4	4	0	3	3	1	2	2	1	4	3	1	2	1	4	2	2	4	4	3	4	3	0	3	2	3	0	0	0	0	2	2	2	2	1	4	2	2	0	3	4	2	3	3	2	4	2	4	4	4	4	4	4	1	0	0	0	0	1	4	6	4	2	3	4	3	1	0	4	4	2	4	3	2	1	3	3	2	4	4	3	1	3	7	5	5	7	2	1	4	5	7	5	3	1	1	3	3	1	1	4	3	4	4	3	4	4	1	4	2	0	0	0	3	4	3	0	4	4	2	3	4	3	2	4	3	3	4	2	4	4	3	1	0	1	4	4	2	2	1	1	4	4	5	7	7	5	4	5	5	2	0	1	
4	5	7	4	8	6	5	3	3	5	5	3	2	3	2	3	3	4	4	6	2	7	4	0	0	1	3	4	5	3	1	3	4	4	4	4	4	3	3	0	6	3	2	2	3	3	3	5	2	4	3	4	5	6	5	3	1	5	6	4	4	3	4	2	1	4	2	3	0	3	3	5	5	2	0	2	2	7	4	1	1	3	4	4	3	4	4	4	4	4	6	5	4	3	0	2	5	3	2	3	6	7	5	4	7	7	8	8	8	7	5	4	4	3	3	3	3	4	4	4	4	4	5	3	3	3	4	3	2	5	5	5	7	7	5	1	8	12	6	3	5	7	8	4	4	4	2	3	0	3	2	1	1	3	4	4	5	5	3	1	3	4	1	1	3	4	3	1	3	4	4	4	3	2	2	2	2	4	4	4	5	5	8	9	5	0	4	4	0	3	4	1	1	3	3	1	3	4	4	3	2	5	5	3	4	4	3	3	6	4	1	4	7	7	5	4	4	4	3	2	4	0	4	3	0	0	0	0	0	1	3	2	2	4	3	0	1	4	5	3	1	0	0	0	0	0	1	3	3	1	0	0	0	0	1	3	3	3	6	7	4	3	2	2	4	1	5	7	5	2	5	7	7	5	2	4	3	1	0	1	2	1	1	4	4	4	4	2	5	4	1	0	0	2	3	4	9	8	7	4	2	4	5	1	2	4	2	0	0	1	3	4	4	4	4	1	0	2	0	5	4	2	4	2	2	1	2	2	1	3	4	4	3	4	3	2	1	2	0	1	4	7	5	5	2	0	0	0	0	0	3	2	3	2	2	0	2	2	0	0	1	4	6	4	1	1	4	7	1	5	4	4	3	4	1	6	5	4	7	7	5	6	5	3	1	3	4	4	7	6	1	5	4	4	4	3	1	3	4	3	4	0	1	2	0	3	3	3	1	4	5	5	3	4	3	0	1	3	5	3	6	4	4	4	3	1	0	0	1	3	5	4	4	1	3	3	3	1	1	4	5	0	2	3	4	1	4	5	3	4	4	3	1	2	2	3	2	3	0	0	0	0	0	1	2	4	2	7	1	7	5	3	1	2	2	0	0	0	0	0	0	0	0	1	4	4	4	4	4	4	5	6	4	2	3	5	6	5	4	6	5	7	3	4	3	2	4	3	4	1	0	0	0	1	3	3	1	3	4	0	4	5	7	7	5	4	4	4	5	4	4	1	1	2	2	4	3	0	0	0	0	2	3	2	3	1	2	1	0	0	1	4	2	4	5	4	4	3	4	3	4	1	0	1	3	5	8	8	7	5	1	0	4	2	4	2	0	0	0	0	0	0	0	4	3	4	3	2	6	7	5	5	4	1	0	0	1	3	4	3	2	3	3	4	4	4	4	4	1	1	4	4	5	3	1	0	1	3	2	3	6	2	4	4	4	2	3	4	4	3	2	3	4	4	3	2	
1	3	5	4	8	5	7	5	4	4	3	1	1	3	3	1	1	3	4	5	1	8	4	1	2	1	1	5	5	2	0	0	0	1	2	0	3	4	4	2	5	7	1	2	1	1	4	3	2	4	2	1	3	4	3	1	0	1	3	4	4	2	1	3	2	7	1	4	1	4	4	5	5	3	0	1	4	5	2	4	4	3	4	6	0	2	0	1	3	4	4	5	7	7	5	3	4	4	4	7	4	5	5	3	2	3	4	4	4	4	4	4	4	4	4	4	6	4	2	4	5	1	4	3	2	4	4	4	3	2	2	3	4	5	7	7	8	8	7	6	1	5	9	7	4	0	2	1	0	4	1	2	3	2	0	1	4	2	2	1	1	4	4	4	4	4	4	2	1	1	3	4	4	4	4	2	3	5	7	7	7	8	9	10	10	5	1	4	2	0	3	3	4	5	6	5	3	5	1	2	4	4	3	0	4	3	5	7	5	2	4	5	8	10	8	4	3	5	5	2	4	4	3	4	0	1	2	1	0	0	0	3	4	2	2	4	3	2	4	4	1	0	0	0	0	0	3	2	3	2	0	0	0	0	2	3	3	4	4	2	2	4	1	2	5	5	3	4	4	4	4	4	3	2	4	7	7	5	1	1	3	5	7	6	3	3	3	1	3	4	3	1	0	2	6	8	9	5	4	4	1	1	6	3	3	5	4	3	1	1	2	1	1	3	4	3	2	3	3	5	4	1	4	2	4	3	3	2	1	3	4	4	3	4	4	0	0	1	2	1	1	5	5	2	2	0	0	0	0	0	3	2	4	3	5	7	6	2	1	3	3	4	2	4	2	4	4	9	7	4	4	4	3	4	2	5	7	3	4	6	1	3	4	4	4	0	3	3	4	5	6	5	2	3	5	6	5	3	4	4	4	0	0	1	5	7	8	7	6	7	7	5	4	4	4	4	4	4	5	6	5	3	0	0	0	0	0	0	0	2	5	5	4	2	4	4	4	4	4	4	4	2	1	2	6	8	7	5	2	3	3	2	2	2	3	5	3	3	0	0	0	0	0	3	2	4	2	5	3	5	5	4	4	3	1	0	0	0	0	0	0	0	1	2	2	3	4	3	2	2	2	3	4	4	4	4	4	2	6	6	5	7	3	3	3	4	5	6	5	4	2	3	4	3	1	0	1	4	2	4	4	3	3	3	4	4	3	3	3	2	1	0	0	1	2	2	4	2	2	1	0	1	4	1	4	2	0	2	0	0	3	3	2	5	5	4	4	4	4	3	3	2	2	3	3	3	5	7	4	1	0	1	4	0	4	1	0	1	3	3	2	2	1	3	3	5	4	3	1	1	3	5	5	3	0	0	1	3	4	2	4	3	3	2	0	1	2	1	0	0	1	3	5	4	4	1	2	2	2	1	7	3	6	4	1	0	0	1	2	1	0	0	1	3	4	4	
1	1	4	3	6	3	3	4	2	1	0	1	3	3	1	0	0	1	4	4	3	7	4	4	4	4	4	7	3	3	0	0	0	0	1	4	4	2	1	2	3	7	5	1	2	2	3	3	4	4	1	0	1	2	1	0	0	0	0	3	4	1	0	3	2	7	4	5	5	3	7	2	7	3	2	1	4	3	4	3	3	4	3	5	2	1	0	1	3	3	1	2	3	2	4	2	0	3	3	4	2	3	4	0	1	3	3	1	1	4	6	4	1	4	4	3	3	4	4	4	2	3	5	4	2	4	2	4	4	2	3	4	4	4	5	8	5	3	2	1	3	3	4	4	4	4	4	3	2	4	2	3	4	2	2	3	3	3	4	4	4	5	7	8	7	5	5	4	4	2	3	3	1	0	4	1	3	2	4	5	8	8	5	4	8	7	4	4	1	0	1	2	1	3	3	7	3	5	0	4	2	1	3	4	2	2	5	4	2	2	4	4	4	3	3	2	3	3	7	5	3	3	1	4	4	4	4	4	2	3	3	2	4	4	4	4	4	4	5	7	4	1	3	3	1	1	4	5	7	5	3	1	0	0	1	4	3	2	3	4	2	2	4	5	7	8	8	7	5	4	4	4	4	4	4	4	5	7	4	4	4	5	7	5	4	1	0	0	1	3	4	4	2	5	7	7	5	0	3	4	2	2	5	3	4	5	3	3	4	3	0	2	0	2	2	2	4	0	2	4	4	1	4	2	4	2	5	3	4	4	4	2	2	4	3	0	1	3	3	1	0	2	4	5	4	2	3	4	4	4	4	3	4	3	4	4	4	4	4	4	4	7	0	6	0	6	3	5	7	3	3	4	4	3	4	2	8	5	4	7	3	4	1	1	4	4	4	4	4	4	3	1	0	0	3	3	7	3	3	3	4	4	4	4	7	5	4	3	1	1	2	2	4	4	3	3	1	2	1	4	6	5	4	3	1	0	0	1	3	4	5	7	4	1	1	3	4	4	4	3	1	1	3	5	8	9	6	3	1	1	4	4	1	3	2	4	2	0	3	3	2	2	1	3	2	3	0	3	4	4	3	1	3	4	3	2	3	3	2	2	1	0	2	0	2	0	0	0	0	3	2	3	1	2	1	0	0	3	4	5	7	5	2	3	3	1	2	2	0	4	1	4	4	4	3	0	3	3	2	5	3	0	4	4	3	2	4	4	1	1	2	1	0	3	2	3	5	7	2	3	0	0	4	1	4	0	2	1	1	2	4	3	5	5	4	1	0	4	4	3	3	5	1	3	4	3	1	4	3	0	0	3	4	2	4	1	1	5	7	7	6	0	3	4	6	7	7	6	2	2	1	4	6	4	4	4	4	4	3	2	3	1	4	4	4	4	4	3	1	0	0	3	4	2	4	4	4	4	3	2	5	4	5	4	0	0	0	3	2	3	0	0	0	0	1	2	
2	0	1	3	4	2	2	3	0	0	0	3	4	4	4	3	1	3	4	1	4	5	3	3	2	3	4	5	1	4	0	0	0	0	2	4	1	4	3	6	2	7	5	2	1	1	3	4	3	1	0	0	3	3	4	1	0	0	1	4	7	5	4	5	5	4	7	3	7	1	7	2	6	3	3	3	4	2	4	3	3	5	0	4	4	4	3	3	3	2	3	1	4	1	4	0	3	2	2	3	4	3	3	0	3	4	4	4	4	4	4	3	1	4	3	4	3	4	6	4	2	4	4	1	2	4	1	3	3	2	2	1	4	4	3	2	3	2	2	1	3	5	5	2	2	6	8	7	5	4	2	1	1	3	0	3	4	6	5	4	4	4	4	4	4	4	4	2	4	4	4	4	4	4	5	4	3	2	0	3	7	5	2	3	6	5	5	2	0	0	1	3	3	3	0	5	2	2	2	2	3	4	4	4	2	3	2	4	4	5	5	2	2	4	4	1	3	3	4	7	7	4	3	5	5	3	2	4	6	4	4	3	6	6	2	0	2	6	7	8	8	8	8	7	5	4	5	6	5	4	4	3	0	0	0	1	3	4	4	2	2	4	4	5	4	5	4	3	0	4	5	1	3	3	0	2	2	5	6	4	1	3	4	0	4	4	3	4	4	4	3	3	1	7	5	3	0	4	3	1	2	0	3	3	5	4	3	2	5	7	3	2	2	1	6	6	0	4	2	3	4	4	4	2	4	0	7	2	7	5	4	4	3	0	2	1	3	4	4	4	4	4	7	4	4	5	4	4	4	4	4	3	3	2	1	2	4	6	4	2	4	8	0	5	2	5	3	4	4	2	2	4	3	2	4	1	7	7	5	8	4	5	3	0	2	6	8	7	5	4	1	0	0	1	4	1	5	2	1	1	4	7	8	7	5	3	1	4	4	4	3	0	4	4	0	2	0	2	0	3	4	4	4	4	3	0	0	2	2	1	2	4	4	3	1	1	2	2	3	4	4	4	4	3	3	0	2	0	0	3	4	1	0	4	1	4	1	2	2	1	3	3	4	1	2	4	4	5	6	4	1	2	2	0	1	3	3	3	5	2	3	0	1	2	1	0	0	0	0	4	1	4	2	2	1	0	0	4	1	4	3	1	2	0	3	2	1	2	0	3	2	3	0	3	4	1	3	3	4	4	2	3	1	3	4	4	4	1	0	3	3	4	1	3	2	6	4	10	3	4	3	4	4	2	4	4	4	4	4	4	5	4	5	4	1	0	0	4	4	4	3	5	4	1	3	4	2	4	5	1	1	4	3	1	4	4	4	5	4	5	8	3	4	4	4	4	3	3	4	6	4	4	5	6	5	5	5	2	0	3	4	7	7	5	3	1	1	3	4	1	0	3	4	2	4	6	5	3	0	0	3	4	4	3	0	0	0	3	2	4	4	6	4	1	0	0	
0	2	2	4	4	2	3	0	3	3	1	4	4	1	2	3	2	4	4	0	3	4	1	0	1	3	4	4	3	4	0	0	0	0	2	6	8	7	5	8	5	10	5	3	1	0	1	3	4	4	3	1	4	2	4	2	0	1	4	4	5	7	8	7	5	3	6	2	6	3	5	2	4	5	4	4	5	5	7	7	1	6	3	3	5	8	10	10	8	7	5	4	4	2	4	1	3	2	4	2	2	2	1	0	4	3	2	0	2	1	4	5	4	4	0	4	4	4	4	4	5	3	3	4	4	4	2	2	2	3	3	1	3	4	2	2	2	2	0	2	1	2	0	2	2	3	3	5	6	5	3	4	3	5	5	2	3	4	4	3	0	0	0	0	1	3	4	3	2	2	1	1	3	4	5	7	4	1	0	4	8	3	5	7	3	2	4	3	1	3	4	4	4	3	2	4	1	0	0	1	3	4	3	1	4	4	0	1	4	7	5	3	1	1	3	3	0	4	3	5	5	3	3	3	4	4	4	5	8	5	5	7	4	4	4	2	3	2	2	4	7	10	9	8	8	6	3	2	1	1	4	3	1	2	2	3	5	7	7	5	4	1	0	3	2	4	3	4	5	8	7	7	3	0	3	2	2	3	4	3	0	2	5	4	5	8	4	4	4	3	1	1	2	7	4	1	4	2	2	4	4	3	2	2	3	3	2	3	1	6	3	3	2	6	4	4	6	2	4	2	0	2	1	0	3	3	6	6	4	5	4	3	2	4	4	3	3	4	0	3	4	2	4	5	8	5	1	0	0	1	4	3	1	3	4	4	4	4	4	6	4	7	0	5	2	5	2	4	2	0	3	4	0	4	4	0	5	4	8	8	2	6	4	0	2	3	3	4	4	4	3	0	1	4	4	2	4	1	0	0	2	3	3	4	3	1	2	4	2	4	4	0	3	4	1	1	2	1	0	4	3	3	4	4	3	0	0	2	6	8	8	7	5	4	2	4	4	4	4	4	3	1	1	3	4	3	2	3	4	4	3	0	1	4	1	4	2	1	3	3	2	2	6	2	6	4	3	1	2	2	0	2	6	8	6	4	4	7	5	1	4	0	1	2	1	0	0	0	0	4	2	4	4	0	2	0	0	3	2	3	0	0	1	2	3	1	3	3	2	3	3	1	0	1	4	4	5	6	4	2	2	2	3	4	3	2	3	4	4	5	4	3	2	1	2	4	1	7	6	5	4	4	3	1	1	4	7	8	6	3	4	4	4	1	0	0	0	3	4	4	3	3	4	4	2	3	6	3	7	4	2	4	1	0	2	6	6	1	4	1	7	5	4	3	0	1	3	3	2	4	4	4	3	4	3	3	3	4	1	2	5	5	3	1	3	4	4	3	6	7	4	0	4	6	4	4	7	5	1	0	1	3	3	1	0	1	3	5	6	5	5	4	5	4	1	0	
4	3	1	4	2	3	4	4	4	4	4	4	4	2	3	3	3	5	5	3	2	4	4	1	3	4	3	1	4	4	0	0	1	3	5	8	9	6	5	9	8	11	7	5	3	1	5	6	5	4	4	4	4	3	4	1	1	2	2	2	0	3	3	3	2	5	3	1	1	5	5	4	3	3	2	6	7	4	4	7	4	7	5	4	4	7	8	11	10	7	5	4	4	4	5	3	1	2	4	3	4	2	3	4	4	0	4	4	3	1	5	5	2	2	2	4	4	4	1	4	5	3	4	4	3	1	2	0	4	3	2	3	2	4	1	2	2	4	4	4	4	5	6	4	0	4	4	3	0	4	6	8	4	2	4	4	4	4	3	4	0	0	0	0	1	4	4	4	3	0	0	0	0	1	4	7	5	1	0	4	7	4	8	4	3	2	3	4	4	4	3	2	4	6	5	5	3	0	0	2	3	3	4	4	4	5	4	3	1	4	2	2	6	9	10	8	5	4	4	3	4	2	4	2	3	4	5	7	11	8	7	5	1	4	7	2	4	4	6	3	4	4	4	5	7	5	4	1	0	3	4	0	4	4	4	4	5	7	7	4	1	0	0	2	0	4	3	3	4	4	2	7	4	0	3	2	4	2	4	4	1	3	6	3	3	9	7	4	4	5	7	8	7	5	3	2	3	3	4	2	3	4	3	0	1	4	3	2	4	4	4	3	2	7	4	4	7	2	6	2	3	2	0	0	2	3	3	6	3	3	1	2	2	4	4	3	1	4	4	4	4	4	5	6	5	1	1	3	3	3	4	2	0	0	1	3	3	0	4	7	6	4	1	6	1	6	3	4	4	2	4	3	3	4	1	3	4	2	7	2	4	5	2	3	4	5	4	4	4	3	3	1	3	4	1	1	4	4	4	4	2	3	3	0	1	2	1	5	5	4	4	3	4	5	3	1	3	3	1	3	3	4	4	3	1	0	0	3	4	4	4	3	1	4	2	4	1	2	1	0	3	2	1	2	2	1	4	4	4	3	1	0	2	3	3	4	1	0	0	1	3	3	4	2	6	4	4	5	5	2	0	2	2	1	4	7	7	5	3	3	4	0	3	3	4	3	2	3	4	5	4	4	2	2	1	0	1	4	6	4	1	0	0	0	2	4	2	0	0	0	0	1	2	1	2	2	1	3	4	2	0	2	5	6	5	4	5	6	5	5	7	6	3	3	3	0	2	1	6	6	2	0	0	0	0	2	2	0	2	3	1	1	1	0	0	0	0	1	3	3	1	1	4	7	7	4	7	1	5	5	3	3	1	2	4	4	4	3	2	3	4	7	7	5	4	4	3	2	4	5	4	3	0	4	4	3	3	2	4	4	4	1	0	0	3	4	4	6	4	7	8	5	3	8	4	1	5	7	4	1	0	0	0	0	0	3	5	7	7	4	2	2	2	4	3	1	
6	4	2	4	2	2	6	6	2	1	3	4	5	3	4	3	5	7	5	4	3	1	4	3	4	4	0	0	4	4	0	0	3	4	5	5	4	4	2	5	6	8	3	6	4	2	7	3	3	0	1	4	5	6	5	4	4	2	2	4	4	1	2	3	3	4	4	2	4	4	1	0	3	4	2	4	2	2	4	5	1	7	7	6	4	4	2	4	6	4	2	1	3	2	7	5	2	2	4	2	4	4	4	4	3	2	4	3	4	3	6	2	3	4	3	3	3	4	4	2	2	4	4	3	2	3	4	2	2	5	3	3	3	4	0	3	4	3	1	3	4	4	4	4	4	3	4	4	4	6	4	10	8	4	3	3	3	4	3	2	3	4	4	4	4	4	0	4	3	0	0	0	0	3	4	5	7	4	1	4	5	4	4	2	4	1	1	3	3	0	2	3	2	0	2	5	4	1	0	2	6	7	4	6	5	9	8	5	3	3	3	4	5	7	7	8	7	7	2	5	3	2	2	2	3	1	3	3	8	7	4	1	0	4	7	2	3	2	1	5	5	1	1	2	2	4	7	5	1	3	4	2	4	3	5	4	3	4	3	4	1	0	0	2	0	3	4	4	5	7	7	4	3	2	2	1	4	1	4	7	5	2	5	4	4	5	5	8	8	7	5	3	1	1	2	0	4	6	5	4	3	5	4	0	0	3	4	1	0	1	4	0	3	5	3	4	5	2	4	3	4	1	1	3	4	2	3	2	1	2	4	1	1	3	3	1	0	1	4	6	5	3	3	4	1	2	5	7	7	7	5	4	1	0	1	3	3	2	4	2	4	1	4	7	7	5	3	1	4	4	5	3	4	4	4	4	3	4	7	2	6	4	2	4	4	4	3	4	5	2	2	4	4	3	0	0	1	2	2	3	4	3	3	0	3	2	6	4	7	6	2	3	3	7	5	2	4	4	4	0	2	0	3	4	4	3	1	3	4	3	2	3	3	4	2	3	2	0	0	0	3	2	2	3	3	2	4	1	0	0	0	0	1	3	4	3	1	0	0	0	0	0	1	2	2	3	3	4	2	3	0	1	3	4	2	3	3	1	0	4	4	1	4	2	3	4	1	2	1	4	6	4	1	0	1	3	4	5	6	5	3	0	0	1	4	4	4	1	0	0	0	2	0	2	3	4	4	3	1	4	4	5	5	3	3	0	2	0	2	1	3	4	4	3	3	1	3	4	4	4	4	1	0	0	1	1	2	4	3	4	2	3	0	0	0	0	0	0	0	0	0	0	3	4	5	5	3	2	2	4	6	4	3	0	5	4	3	3	4	4	1	1	3	4	4	4	4	5	1	4	3	1	0	3	4	0	4	2	3	3	1	0	0	0	1	3	4	4	2	2	4	8	4	6	4	4	4	4	4	4	4	4	4	3	1	4	7	4	4	3	0	0	0	3	4	4	
4	6	3	4	1	3	4	4	3	0	1	4	2	3	4	3	4	4	3	4	3	1	4	2	5	5	4	3	4	4	3	2	4	4	4	3	1	4	4	5	6	5	3	5	4	4	7	2	4	1	0	1	3	4	4	4	3	3	4	2	4	2	2	2	2	2	3	3	4	1	1	2	2	4	2	3	1	4	2	3	3	8	7	3	3	1	3	3	5	7	2	3	4	1	7	7	2	7	7	4	2	2	1	1	2	0	4	3	4	4	7	6	5	4	3	1	1	3	4	2	2	4	4	4	6	4	4	6	2	5	0	2	4	4	3	4	3	1	1	2	1	0	0	4	6	1	4	4	4	7	2	7	7	7	7	4	1	1	2	2	4	5	7	8	7	4	4	4	1	0	0	0	0	4	4	4	5	4	4	4	2	4	1	4	2	1	3	4	3	4	2	4	3	4	2	2	5	4	1	2	2	6	6	4	6	6	8	7	7	7	5	5	5	2	3	4	4	7	10	10	7	5	4	3	2	3	3	1	4	4	4	1	0	3	5	4	4	5	7	7	2	0	2	2	1	3	5	7	3	1	4	3	3	3	5	6	5	5	5	7	5	2	3	4	4	3	0	4	7	7	4	1	2	0	3	3	5	5	2	3	5	3	3	2	2	1	3	4	4	3	0	4	4	4	4	4	4	4	4	3	3	6	4	1	3	2	3	3	4	2	4	2	2	3	2	3	4	0	1	2	1	0	3	4	3	2	4	3	4	4	5	5	2	0	0	0	0	1	4	4	4	1	3	2	6	2	9	6	4	6	3	4	4	4	4	4	4	3	3	0	3	3	7	5	7	4	1	0	1	2	4	2	4	4	7	6	3	4	8	7	7	5	5	5	4	4	2	3	3	2	2	3	4	3	1	0	0	3	2	4	4	5	2	0	4	0	8	3	2	3	1	4	2	4	7	1	4	1	4	4	4	4	4	4	4	4	4	2	2	4	6	4	4	5	6	4	1	0	0	0	1	2	1	0	0	4	4	0	1	3	4	3	1	1	4	4	4	3	1	0	0	0	1	2	1	0	0	3	2	3	0	1	3	4	3	0	0	0	0	3	4	2	4	1	0	3	3	2	4	2	3	4	3	1	5	6	4	3	1	6	5	0	1	4	4	2	4	4	1	1	3	4	4	4	5	5	4	3	0	2	5	5	4	2	4	3	0	2	1	0	0	2	4	2	3	3	5	5	1	2	3	2	0	1	4	3	3	0	0	4	0	4	1	2	2	3	3	1	0	1	3	3	3	4	1	4	2	2	3	2	2	2	4	3	2	4	3	0	5	3	4	3	4	2	3	4	4	4	3	4	4	4	3	2	4	4	4	3	0	0	0	0	0	0	0	1	4	2	2	4	3	4	2	2	3	4	4	3	1	6	8	8	7	5	3	4	7	4	4	3	0	0	0	2	5	4	
4	5	2	1	0	3	4	3	4	0	3	4	1	4	5	4	5	7	8	6	2	2	3	4	8	5	4	4	4	3	4	2	5	5	4	1	0	1	3	4	3	1	3	4	5	6	5	2	4	3	0	0	0	1	3	3	1	3	4	7	6	2	3	4	4	3	1	2	1	1	2	1	1	3	2	1	3	5	5	3	7	9	4	3	3	0	0	0	3	7	6	4	3	3	5	9	7	8	5	4	2	2	1	2	0	2	2	5	5	4	5	4	4	4	4	4	3	1	0	4	4	0	0	6	8	1	4	7	0	6	0	3	4	5	2	4	1	1	4	3	3	0	0	4	5	4	7	6	4	4	3	5	3	1	3	4	1	0	0	3	4	4	2	1	0	2	6	4	1	3	4	3	1	3	4	2	4	2	4	5	3	3	1	3	2	3	4	3	4	6	2	4	1	0	2	0	3	4	4	0	4	2	4	1	8	3	5	7	8	8	7	5	4	1	3	3	4	4	7	10	11	9	8	8	5	5	3	2	3	4	5	3	0	1	4	4	4	4	3	1	0	0	1	3	3	1	4	7	4	4	5	6	5	4	5	1	2	3	0	3	6	6	4	4	3	1	3	4	3	4	4	0	2	2	4	2	2	5	5	4	4	0	4	4	4	3	1	0	0	0	3	3	2	3	2	6	5	2	0	3	4	4	4	4	4	4	3	5	1	5	4	1	2	5	5	3	3	0	0	0	0	1	4	2	3	2	2	4	7	4	2	4	2	0	0	0	0	2	3	2	4	4	5	3	6	2	7	7	8	8	4	0	3	4	3	1	1	2	1	1	4	6	4	1	2	3	4	3	1	1	4	1	4	3	4	4	4	5	7	8	7	7	7	8	5	5	4	5	7	7	5	4	4	3	3	0	0	3	3	7	4	4	3	0	2	5	7	2	4	4	2	3	5	3	6	2	4	3	5	7	8	6	2	0	0	1	3	4	4	4	7	4	1	3	4	3	0	0	0	0	0	0	0	1	2	2	4	2	4	5	7	7	5	2	4	2	3	4	3	0	0	0	2	1	4	3	1	2	5	5	4	4	4	3	1	0	0	1	3	4	5	3	4	2	1	1	4	4	4	3	1	4	2	4	7	3	3	2	3	5	8	3	4	4	1	0	1	4	3	3	4	4	1	3	4	7	5	4	4	4	5	5	2	2	6	7	5	1	0	0	0	3	3	5	4	4	7	6	7	4	2	1	0	3	4	3	4	0	0	3	2	4	4	4	4	4	4	4	2	4	5	6	4	2	2	0	4	3	1	4	4	3	1	3	3	5	5	4	6	0	5	3	2	4	5	7	6	2	2	3	3	4	4	4	2	3	3	1	0	0	0	0	0	0	0	2	4	1	4	0	3	3	1	0	1	3	4	3	5	3	3	3	3	5	4	2	5	4	3	2	3	4	3	4	2	4	
4	3	1	3	3	0	4	0	4	1	4	4	2	3	5	7	6	2	0	3	4	4	5	7	7	3	2	5	4	1	3	2	6	4	1	0	0	0	0	0	1	2	0	3	4	3	1	0	3	4	4	4	4	4	4	4	4	5	7	7	5	4	5	7	4	3	0	0	1	2	0	2	1	0	3	2	6	4	8	5	7	5	2	4	1	0	0	0	1	5	8	5	0	4	0	5	6	5	3	3	3	3	3	1	2	2	4	4	3	3	4	0	0	1	4	6	5	3	1	4	3	0	0	5	7	4	4	5	1	5	6	5	4	7	3	3	2	2	3	2	3	0	0	4	4	4	7	2	4	3	3	3	2	2	1	4	4	3	1	1	4	6	3	4	4	3	4	4	4	3	1	2	2	2	4	1	4	3	3	2	6	4	8	9	5	3	4	2	7	6	2	4	3	0	1	2	1	1	4	4	5	4	5	0	7	4	0	3	5	7	9	9	6	5	7	8	7	5	5	6	6	7	8	9	6	7	6	7	8	7	8	5	4	4	5	6	4	1	0	0	1	3	4	3	2	3	2	4	6	5	5	6	5	3	2	2	2	4	7	6	3	7	5	1	3	4	5	2	2	5	2	2	2	3	4	5	4	4	3	2	3	2	5	3	2	4	3	4	3	1	3	3	4	4	2	4	7	4	1	3	4	2	3	3	0	1	1	1	5	5	0	3	4	4	5	6	4	1	0	0	0	2	3	3	4	4	3	4	7	4	4	4	1	0	0	0	0	1	3	5	7	4	4	2	2	2	2	3	5	5	4	3	0	0	1	3	4	3	1	3	4	3	2	4	2	2	4	4	4	4	2	4	5	5	5	0	2	1	1	3	4	5	4	7	2	4	2	3	4	4	4	4	3	3	4	0	0	1	2	5	1	4	3	1	4	6	4	1	4	2	2	0	3	2	2	3	5	4	4	4	4	4	4	1	1	3	4	5	7	7	5	3	0	0	4	4	0	1	2	2	3	3	2	4	3	2	4	4	5	5	4	5	8	4	3	0	0	4	4	1	3	4	5	6	5	4	4	4	5	7	7	4	1	1	3	3	1	3	4	4	5	6	5	4	4	1	1	3	3	1	2	3	3	4	5	0	3	4	5	5	10	5	4	1	1	2	1	3	4	3	4	4	3	4	3	3	0	3	3	3	2	5	10	10	7	7	8	4	3	1	1	4	2	4	4	4	7	4	8	7	2	2	1	4	4	3	4	4	3	2	3	5	4	2	2	1	1	4	4	4	3	1	3	2	3	3	3	4	4	3	2	1	1	3	3	3	4	7	5	2	2	4	2	2	3	2	2	2	1	4	3	0	1	4	3	0	0	0	0	1	3	3	1	0	0	1	4	2	4	4	1	0	1	2	4	4	3	2	5	5	4	2	4	2	4	3	3	3	2	3	3	3	4	6	2	6	
3	3	4	4	4	4	4	2	4	4	4	3	2	1	5	10	12	11	8	5	5	4	1	4	4	0	5	6	1	3	4	6	5	2	2	1	0	0	0	0	2	0	2	1	3	4	3	2	4	7	8	8	7	4	1	1	3	4	3	1	2	1	4	7	7	4	1	0	2	1	2	1	1	3	4	3	5	3	5	4	4	4	2	4	2	3	3	2	3	4	4	7	4	3	3	3	4	3	1	2	4	4	4	1	0	3	4	1	1	4	3	0	1	2	3	0	6	3	4	5	4	4	4	5	6	3	4	4	2	3	5	5	4	5	7	6	2	1	3	4	4	3	1	3	4	3	7	2	6	2	3	2	6	6	2	1	3	4	4	4	2	4	3	0	2	2	4	7	6	2	3	1	2	4	4	1	4	4	3	2	4	4	8	6	7	3	3	1	7	7	5	7	4	1	0	1	3	3	2	4	7	4	6	3	5	4	2	1	3	5	8	10	9	8	8	8	8	8	7	5	2	4	5	9	7	7	6	5	4	5	8	5	4	4	4	4	4	3	0	1	5	7	7	5	5	3	1	2	4	4	4	4	4	1	0	0	0	3	2	3	1	5	8	8	7	7	7	4	5	3	2	1	2	3	3	5	5	6	5	4	5	3	4	4	1	6	2	0	2	2	1	2	1	1	4	4	5	3	2	1	4	4	1	0	2	1	2	1	4	1	5	7	6	3	3	4	4	3	0	1	3	5	6	4	0	4	4	4	7	4	3	1	1	3	3	1	0	0	1	4	4	2	5	4	3	1	0	0	3	4	4	4	3	3	3	2	0	2	3	4	3	0	3	4	4	3	0	1	3	3	2	7	5	5	7	4	3	3	1	1	4	4	3	7	2	3	0	0	1	3	3	1	0	3	4	4	4	3	0	4	4	4	0	4	4	1	0	1	4	4	2	2	2	3	4	4	2	2	3	1	1	3	5	4	4	4	4	4	4	4	3	1	1	3	4	3	0	3	2	6	4	4	5	4	2	3	2	5	5	4	1	2	5	2	1	1	3	2	2	5	7	7	5	3	1	1	3	3	4	4	4	3	1	4	4	4	3	4	4	1	3	4	3	2	4	2	3	4	3	1	2	5	3	1	4	1	2	4	3	0	7	4	1	0	3	2	3	2	3	2	3	3	4	0	2	0	1	3	4	3	3	15	25	28	25	3	7	4	4	4	5	7	4	2	3	3	4	2	7	7	3	4	4	4	3	2	6	8	7	5	5	5	1	2	1	0	0	1	2	1	2	5	5	4	3	4	1	3	5	7	7	5	4	5	7	5	4	6	4	1	0	3	4	4	5	7	7	4	2	4	3	0	0	4	4	0	0	0	0	3	4	4	3	0	0	0	4	4	1	4	4	4	4	4	7	5	3	1	4	4	4	1	4	2	4	7	7	5	4	5	5	4	4	4	2	4	
3	4	3	1	1	3	3	1	1	3	4	4	4	3	3	3	4	7	7	3	2	4	1	4	3	3	5	4	3	5	4	4	3	2	3	4	1	0	0	0	2	4	2	2	2	1	2	6	4	4	3	1	3	4	3	1	0	0	0	0	3	3	4	0	3	4	4	4	5	5	3	3	4	4	4	3	4	4	4	3	2	4	3	5	6	4	4	7	7	6	3	5	5	3	4	2	3	1	3	4	4	5	5	4	4	5	5	3	3	3	3	4	4	1	3	2	4	3	4	4	4	4	4	7	7	5	7	6	2	1	5	6	7	4	4	4	4	1	0	2	2	3	2	2	4	1	5	2	5	0	5	4	4	4	3	0	0	1	3	4	2	2	4	4	2	1	3	3	4	5	7	5	4	3	1	0	3	4	3	1	2	3	7	3	4	2	1	1	5	4	8	9	5	3	0	3	4	4	4	4	4	2	5	9	10	9	6	4	5	8	8	6	7	5	4	5	7	7	5	7	3	3	1	5	6	7	6	5	2	4	6	4	1	0	0	0	4	4	0	3	6	3	3	6	4	4	0	4	0	3	3	2	4	3	0	0	0	3	3	4	2	4	9	12	10	8	8	8	8	4	4	3	1	6	6	1	3	4	3	3	3	3	4	4	2	5	4	4	3	1	0	0	0	1	4	7	7	3	2	2	3	7	5	2	3	4	1	1	4	4	5	3	2	3	3	4	4	4	2	3	2	0	2	2	2	4	4	1	6	3	0	1	4	4	4	3	0	0	2	4	1	4	5	2	2	2	0	1	4	6	5	5	4	4	5	7	8	7	5	4	1	0	1	3	3	0	2	1	0	1	4	6	4	7	7	5	2	2	1	4	4	1	4	5	2	1	0	0	3	4	4	3	0	2	6	8	7	5	3	1	2	1	3	4	1	0	0	1	2	3	2	1	4	4	4	2	2	4	4	3	3	2	4	3	3	1	0	1	3	4	3	1	3	4	3	1	0	4	0	7	4	0	5	7	6	3	4	5	5	2	1	4	2	2	3	4	4	2	2	5	5	4	3	0	0	1	2	1	3	4	4	3	3	3	2	4	3	4	4	0	0	0	1	2	5	1	5	6	5	4	4	4	5	1	3	3	3	1	2	5	5	3	0	1	4	1	4	3	2	3	3	4	7	5	4	4	4	0	6	4	5	22	24	17	33	12	5	3	1	3	5	5	4	4	3	2	4	6	5	5	1	1	3	6	5	4	3	1	2	6	7	4	6	2	3	0	0	0	0	1	4	4	3	1	4	4	0	1	4	4	4	4	3	5	7	8	6	1	4	3	0	1	4	6	5	4	4	4	4	5	4	4	3	4	4	1	0	0	0	3	4	2	4	2	3	3	5	4	0	1	3	4	3	2	5	5	4	4	5	5	5	4	5	4	4	4	5	5	3	4	4	4	5	2	0	2	
1	1	2	1	0	0	1	2	1	0	3	4	4	3	1	4	4	2	5	5	2	3	3	4	1	3	4	1	2	4	2	1	2	5	2	4	3	3	4	4	4	4	4	4	4	4	3	6	4	1	3	5	7	5	4	3	0	1	3	4	5	4	3	2	0	1	3	4	4	4	4	4	3	1	4	4	4	4	3	3	4	5	3	7	7	4	7	10	4	3	2	3	4	1	4	1	4	4	3	1	1	4	5	4	5	7	5	4	4	3	4	5	7	7	2	0	2	5	4	2	4	1	0	5	5	4	4	3	4	2	6	2	6	3	0	1	4	4	4	6	9	8	5	4	4	2	4	3	5	3	6	4	0	4	3	1	3	3	1	0	4	3	4	6	2	2	4	4	0	2	4	2	1	0	0	1	4	6	5	4	3	1	5	5	1	3	3	3	4	1	6	0	6	3	0	4	5	4	8	9	5	3	6	8	8	7	5	5	8	9	5	2	4	4	1	3	4	4	5	7	6	5	4	4	5	8	8	11	7	1	2	5	3	0	1	2	4	4	4	4	4	3	4	4	3	5	4	2	4	4	4	3	2	4	2	3	4	4	3	2	4	4	4	4	4	5	4	6	7	4	4	4	6	3	5	5	5	4	4	3	1	2	4	3	2	4	4	4	4	3	1	0	0	3	5	7	4	6	4	6	6	5	7	4	4	5	3	1	2	4	1	3	3	3	3	3	3	3	0	3	3	4	3	1	1	4	5	6	5	3	0	3	4	0	4	3	0	0	1	4	4	4	2	3	3	1	0	3	4	4	4	4	1	1	3	4	4	4	2	2	3	2	2	1	0	2	0	3	2	4	4	2	4	7	4	2	3	2	2	4	1	0	4	3	2	1	1	2	5	4	4	4	0	3	4	4	4	7	5	4	4	4	4	3	0	1	3	4	4	3	0	4	4	1	0	2	3	3	4	3	3	2	3	0	0	1	3	4	4	4	4	3	3	4	4	3	1	3	2	5	4	2	1	2	3	0	4	4	0	3	4	4	1	3	3	7	5	4	3	4	4	4	4	0	1	4	4	4	2	2	0	2	2	3	4	3	0	4	3	1	2	1	2	0	5	2	5	0	3	3	3	1	5	2	1	4	5	2	4	4	3	1	0	3	4	3	4	4	3	4	6	4	5	7	6	1	4	2	5	7	1	20	32	22	27	13	4	3	0	0	4	4	1	2	4	5	4	4	3	4	2	4	7	7	8	6	2	3	2	2	1	3	6	2	3	1	2	1	1	4	4	1	0	0	4	5	2	2	4	1	4	4	1	4	5	7	7	5	4	3	1	3	3	1	2	0	0	1	2	3	3	2	3	3	4	4	4	3	1	2	4	1	4	6	4	4	7	4	0	0	0	0	0	1	4	3	1	2	4	4	4	3	5	5	2	0	3	3	4	5	4	2	0	3	2	4	
4	3	2	4	4	2	5	6	5	1	4	4	4	3	2	0	4	3	6	7	7	4	3	1	0	3	4	4	3	3	2	2	0	5	4	7	5	3	1	1	2	2	3	4	4	4	3	2	4	3	3	6	4	3	4	4	3	4	4	4	5	7	7	3	2	3	2	2	1	1	2	0	3	3	2	4	4	3	2	4	1	4	3	6	5	9	7	8	2	4	2	1	4	4	3	3	3	3	1	0	2	1	4	3	2	3	3	4	3	0	1	5	6	8	3	1	4	4	4	2	4	3	0	3	4	0	4	3	3	1	5	6	7	5	3	2	3	4	5	8	10	8	5	5	5	3	4	4	5	4	5	4	2	4	1	5	7	7	5	2	4	3	3	5	3	1	2	6	8	8	7	4	2	3	4	4	4	4	3	3	4	3	1	4	4	2	1	4	5	0	5	6	5	1	0	4	7	4	4	4	5	4	4	4	4	2	4	8	11	7	1	2	0	4	4	5	5	4	5	5	4	5	6	5	1	6	0	11	9	4	3	6	4	4	4	4	5	4	5	5	2	0	1	3	4	5	7	3	1	0	0	2	1	4	5	7	8	7	5	4	4	0	4	6	4	4	6	7	4	2	1	4	8	7	7	8	7	4	6	3	4	3	3	0	0	1	4	7	8	7	5	1	1	5	7	2	4	6	2	7	6	4	4	2	2	4	4	1	2	0	2	0	1	3	5	4	4	5	6	5	4	3	1	0	0	1	3	4	3	1	1	4	3	2	3	3	3	1	0	1	2	1	0	0	0	0	0	4	4	1	2	1	0	0	1	3	3	1	2	3	2	6	2	3	0	2	0	5	3	7	5	4	4	3	0	0	0	4	7	4	1	0	4	1	3	4	3	0	5	4	4	3	0	4	4	0	1	5	7	6	7	7	4	1	1	4	4	3	1	1	4	4	1	1	3	4	4	4	2	2	5	6	4	1	0	4	7	6	2	0	4	4	1	3	4	4	4	3	5	7	5	1	4	7	6	3	4	4	3	7	7	5	4	5	2	5	7	4	1	4	4	4	4	0	2	3	2	3	2	3	2	3	2	4	2	1	4	4	1	2	0	2	2	0	3	2	2	2	1	0	1	5	5	2	1	5	7	3	6	4	4	3	1	4	4	4	4	3	4	4	7	5	4	6	5	5	4	3	4	6	4	7	21	26	16	7	1	2	0	1	4	3	0	3	7	5	0	3	4	5	7	10	8	2	0	2	3	4	2	4	4	4	2	2	1	3	3	4	3	3	3	4	3	1	4	6	0	1	4	1	4	4	3	4	2	3	5	7	5	4	4	4	2	3	1	0	0	1	3	4	5	1	4	2	1	3	4	4	4	1	4	2	1	7	7	3	8	4	1	3	3	1	0	2	4	2	0	0	4	4	4	3	3	4	3	0	4	3	4	7	4	1	2	4	2	6	
3	2	6	5	4	6	10	5	8	5	5	4	5	1	3	4	4	6	4	5	7	4	1	1	2	2	3	5	7	7	4	0	1	3	6	5	2	2	4	4	4	1	0	1	3	4	4	4	4	3	1	5	7	8	7	5	4	3	1	0	1	3	4	6	6	4	6	3	4	1	0	2	3	2	3	6	6	2	3	2	6	4	5	1	4	7	7	5	2	4	4	3	2	4	3	3	0	1	3	3	1	0	4	5	4	6	5	2	2	4	5	7	4	9	4	4	4	1	3	4	3	4	0	1	4	4	1	2	2	2	6	7	4	3	3	5	4	4	2	7	5	7	5	5	5	3	4	4	3	4	4	3	1	4	4	7	5	5	7	5	3	3	3	3	2	0	2	1	4	6	4	3	5	4	4	3	1	3	4	5	7	7	5	4	2	3	2	1	6	3	1	0	3	4	5	8	9	5	2	0	4	8	6	4	4	3	5	8	8	5	5	3	2	4	7	8	8	7	7	5	4	4	4	7	4	4	4	9	6	3	4	7	4	5	6	5	5	3	2	0	2	0	0	0	1	4	3	6	8	7	5	3	1	1	2	4	3	5	7	4	1	3	4	4	4	3	5	5	3	0	4	5	8	10	9	7	4	4	5	3	4	3	1	0	0	0	2	3	3	5	7	3	3	7	4	2	5	2	4	5	1	4	2	2	1	1	4	3	1	2	1	0	3	3	5	7	7	5	5	7	7	5	4	4	4	4	3	1	0	0	2	4	2	1	3	4	4	4	1	1	3	4	4	4	3	1	0	3	4	2	3	4	3	1	2	2	2	3	3	5	4	7	1	4	0	3	2	7	3	5	7	5	3	1	0	0	1	7	7	4	3	1	4	2	3	2	5	3	2	3	2	2	3	2	4	5	6	3	2	4	3	3	2	0	3	4	1	0	0	2	3	2	1	2	2	2	2	1	4	4	4	4	4	4	2	7	6	3	4	4	4	3	0	0	0	1	4	4	4	4	1	5	7	7	4	3	4	4	3	6	3	0	2	6	4	2	4	2	1	4	3	3	4	1	2	6	7	4	1	4	1	4	3	0	3	4	4	1	0	2	5	5	5	6	5	2	3	4	4	4	4	5	1	3	4	7	4	3	4	3	4	4	4	4	3	3	4	5	7	7	5	6	2	3	2	7	10	9	7	4	3	1	4	7	7	5	3	3	0	3	4	1	0	3	7	5	5	7	8	8	7	5	1	6	8	7	5	4	3	1	2	1	0	0	0	4	2	4	3	4	7	7	5	4	3	5	2	1	4	2	3	4	2	4	1	0	1	4	4	4	3	0	4	3	0	0	0	3	4	4	7	3	4	2	2	2	2	0	4	2	4	4	2	5	10	4	6	4	4	4	4	3	0	1	4	4	1	0	4	5	4	3	1	5	4	1	3	4	5	7	3	0	0	3	2	4	
0	3	7	5	4	6	10	4	4	4	5	3	7	0	4	5	4	4	4	4	4	4	4	4	4	4	4	4	4	4	4	2	4	5	5	2	3	4	0	2	3	2	0	0	0	1	3	4	2	1	1	1	3	4	5	5	2	0	0	0	0	0	0	7	7	5	7	2	4	4	2	4	7	3	6	4	4	3	4	0	8	2	4	2	4	2	2	2	3	3	4	4	3	1	3	3	1	3	2	3	0	0	3	6	3	2	3	4	4	4	4	2	6	6	4	6	5	3	2	4	3	3	0	1	3	5	2	4	4	5	2	4	4	4	5	7	4	5	3	7	2	4	3	4	7	5	4	3	1	3	3	1	0	1	2	4	4	4	6	5	7	8	8	7	5	4	5	7	8	7	6	7	5	3	0	1	3	5	6	5	4	5	4	3	1	0	4	1	5	5	4	5	7	9	11	13	12	9	8	9	13	14	12	8	5	4	4	5	3	2	7	9	6	4	5	7	5	5	8	7	4	4	4	7	7	4	4	8	5	4	4	7	4	4	4	4	7	4	1	2	0	3	4	3	3	3	3	3	1	2	1	3	3	1	1	4	4	1	4	2	0	3	4	4	4	2	4	1	0	3	4	2	3	4	4	3	1	4	4	3	3	4	4	4	4	4	3	3	2	3	7	5	4	7	1	4	1	5	5	3	3	1	2	1	2	0	4	4	0	0	0	0	3	3	2	4	4	3	2	3	3	5	7	8	7	5	4	4	2	3	2	2	4	1	1	2	2	4	3	3	4	4	4	4	4	4	2	1	3	6	4	4	4	4	5	7	7	7	7	8	7	5	2	4	3	4	3	7	3	1	4	4	3	1	0	1	4	7	4	4	3	3	4	2	4	2	4	4	4	4	4	4	4	2	4	7	8	8	3	2	2	4	1	0	3	4	4	4	4	3	0	2	3	1	3	4	4	3	2	3	4	4	4	6	2	7	7	8	8	7	4	1	0	0	0	0	1	2	1	1	3	5	6	4	4	4	4	3	4	5	3	4	3	4	4	4	4	1	3	4	1	2	3	3	4	4	4	4	3	2	1	2	5	6	5	4	1	0	0	3	4	5	7	5	7	5	2	0	0	0	2	7	9	6	4	4	3	5	3	1	0	1	3	3	1	1	3	4	4	3	1	5	3	4	2	4	7	7	5	4	2	1	2	1	2	3	2	4	1	3	4	3	1	2	7	8	5	7	6	5	4	4	6	5	4	4	4	3	1	0	0	0	0	0	0	3	3	2	2	4	3	3	3	4	3	3	0	3	5	4	4	5	3	2	3	3	1	1	2	1	0	3	4	1	0	0	0	3	4	5	7	3	4	1	2	5	1	4	5	5	2	4	5	4	9	7	1	4	7	5	4	3	0	0	1	4	3	0	4	7	4	0	5	8	4	3	1	3	4	5	3	2	1	2	4	2	
4	4	7	7	8	6	5	4	3	0	4	1	8	0	7	2	4	4	6	4	2	1	3	6	6	7	8	6	2	0	4	1	4	4	2	3	3	4	5	7	6	1	3	3	1	0	0	0	2	0	2	0	0	1	2	1	2	0	0	1	2	1	0	5	5	8	7	2	2	4	0	3	4	7	4	6	4	4	4	1	7	4	4	1	3	3	4	4	6	2	3	3	4	4	4	4	4	2	2	2	2	1	1	5	7	7	4	2	3	3	2	2	4	4	4	4	4	4	4	1	2	4	4	4	4	7	3	3	2	7	11	11	8	5	4	4	3	2	1	4	3	4	1	1	5	7	6	1	3	3	1	0	0	1	3	2	2	3	2	3	4	4	4	5	7	8	8	8	8	8	8	7	4	1	0	3	4	4	4	4	2	4	0	3	4	4	5	4	5	5	6	4	2	5	7	7	5	4	6	10	13	10	11	9	7	5	5	7	5	4	4	5	6	5	4	4	2	3	7	7	3	2	0	5	5	6	6	9	8	7	5	7	4	1	2	3	8	5	0	1	4	4	4	4	4	3	2	2	4	3	2	4	4	4	2	2	4	2	4	1	0	1	3	4	2	0	2	4	4	4	3	0	1	3	4	3	1	3	4	4	2	3	4	4	4	4	4	3	1	2	7	8	5	5	2	4	4	4	3	2	4	4	5	5	2	0	3	4	4	4	4	3	0	4	3	0	3	4	0	4	2	3	4	4	4	4	4	5	7	8	7	4	3	2	2	0	2	4	4	4	5	3	3	1	2	4	1	3	4	7	3	0	1	3	4	4	5	7	6	7	6	2	1	3	4	4	5	5	1	0	1	3	4	4	4	4	4	4	3	4	2	4	3	1	4	3	1	3	5	6	5	4	5	5	4	4	1	8	6	0	4	4	1	2	2	3	5	8	10	9	8	6	2	1	2	3	2	2	6	7	6	7	6	3	2	4	3	4	3	2	2	0	0	0	1	2	1	0	0	1	4	4	1	6	6	2	4	2	4	4	0	1	2	0	3	2	1	1	4	4	1	4	3	2	2	1	1	3	4	2	3	4	6	5	3	1	0	0	0	4	4	2	3	2	6	5	7	8	8	8	8	8	8	6	2	1	2	3	1	4	4	4	3	1	1	2	1	0	1	4	4	5	5	1	4	3	1	4	3	1	4	4	4	2	3	4	5	7	5	0	3	4	4	4	4	7	4	7	4	7	7	3	1	3	3	1	0	1	3	4	4	3	1	1	2	0	2	2	4	3	2	4	1	1	2	1	0	4	7	2	3	2	6	6	3	3	4	3	2	3	3	4	4	4	3	1	1	4	7	7	5	1	3	2	2	5	7	7	8	7	4	4	5	3	5	8	7	4	4	4	3	1	0	0	0	3	4	1	4	7	4	4	7	4	3	3	0	1	4	7	7	2	4	3	1	2	
4	4	4	3	4	5	5	2	1	4	4	3	8	0	8	0	7	4	4	3	2	0	5	4	4	3	1	2	2	1	4	3	3	4	0	4	1	3	5	5	4	5	3	2	3	1	2	1	1	1	2	4	3	3	1	2	1	0	0	3	3	4	1	3	3	5	1	3	4	4	1	4	1	5	3	5	3	4	4	2	5	6	5	4	3	1	2	4	7	2	3	2	5	5	3	2	4	2	2	1	0	1	3	5	7	7	4	1	1	1	2	2	4	7	6	3	2	5	6	1	5	4	4	3	2	5	6	4	1	2	5	5	5	7	3	3	6	5	4	5	6	5	3	1	1	4	6	7	3	2	2	0	0	3	5	7	7	5	3	1	0	0	0	3	4	4	4	4	4	4	4	4	4	1	0	4	4	0	2	4	4	4	2	4	6	8	7	5	5	4	4	2	1	6	4	5	4	0	3	7	5	2	5	9	9	8	7	7	6	4	1	1	3	4	3	1	3	2	7	8	4	2	1	4	4	3	2	5	5	4	5	8	6	0	3	3	8	7	4	5	7	4	2	4	3	0	2	3	3	4	5	5	5	7	1	3	4	2	4	4	4	3	1	1	4	3	3	5	5	3	1	0	3	4	3	3	2	1	4	6	5	4	4	3	1	0	0	0	0	3	3	7	4	4	2	3	3	1	0	1	3	3	2	4	3	0	2	6	8	8	8	7	5	3	5	3	4	5	2	5	5	3	1	0	1	2	2	5	9	9	8	8	3	1	2	2	1	3	4	4	5	3	3	4	4	3	3	4	5	5	1	0	1	3	4	3	3	4	2	2	4	2	0	0	4	2	3	2	1	0	0	0	1	3	4	3	0	4	5	2	2	4	2	3	4	1	0	0	2	0	1	4	5	7	6	4	4	7	6	2	5	3	4	4	4	1	4	8	8	8	9	9	6	4	4	5	5	7	5	4	4	3	3	1	2	2	2	2	3	3	1	0	0	0	3	2	3	0	0	2	3	3	4	4	4	3	3	2	3	4	1	3	2	3	1	4	4	4	4	3	2	3	2	3	2	0	0	0	3	4	5	7	3	3	0	0	0	0	0	3	4	5	7	7	3	3	6	4	2	3	3	1	1	4	4	3	1	2	5	5	4	4	4	4	3	0	2	0	3	3	1	1	1	4	5	1	3	4	3	2	3	2	3	5	4	4	4	5	7	4	4	5	7	4	3	4	5	5	2	5	8	7	6	6	5	3	1	4	5	7	8	7	5	4	4	4	1	4	4	0	4	4	0	1	2	1	0	4	7	3	4	1	2	3	6	2	2	4	5	5	6	7	4	5	6	5	4	4	4	4	3	1	1	2	2	4	7	4	7	7	7	5	4	4	4	7	8	7	4	1	0	0	0	0	0	1	4	4	4	4	4	5	3	3	4	1	0	3	4	5	9	8	8	5	5	3	
1	4	3	1	3	4	2	4	4	5	0	4	6	2	6	2	7	4	4	4	1	3	5	3	0	3	4	3	0	4	5	6	5	4	2	4	3	1	3	4	2	5	5	3	3	2	1	2	1	3	4	4	4	4	2	1	0	0	0	4	3	4	4	2	1	3	6	4	2	3	4	4	1	3	3	5	4	4	3	1	1	3	4	4	4	4	4	4	4	2	0	4	3	4	3	4	2	2	4	2	1	2	4	4	3	3	5	3	5	5	2	5	4	3	3	1	2	7	5	4	5	1	0	0	1	4	6	5	3	3	2	0	1	4	5	3	2	1	2	1	3	3	3	2	1	2	0	7	7	6	2	0	0	4	7	5	9	8	5	3	0	1	3	2	2	3	1	1	4	3	4	3	4	4	1	3	4	3	2	4	2	4	3	6	4	3	0	2	4	4	3	2	2	5	5	7	5	3	3	7	4	2	5	9	9	7	5	5	3	3	0	1	2	1	0	0	3	1	6	8	5	4	4	4	4	4	3	5	4	0	1	7	8	3	4	2	7	7	8	7	5	4	5	4	2	1	4	7	8	8	7	5	5	8	6	5	4	2	3	4	4	4	4	4	4	3	7	3	4	4	4	3	5	4	3	5	4	4	3	2	3	4	3	3	2	0	0	0	0	4	1	5	3	2	3	3	1	0	0	2	1	2	1	4	4	1	4	5	7	7	5	5	7	3	6	4	4	6	3	7	5	4	4	3	1	2	1	5	5	4	5	8	7	1	3	3	5	7	8	6	1	4	2	4	7	7	7	5	4	1	0	0	2	2	0	2	3	4	4	4	4	0	3	4	5	4	1	1	2	1	0	1	3	3	1	0	2	2	2	2	1	4	4	4	3	0	0	0	1	2	2	4	4	6	5	6	4	5	7	2	6	3	5	4	5	4	7	7	2	3	4	5	7	7	5	5	2	4	0	2	2	3	4	1	0	3	3	4	3	1	0	1	2	1	3	2	4	3	3	2	3	4	3	1	1	3	3	2	3	5	3	3	2	3	2	4	2	5	4	0	1	3	7	6	2	0	0	1	4	7	7	5	2	4	4	3	1	1	3	2	2	4	4	3	3	5	2	6	2	3	0	0	0	1	3	4	4	4	4	2	2	1	1	4	5	3	1	0	3	4	7	7	4	2	7	1	4	5	4	1	6	8	7	5	3	0	1	4	7	7	8	7	5	1	3	3	4	1	1	4	5	3	3	3	7	4	2	4	4	3	3	5	7	3	0	2	4	4	3	0	4	4	1	4	4	4	2	4	5	0	2	1	4	6	5	3	3	7	7	5	5	8	5	1	1	4	3	1	0	2	0	2	0	0	0	2	3	1	4	4	4	5	6	7	6	5	5	4	2	0	1	3	3	2	2	1	1	3	3	1	2	0	1	3	4	3	1	3	4	3	4	3	4	7	8	0	
2	4	1	4	4	2	5	5	5	5	4	4	1	4	1	2	4	4	4	3	1	4	4	2	2	5	4	0	3	4	3	5	5	3	2	3	4	4	3	3	1	4	5	5	2	2	7	7	5	4	4	4	5	5	3	1	0	0	0	3	4	0	4	4	4	4	3	2	4	6	4	1	0	2	7	7	5	3	0	0	0	0	0	0	0	1	4	5	1	2	4	4	3	7	4	3	2	3	4	4	4	4	3	1	4	4	2	3	5	5	6	5	2	4	4	2	2	7	4	4	4	0	1	3	4	3	3	3	3	3	0	3	4	2	4	7	7	5	4	4	4	4	4	1	3	3	4	1	7	10	8	5	4	5	7	5	2	6	6	4	0	2	3	1	2	4	2	4	4	0	3	2	2	2	4	3	1	2	1	4	4	5	6	5	3	3	4	5	8	7	5	4	6	7	8	8	7	6	4	4	4	6	7	5	7	5	4	4	3	4	1	4	4	4	1	0	1	3	3	9	8	7	5	4	4	4	4	7	4	0	0	5	8	3	3	2	4	3	4	3	1	4	5	4	4	3	2	3	4	4	2	2	4	3	5	4	1	0	0	0	0	3	6	5	2	4	8	4	5	5	4	4	7	4	4	7	4	3	2	3	4	4	4	4	1	0	1	3	3	3	3	4	4	2	4	4	3	0	0	1	3	1	3	3	4	3	3	5	4	4	4	4	5	4	5	3	4	5	2	5	3	6	5	2	2	1	3	5	3	0	2	5	7	4	5	5	7	8	7	5	3	3	4	0	4	7	8	7	5	3	1	0	1	3	4	3	1	1	3	3	1	3	5	6	7	5	4	3	1	2	0	2	2	2	2	0	1	3	3	2	3	5	6	4	1	1	3	4	3	1	1	3	3	2	4	7	7	4	7	1	5	4	7	6	7	7	7	4	0	0	0	1	3	4	4	7	1	4	4	3	2	4	3	1	0	4	3	3	4	4	1	2	0	2	1	3	5	4	4	4	4	4	4	4	3	1	0	3	2	7	4	1	2	0	2	4	7	7	7	4	1	7	6	5	4	1	0	3	4	4	3	1	2	1	3	4	2	4	4	4	4	3	1	3	4	5	0	8	1	4	1	0	0	0	0	1	3	3	1	2	0	2	0	1	4	3	0	1	1	4	5	4	7	3	7	3	6	5	2	5	4	4	3	0	3	3	3	1	4	4	4	3	1	0	1	2	1	0	2	4	4	1	2	3	7	4	2	2	5	5	4	1	5	7	1	2	5	4	1	0	3	4	2	5	4	5	4	5	5	3	4	3	4	4	3	1	4	8	7	4	2	5	7	2	2	1	1	2	1	1	2	1	0	1	3	2	2	3	1	2	0	3	5	7	4	6	6	5	2	0	2	3	2	6	3	4	1	0	0	0	1	2	2	4	4	4	3	1	3	4	4	5	6	7	6	3	
4	5	1	4	2	3	4	5	5	1	3	0	4	4	4	3	2	3	3	1	2	3	2	4	2	6	4	2	4	3	2	0	2	0	0	0	1	3	5	6	5	5	6	5	4	4	8	5	7	5	7	8	7	5	4	4	4	4	3	1	4	2	1	3	5	8	5	3	7	3	4	3	1	3	6	1	6	4	0	0	0	0	0	0	1	3	4	3	5	0	5	4	4	7	3	5	5	2	1	4	6	4	1	3	3	2	4	4	4	2	3	3	2	4	1	2	0	5	4	3	4	0	2	3	2	2	4	1	0	0	3	4	3	2	3	4	5	6	5	5	7	7	4	1	3	2	4	5	7	6	8	8	8	7	5	1	7	8	5	3	0	1	4	3	2	4	0	4	0	4	3	2	3	2	2	4	4	3	2	3	4	4	4	3	1	4	4	2	6	2	9	8	8	10	8	5	5	1	2	0	4	9	8	3	4	4	1	2	4	2	4	4	2	4	4	3	1	4	3	5	7	7	5	4	3	0	4	8	4	0	0	3	7	5	3	2	2	1	0	0	0	4	4	1	3	3	1	2	0	0	3	4	2	1	1	2	0	0	0	1	3	5	8	9	5	4	7	6	0	2	0	4	7	4	3	7	4	4	4	2	3	4	3	1	0	0	3	4	4	1	4	2	4	2	4	3	4	1	1	3	4	1	4	1	3	2	1	6	4	0	4	4	4	4	4	1	4	3	3	4	1	5	4	6	4	2	4	4	0	3	4	5	5	0	4	4	4	2	4	7	5	3	3	2	1	4	4	4	4	4	4	3	1	0	0	0	0	0	1	3	4	4	5	0	5	4	4	5	6	5	4	5	7	7	5	4	4	4	4	4	4	4	4	4	2	5	7	7	5	4	4	3	1	1	4	6	9	8	5	2	4	5	8	6	7	5	3	1	0	1	2	1	0	1	4	6	2	1	1	3	3	5	0	3	3	5	5	2	2	3	2	1	2	1	1	4	4	1	1	3	4	4	4	5	6	5	1	3	2	6	4	1	1	4	4	5	8	5	8	8	7	9	4	5	3	3	4	4	3	0	0	1	4	3	3	4	1	4	1	1	3	4	4	4	3	4	0	7	2	3	3	3	3	1	0	0	1	3	3	0	2	1	0	1	4	3	1	4	3	7	4	1	5	8	7	5	7	8	6	3	4	3	1	2	1	2	4	1	2	4	3	1	0	0	0	0	0	0	1	4	4	5	4	4	5	7	7	4	4	4	2	5	3	10	9	6	4	4	1	0	1	4	3	6	3	5	3	3	4	2	7	4	3	1	0	0	4	9	8	3	0	4	7	4	4	4	3	2	3	3	1	0	1	4	4	4	4	0	2	2	2	4	6	4	2	5	5	6	3	1	3	5	3	7	3	4	3	0	1	2	1	0	2	3	3	4	3	1	2	1	3	4	6	4	3	3	
4	7	3	4	3	3	4	7	7	5	5	7	7	6	7	7	5	4	4	3	1	5	5	6	2	4	4	2	4	1	1	2	1	0	0	1	2	1	3	4	4	4	4	5	5	4	7	1	5	6	5	5	6	5	5	7	8	8	8	8	7	4	2	2	1	7	11	5	7	4	6	7	5	3	5	3	5	3	1	3	4	3	1	1	4	5	5	4	5	2	2	3	3	4	4	8	4	3	3	4	4	4	1	3	4	7	8	7	4	1	0	0	4	4	1	4	4	5	5	3	3	0	1	4	3	3	4	4	3	1	3	4	7	6	1	2	0	3	4	4	4	4	4	4	5	6	5	5	2	4	4	1	1	2	1	3	7	5	3	0	2	1	1	2	2	4	2	4	4	5	5	7	4	3	2	0	1	2	2	3	4	3	1	0	0	4	4	2	7	7	8	10	5	5	4	3	2	2	1	2	4	10	8	3	4	4	4	4	2	2	4	1	0	1	3	4	4	3	4	1	3	4	3	3	4	1	4	7	4	4	3	3	7	10	8	5	4	4	1	0	0	4	4	1	3	5	5	2	0	0	3	4	4	3	3	1	3	4	4	4	3	2	4	8	7	7	5	4	3	3	1	4	5	4	3	4	3	3	0	3	3	1	1	3	3	1	4	4	3	2	3	3	3	3	4	3	5	4	4	4	3	2	4	3	1	3	2	4	4	4	4	3	1	2	1	0	3	3	5	6	5	5	1	2	2	0	4	2	2	2	2	5	4	3	5	4	3	0	1	5	7	7	5	4	4	4	0	3	4	2	2	4	3	0	0	1	3	3	4	5	6	3	3	5	1	4	7	7	5	4	5	7	7	5	4	4	4	4	4	4	3	1	1	4	4	5	3	2	3	3	4	4	4	2	4	4	3	5	4	4	5	6	5	1	5	2	1	0	1	4	4	4	2	4	4	1	6	7	5	3	2	5	3	4	5	7	10	8	8	7	5	4	3	1	3	4	1	0	0	0	0	0	1	4	5	8	4	1	1	2	5	4	4	5	4	4	7	4	5	5	5	4	3	6	1	2	4	3	1	0	0	3	4	3	4	4	0	4	0	0	1	4	6	5	4	5	4	7	5	6	5	4	4	4	4	4	4	4	4	3	0	1	3	4	4	1	2	4	2	8	4	1	4	7	7	5	5	7	7	4	1	4	4	7	7	4	4	4	4	4	4	4	3	1	1	2	2	3	4	4	0	4	4	5	5	6	7	7	7	5	3	5	6	7	10	8	6	7	5	1	1	4	6	5	2	4	4	0	4	4	7	3	0	0	1	3	5	10	7	1	0	3	5	7	8	7	4	1	1	2	2	0	3	5	4	4	5	3	0	3	3	5	7	5	6	5	4	4	4	3	0	3	2	4	4	4	3	0	3	3	4	1	2	1	3	3	1	3	2	3	3	4	3	1	2	3	
5	8	7	7	4	2	2	4	4	7	6	7	5	3	2	4	7	8	8	7	7	4	7	5	1	2	3	2	3	0	0	1	3	4	4	4	4	4	2	4	2	3	4	5	5	5	5	4	6	5	4	4	4	4	4	4	5	6	7	10	11	8	7	1	6	7	12	9	3	7	4	5	8	4	3	2	3	4	7	8	8	7	5	4	4	4	3	7	5	1	0	1	3	5	6	5	3	4	4	4	2	4	2	1	4	5	5	6	5	4	1	0	3	4	4	4	2	4	5	6	5	3	1	4	4	2	5	5	4	3	1	4	7	5	5	1	3	3	3	1	1	3	4	5	6	5	2	2	4	5	4	4	4	4	1	3	7	5	4	4	3	3	0	0	3	4	0	3	3	4	4	5	7	6	2	0	2	0	0	3	3	4	3	0	0	3	4	4	5	7	10	10	3	4	4	1	0	1	3	4	4	9	7	3	4	3	4	1	5	7	5	3	1	0	0	1	4	1	3	3	4	4	3	1	4	4	5	5	4	7	7	5	5	7	7	3	1	4	3	0	0	3	4	4	5	6	5	4	3	3	0	3	3	2	4	4	5	7	7	4	2	3	3	4	3	5	6	4	3	0	2	3	4	5	7	8	7	5	4	4	4	4	4	4	4	4	4	3	1	2	1	4	1	5	4	2	4	7	6	2	0	1	3	4	4	5	6	4	0	2	1	1	3	3	1	0	1	2	4	4	4	7	4	1	2	1	4	3	1	3	4	7	3	5	7	4	1	0	0	2	2	1	3	4	3	1	3	4	3	3	2	4	4	0	0	2	2	2	6	7	2	6	4	4	3	2	2	2	2	0	3	4	4	3	0	0	0	0	1	4	3	3	0	1	2	2	4	6	4	1	1	3	5	3	3	3	2	3	2	2	0	2	2	3	7	3	3	0	3	4	1	4	0	3	3	4	4	4	4	1	1	4	4	4	5	2	7	10	9	8	8	8	7	5	5	5	3	1	0	1	3	4	4	5	2	8	9	5	4	4	5	6	4	4	5	6	5	3	4	4	4	2	4	5	2	3	0	0	0	0	0	3	4	2	2	2	1	3	0	1	4	4	4	5	7	7	5	7	5	7	6	1	1	2	3	1	1	3	2	2	3	3	3	2	0	3	5	7	4	8	5	4	4	2	2	1	1	4	7	9	6	8	5	4	5	5	4	4	1	0	1	3	4	3	3	2	6	4	4	2	3	3	1	4	4	3	4	3	3	1	1	4	7	3	4	5	3	4	6	2	4	4	4	4	4	4	5	4	0	4	5	1	0	1	4	5	8	10	4	0	0	1	3	3	2	2	7	3	3	3	1	0	3	7	4	4	7	4	0	4	3	4	7	2	3	2	1	1	4	5	6	5	3	2	3	3	1	0	4	3	4	4	4	3	3	0	0	3	2	3	1	2	2	2	3	1	
8	10	12	13	9	5	0	4	2	4	0	4	2	4	4	2	2	5	7	9	12	11	8	5	4	4	5	6	5	3	2	4	5	7	7	4	2	4	2	4	6	2	3	3	3	5	7	5	4	5	6	4	1	0	0	1	2	1	1	5	3	6	7	6	8	7	8	11	4	7	6	1	5	4	2	4	7	8	7	5	4	5	5	3	1	4	3	5	8	4	1	5	7	8	6	2	3	4	2	2	3	2	2	1	3	4	3	1	4	5	3	1	4	7	7	5	4	5	7	8	7	5	4	4	3	3	3	4	4	4	4	4	3	1	5	6	7	6	5	3	3	4	4	4	3	3	2	0	0	3	3	3	0	4	3	1	5	7	8	6	4	4	4	4	3	3	3	3	4	4	3	2	5	5	4	4	5	6	5	5	4	3	4	0	0	1	3	3	3	7	11	8	4	0	5	4	3	2	5	6	5	8	5	1	1	3	5	4	7	7	6	5	4	3	3	1	4	1	3	4	4	3	1	0	1	4	6	4	2	4	5	4	1	3	8	5	0	3	4	4	4	5	6	4	3	1	6	8	4	4	4	1	0	0	1	2	4	4	4	3	4	3	2	1	0	3	4	4	5	6	4	3	6	8	8	8	8	8	6	2	1	3	3	1	1	3	3	1	0	0	0	3	2	6	2	2	3	4	4	4	1	0	0	2	5	5	4	4	2	4	4	4	4	4	4	4	4	4	2	2	2	4	7	8	7	5	4	3	1	3	4	6	3	7	4	1	1	0	0	2	2	1	2	1	0	0	4	3	4	4	1	4	4	0	1	3	4	3	4	7	5	5	4	4	3	1	3	3	1	0	3	4	4	3	0	0	0	0	3	4	2	4	4	4	4	4	4	4	0	2	4	3	5	3	1	1	2	2	4	6	5	4	4	3	7	2	3	0	4	4	3	4	2	3	4	3	1	1	4	4	2	0	3	3	2	2	2	3	4	4	4	4	5	7	8	8	7	5	2	4	4	3	4	6	6	4	10	5	4	5	6	5	3	5	7	4	2	2	4	3	3	2	3	3	2	1	1	3	4	4	3	2	3	3	1	1	4	4	4	4	4	1	1	4	5	2	3	4	4	4	3	4	0	2	3	4	4	4	2	2	4	5	5	3	3	5	6	7	6	8	8	5	1	2	2	3	3	1	2	7	2	4	3	4	3	3	1	4	4	4	4	4	4	3	3	2	7	4	0	3	4	1	1	3	2	3	2	3	4	4	4	4	4	4	2	3	4	4	4	4	7	5	4	4	4	4	5	5	3	4	4	0	0	3	4	4	6	5	2	0	0	0	0	2	1	2	7	4	0	0	0	0	1	7	7	4	7	4	0	4	4	5	9	4	5	4	3	1	1	3	5	7	7	5	2	2	1	0	4	4	1	4	5	4	4	0	0	1	2	1	1	4	3	0	4	4	
10	7	8	10	11	9	5	3	5	4	4	3	1	4	1	4	2	2	2	1	4	4	0	3	1	5	8	7	5	4	5	7	5	4	4	3	0	3	4	5	7	0	4	1	1	4	4	0	2	1	2	2	0	0	0	3	1	3	3	5	4	7	2	2	4	4	4	7	7	7	4	1	4	2	4	4	4	3	1	0	1	4	5	1	1	4	2	2	6	5	5	8	5	4	4	4	4	4	2	2	3	5	7	5	2	2	5	4	1	7	4	3	4	4	4	3	2	3	5	6	5	5	6	3	1	5	3	4	5	6	5	3	0	2	0	3	4	0	6	3	4	4	1	1	3	4	1	1	2	3	4	4	4	4	3	0	2	2	0	2	3	3	5	7	7	4	3	3	3	2	1	4	2	4	4	7	7	5	4	4	4	3	3	0	0	0	0	1	4	5	4	1	3	2	7	7	4	4	7	5	7	11	8	8	8	7	7	6	5	6	2	7	7	2	3	1	4	2	2	1	0	0	0	0	0	3	5	5	0	4	4	3	0	1	7	7	2	4	7	8	7	5	4	4	3	4	4	9	5	0	4	3	1	3	3	1	3	4	5	5	2	2	4	4	4	4	3	2	6	7	5	2	5	6	4	0	2	0	2	3	0	0	0	0	0	0	0	0	0	0	0	1	2	4	2	2	3	4	3	3	2	0	0	2	0	2	0	3	3	4	2	2	1	1	3	5	7	7	4	2	3	2	2	4	5	7	4	1	2	3	2	2	3	5	1	0	2	0	0	1	3	3	1	0	0	0	4	1	4	1	0	3	4	4	4	4	4	4	3	2	2	0	3	3	1	0	0	1	2	1	1	3	2	2	3	1	0	0	3	4	2	2	4	4	4	4	5	7	5	1	5	2	3	2	0	0	0	2	2	2	1	3	5	3	4	3	3	1	4	4	4	4	0	0	0	0	1	3	4	5	0	3	3	4	3	0	4	4	4	3	1	0	1	3	5	5	5	7	5	3	3	5	5	4	7	2	7	4	2	2	2	5	4	7	7	0	4	4	3	2	3	4	3	1	0	0	3	4	5	6	5	3	1	4	6	5	5	3	2	2	1	0	0	4	3	4	5	3	4	3	4	2	2	1	4	4	0	1	4	3	1	4	6	4	4	6	3	5	4	5	8	2	5	1	5	4	4	3	7	8	6	6	5	4	4	3	2	4	6	5	4	4	3	2	3	3	5	4	0	4	4	0	2	0	4	3	3	4	4	4	4	3	1	2	3	3	7	5	5	6	7	6	5	3	1	1	4	7	4	4	4	0	1	4	3	3	5	7	7	5	5	6	5	3	4	5	5	3	0	0	0	1	3	3	6	9	5	3	0	3	4	7	9	0	4	2	2	0	2	1	3	4	5	7	6	3	4	1	3	4	3	3	1	6	2	3	3	1	0	0	2	3	2	2	3	3	
24	14	10	8	11	11	11	9	8	5	5	3	3	5	5	4	2	2	0	3	4	5	4	4	6	7	7	7	5	3	7	7	4	1	4	4	0	2	6	8	7	4	4	4	4	4	1	2	2	1	2	1	1	2	1	3	2	3	3	4	4	6	3	4	2	3	2	3	6	4	1	2	3	3	5	4	4	3	1	0	3	4	8	5	5	5	3	4	2	3	8	8	5	4	5	7	7	5	4	4	5	6	3	4	3	0	4	5	2	7	4	4	4	0	0	3	2	4	4	4	5	6	5	5	1	5	2	2	2	4	4	1	3	2	3	1	4	6	4	2	4	3	1	4	4	3	0	2	0	0	1	4	6	4	1	1	4	5	6	4	0	3	4	4	4	4	0	4	4	3	1	6	2	2	4	3	3	3	4	3	1	2	2	3	3	1	0	3	5	2	3	6	3	2	6	7	1	5	5	3	7	9	5	5	6	5	5	4	3	3	5	7	6	3	4	2	5	4	4	4	3	1	0	0	0	1	4	6	3	2	3	1	0	1	5	10	5	4	3	1	2	3	4	6	3	5	1	7	9	5	4	3	3	4	4	3	2	1	4	3	1	3	4	4	4	3	1	2	2	2	5	2	6	2	4	4	3	3	1	4	1	1	3	4	4	4	3	2	3	4	3	2	2	0	3	4	4	4	4	3	1	0	0	2	1	2	1	1	2	1	0	0	0	1	2	3	2	2	3	4	2	2	4	1	1	4	3	0	1	4	4	1	3	4	2	2	1	1	3	4	3	1	0	0	1	3	5	3	3	0	0	2	1	3	4	4	5	7	8	8	6	3	3	4	4	3	1	3	2	3	1	3	4	4	4	3	0	0	1	3	4	3	0	0	0	1	3	4	3	5	4	0	2	1	0	1	3	4	4	3	2	2	4	2	0	4	4	4	4	4	4	3	0	0	0	1	4	4	2	2	4	7	7	7	5	4	3	0	2	3	2	0	0	1	4	3	4	7	5	4	4	5	4	3	4	3	5	3	2	1	2	1	6	7	4	3	4	0	2	4	2	3	0	1	3	3	2	4	3	1	6	3	3	4	4	4	4	1	0	2	0	0	0	3	3	4	3	0	3	2	1	0	0	0	3	4	4	4	5	4	3	5	5	3	3	4	3	3	3	4	7	2	4	4	5	1	4	7	7	5	4	4	3	0	0	0	0	2	0	2	0	0	0	3	3	4	3	4	0	4	5	3	2	1	1	6	6	2	1	3	3	1	0	2	3	2	4	4	4	3	3	0	2	0	0	1	5	7	3	3	4	4	4	2	1	2	3	5	7	7	6	8	11	12	11	8	4	2	2	1	0	3	4	2	5	7	7	4	1	2	6	7	4	5	7	7	6	5	2	3	4	4	4	7	7	4	2	3	4	4	3	3	4	5	2	4	4	4	3	3	0	3	3	1	0	3	
38	38	37	29	23	18	19	18	11	7	4	4	5	7	7	5	5	8	10	8	5	4	6	8	8	8	3	4	7	5	8	4	3	0	3	4	4	5	7	7	5	5	7	8	7	4	1	1	3	4	4	1	3	2	3	1	1	2	2	2	2	4	5	2	3	3	4	4	4	2	2	2	3	4	5	4	4	4	4	4	4	2	5	7	7	4	6	4	4	4	7	5	3	1	1	3	5	7	4	4	2	4	3	3	3	3	4	2	3	4	2	4	3	0	0	3	2	6	4	2	3	4	6	5	6	3	2	4	3	1	4	4	5	3	3	3	4	2	2	5	5	2	2	3	2	2	3	4	3	1	2	3	2	3	0	3	4	3	0	2	3	4	3	1	1	4	4	4	6	4	4	4	3	1	3	3	5	5	4	1	0	0	3	4	4	4	4	4	6	3	5	1	6	8	8	4	5	4	1	2	6	6	2	1	3	4	3	0	1	4	7	6	1	2	1	4	7	4	4	4	4	3	0	0	0	0	3	5	5	4	3	1	1	4	4	8	5	1	4	4	4	5	4	4	2	3	4	1	7	7	7	5	5	5	5	5	4	4	5	4	3	2	2	1	0	0	0	1	3	3	2	3	5	2	6	4	2	2	1	3	7	8	8	7	5	4	4	6	4	3	4	5	3	3	0	0	0	0	0	0	0	0	0	3	4	4	3	0	0	0	0	1	2	2	2	2	3	3	1	1	4	2	4	3	0	4	3	3	3	2	4	4	4	3	1	2	2	4	3	1	2	2	0	0	3	4	5	4	2	2	2	2	1	2	2	0	1	4	4	4	4	4	4	4	4	4	3	3	2	4	4	4	3	0	4	3	0	1	3	4	4	4	2	2	3	4	4	3	2	5	6	5	4	4	4	3	1	2	2	0	3	2	3	1	4	4	2	4	5	4	3	1	0	0	0	2	3	3	4	4	4	5	3	2	3	3	4	4	4	4	1	0	0	3	3	2	4	4	4	3	0	3	3	1	1	3	4	1	3	2	2	4	4	3	0	4	3	3	2	6	3	5	4	4	4	4	3	2	4	6	4	2	4	3	1	2	1	1	1	2	3	1	0	1	2	1	1	3	4	4	3	1	0	0	1	3	4	3	3	3	2	7	4	0	0	2	4	1	4	4	4	1	2	2	3	1	4	8	8	4	1	4	4	3	4	4	4	4	3	2	3	3	1	3	3	2	3	3	1	5	7	4	4	4	2	5	7	7	5	3	3	2	0	1	3	4	3	1	0	0	2	5	5	4	3	2	7	5	1	1	3	4	2	2	3	3	0	0	1	4	0	5	4	7	7	4	3	2	0	3	3	4	3	4	8	2	2	2	3	4	3	0	3	4	3	3	4	7	1	4	3	4	4	3	7	8	4	2	4	6	4	1	4	4	3	4	3	6	3	3	4	4	4	3	1	3	
64	32	8	15	30	41	44	40	29	20	10	6	6	6	6	5	7	9	8	9	8	7	9	11	10	5	3	1	5	4	5	2	4	1	1	3	4	5	5	3	2	2	1	0	0	2	2	0	0	1	4	3	3	2	3	0	4	7	7	4	3	4	7	7	5	4	3	1	3	3	4	4	1	2	3	3	3	0	4	7	6	2	1	3	3	2	5	7	8	7	5	2	5	6	5	3	4	8	3	3	3	1	1	4	6	4	1	0	2	1	3	3	1	0	0	1	2	5	4	0	0	3	5	7	7	5	5	2	4	1	1	3	5	5	2	3	4	4	5	5	3	3	1	3	4	4	4	4	4	3	2	4	2	5	3	2	2	5	6	5	4	3	0	0	0	1	3	4	5	2	6	1	1	4	7	6	2	4	2	0	0	0	3	4	0	3	4	3	5	3	5	4	10	11	7	4	5	4	1	3	7	7	4	5	6	4	1	0	2	4	4	0	3	2	1	4	7	4	4	4	4	4	3	3	1	0	1	4	5	7	7	5	4	4	3	5	4	5	4	2	3	4	0	4	7	7	3	1	1	5	5	5	7	8	7	7	5	3	4	3	0	3	2	3	0	1	3	3	1	0	0	3	4	2	5	5	3	2	2	4	4	6	5	4	4	2	3	7	4	5	8	5	3	4	0	1	3	4	3	1	0	0	0	4	4	4	5	2	1	0	1	4	4	5	6	5	3	1	0	0	3	4	4	3	0	3	3	4	4	4	3	6	7	5	4	3	1	3	3	4	3	1	0	0	4	4	4	3	4	4	5	8	9	6	2	1	3	3	3	3	0	2	1	1	3	4	3	1	3	5	4	1	0	2	4	2	1	4	4	4	3	4	2	5	3	2	1	1	5	5	1	3	3	4	4	2	2	3	1	0	1	2	1	2	4	2	0	1	4	4	3	1	0	1	2	2	4	7	6	3	2	2	3	3	1	0	1	4	5	2	0	1	2	4	3	5	5	2	4	3	3	3	3	2	0	4	4	1	4	1	1	4	1	1	5	5	1	4	2	5	7	7	5	3	1	2	5	4	1	1	3	4	3	1	1	3	3	1	3	4	4	4	2	1	0	0	0	3	4	4	4	4	1	0	0	0	0	0	1	4	2	6	5	1	1	4	4	2	3	3	1	3	4	2	1	3	4	8	8	4	3	4	4	4	5	7	8	7	5	2	4	4	3	1	4	2	2	1	3	7	5	1	2	4	1	6	3	6	6	2	3	3	4	3	1	1	3	4	3	1	3	5	6	5	4	3	7	4	0	0	0	0	2	3	2	3	0	0	0	4	3	5	7	4	2	4	3	1	2	4	4	2	2	5	6	2	4	3	4	4	2	4	3	1	2	6	7	4	3	3	1	3	2	2	4	7	7	3	6	7	2	0	4	4	1	4	0	5	5	3	1	0	0	2	2	1	
246	231	206	163	108	58	21	17	41	49	39	22	13	8	5	4	6	8	2	7	7	3	4	5	7	7	4	3	6	6	2	1	4	4	1	0	0	4	4	0	0	3	4	4	4	3	1	0	0	0	4	4	1	2	1	0	6	7	5	7	2	3	0	3	3	1	0	0	1	2	1	4	2	1	2	1	2	3	4	3	3	3	2	2	2	0	3	4	4	4	3	2	7	3	7	4	4	7	3	4	4	1	3	4	4	4	1	1	3	3	1	0	0	0	1	3	4	4	4	2	1	2	7	10	9	9	11	7	1	2	1	1	2	2	3	5	7	7	5	4	2	4	1	0	1	3	3	1	4	4	3	4	2	6	3	1	3	4	4	4	3	1	0	0	0	0	1	4	4	3	5	1	2	4	3	3	1	4	3	1	3	3	0	4	4	1	0	0	3	4	2	4	11	8	2	4	4	3	2	1	6	4	3	5	3	3	0	0	1	4	5	3	3	0	2	3	5	6	5	5	6	5	4	4	4	1	0	2	6	7	7	7	6	2	3	4	4	5	5	4	4	4	4	4	4	5	6	5	4	4	4	1	1	4	3	4	3	4	4	4	4	5	4	5	2	4	4	4	4	4	4	4	3	1	4	3	1	4	0	5	5	4	4	4	5	0	1	5	4	5	5	0	4	3	1	4	4	4	4	3	1	3	4	4	3	4	6	0	2	0	3	4	2	1	0	2	4	4	1	0	1	3	3	2	2	2	1	1	0	4	4	4	4	5	5	4	3	3	3	1	0	0	1	3	4	3	3	3	2	0	4	5	7	7	5	5	5	2	3	2	3	0	0	2	2	1	3	3	1	4	2	1	3	4	5	4	4	4	1	0	0	3	2	4	4	4	1	3	6	2	2	1	0	0	0	3	4	1	0	1	3	3	1	2	4	2	0	0	2	5	5	3	1	4	4	4	3	1	2	2	0	0	0	0	0	0	3	4	4	4	2	2	1	3	2	3	0	2	3	4	7	8	6	2	0	4	3	4	4	2	2	4	3	4	7	1	5	4	2	3	5	4	4	4	3	2	3	5	4	4	3	2	3	3	3	2	2	2	4	4	4	7	3	4	1	0	0	4	4	0	1	4	4	1	0	0	0	0	0	1	2	2	5	4	4	4	2	3	3	2	3	4	3	4	0	4	4	8	8	4	3	4	5	5	4	3	0	3	5	2	2	4	3	0	3	4	1	1	4	6	4	3	2	4	2	5	7	2	4	4	3	5	6	5	4	2	4	4	4	4	5	6	0	3	2	2	5	5	1	0	0	1	4	6	5	4	3	1	0	3	4	4	4	4	4	4	1	0	0	4	3	4	4	4	2	2	1	0	4	4	3	4	4	3	2	4	3	2	3	2	3	1	3	4	3	8	7	4	5	3	4	4	4	3	0	3	3	3	4	4	7	7	5	3	1	0	
214	248	278	289	285	269	231	168	96	32	19	47	43	25	14	14	11	8	5	8	9	5	7	9	8	7	5	2	4	5	2	0	1	4	4	4	4	4	3	0	0	4	4	1	2	1	0	0	0	0	3	4	3	1	0	0	4	8	2	5	4	1	2	1	3	3	1	0	0	0	2	3	3	4	4	4	3	3	3	3	5	5	3	1	0	2	0	0	0	0	0	4	7	2	6	4	2	5	6	6	7	5	2	4	0	4	5	6	4	3	0	0	0	0	4	7	7	4	4	3	4	1	5	3	4	5	8	11	7	2	2	3	2	1	3	4	4	4	3	1	1	4	4	1	0	0	1	2	5	3	4	3	1	5	7	4	1	0	1	3	4	3	1	0	1	3	4	4	0	4	2	2	5	1	5	5	2	4	4	3	4	4	3	2	4	2	0	0	1	4	3	5	7	5	0	3	3	2	4	6	5	1	0	4	0	4	1	3	3	0	4	4	0	2	1	1	3	4	4	4	4	3	1	1	4	4	1	3	4	4	5	4	4	3	1	4	5	5	5	7	7	5	6	5	4	4	4	5	3	1	4	0	1	2	1	4	3	4	5	6	5	5	5	8	5	4	1	1	3	4	4	3	0	4	2	2	3	4	2	3	3	3	4	3	1	4	3	4	4	4	3	3	4	1	3	4	0	3	4	3	2	3	3	3	1	3	5	5	2	0	4	4	0	3	3	4	0	4	4	3	1	0	0	3	3	4	4	1	2	1	2	1	1	4	3	7	3	3	5	7	8	7	5	5	5	2	1	2	2	2	6	4	3	3	3	4	6	5	5	3	3	0	0	1	4	7	8	7	4	3	3	3	4	4	5	6	4	1	0	0	0	2	4	1	3	5	3	3	5	6	4	1	0	1	3	5	7	5	4	4	5	6	5	4	5	4	3	1	3	2	6	4	4	4	2	3	2	2	3	1	0	0	0	0	0	0	4	4	1	4	6	1	3	1	0	1	2	1	2	5	7	6	5	4	1	3	3	4	1	1	2	3	3	5	8	6	5	3	0	0	4	4	6	7	5	3	2	4	4	4	4	4	3	3	3	4	5	2	4	4	4	8	3	4	4	1	0	3	4	1	0	1	4	4	4	3	1	0	0	0	1	1	3	6	4	2	4	4	4	4	4	3	1	4	1	4	5	7	7	4	1	3	5	7	8	8	8	7	4	4	5	4	2	2	0	4	4	5	5	0	5	5	0	4	2	4	6	4	4	3	0	2	0	3	4	3	3	0	1	4	7	7	6	5	5	7	8	9	5	1	1	4	4	4	4	4	4	4	1	1	3	3	1	1	2	1	0	1	3	4	0	4	0	4	6	4	1	0	4	4	2	6	7	5	1	5	2	4	3	4	4	4	4	2	4	6	5	6	4	2	3	4	3	1	0	1	4	3	3	3	4	4	4	1	0	0	
58	80	108	150	197	245	283	299	290	249	165	59	35	53	50	54	50	37	29	27	25	18	17	15	10	8	9	5	5	5	5	2	2	2	3	5	7	6	2	0	1	4	2	4	3	3	1	2	1	0	1	3	4	4	4	4	3	4	4	0	4	3	2	4	4	4	4	1	0	0	2	6	8	7	4	1	1	2	0	4	4	2	2	2	3	4	3	1	0	0	0	3	5	3	2	4	2	2	4	5	7	8	2	4	3	1	4	5	6	4	1	3	3	2	7	7	4	3	4	3	4	2	4	4	2	4	5	9	11	10	8	7	7	7	5	4	4	3	2	2	1	1	4	4	1	1	4	4	7	5	5	1	3	2	2	4	1	0	3	4	4	4	3	0	3	5	5	1	4	2	2	4	7	5	8	4	3	4	4	4	4	4	3	4	4	2	3	4	3	3	7	4	2	4	4	1	1	4	3	0	3	3	1	4	0	4	3	4	4	3	2	4	2	0	0	0	0	1	3	4	4	3	1	1	4	7	5	4	3	2	4	2	4	4	1	3	5	4	2	5	6	1	4	4	4	2	3	3	0	2	3	4	6	5	3	4	4	1	3	4	3	3	2	4	2	1	0	0	0	0	0	0	3	4	2	4	4	5	1	2	1	0	0	1	2	1	2	2	6	6	2	4	3	3	4	2	4	4	2	1	0	4	3	1	3	4	4	4	4	1	3	4	2	4	4	3	2	1	3	4	3	0	1	4	2	3	5	6	4	1	0	1	4	4	3	7	3	5	7	8	8	7	5	5	4	4	2	3	5	4	5	0	3	3	1	3	2	2	4	6	4	1	0	0	3	4	4	5	7	3	3	3	4	2	2	4	4	1	1	3	3	3	0	4	0	6	4	1	3	4	4	3	0	3	4	4	5	5	2	4	5	5	7	5	5	5	6	5	2	2	4	3	3	1	0	0	3	4	4	4	4	3	1	0	0	0	4	4	0	4	7	2	3	0	0	1	3	4	4	4	3	0	4	4	2	1	2	1	0	1	2	2	4	1	5	7	5	4	4	3	3	7	2	3	3	2	1	1	3	4	4	2	2	4	1	2	0	2	3	4	5	7	4	3	5	4	2	2	3	2	1	2	2	3	4	4	3	1	3	3	1	3	5	6	5	4	4	0	2	1	2	0	1	4	2	4	8	8	5	3	0	0	1	3	5	7	8	8	8	7	5	4	4	3	4	3	5	7	4	6	2	7	3	4	4	5	4	1	1	2	2	4	6	4	0	3	4	3	1	1	5	7	8	7	5	4	5	9	9	5	4	4	1	1	2	0	1	3	3	0	1	3	3	2	3	4	4	4	4	3	2	4	4	4	4	4	3	1	4	4	5	6	5	7	0	7	3	5	6	5	5	7	6	3	4	1	6	6	4	4	4	4	3	1	1	3	3	2	3	5	5	4	5	4	1	0	
65	56	46	44	45	60	104	163	225	283	315	260	133	48	15	18	31	36	35	41	50	52	49	41	31	20	12	7	8	8	9	5	3	3	0	2	3	3	4	2	4	4	1	3	2	2	4	4	4	2	2	1	2	5	6	7	8	6	1	3	2	4	1	3	3	2	2	4	1	0	3	4	4	4	3	1	5	7	7	7	2	4	5	2	3	4	4	3	0	0	0	1	4	4	4	3	2	3	3	4	4	10	5	7	4	1	4	1	7	5	2	4	4	4	7	6	5	10	11	10	13	18	19	18	19	19	17	17	18	15	10	8	9	10	9	8	7	5	5	0	2	0	1	4	4	2	4	2	5	6	4	5	2	3	3	5	3	0	4	5	2	5	4	0	4	6	1	5	2	2	4	3	5	2	4	2	3	3	4	3	4	3	3	4	1	3	4	4	4	4	8	4	1	1	4	3	3	4	2	4	4	4	3	3	2	3	3	4	4	3	2	3	3	3	2	2	1	0	0	3	4	4	2	4	4	5	5	3	1	3	4	1	3	4	4	3	7	4	3	6	4	2	4	3	3	4	4	1	0	2	6	7	4	6	4	5	5	3	1	3	4	1	5	3	2	3	1	0	1	2	1	0	4	4	5	5	5	7	0	2	0	0	0	2	1	2	0	4	3	3	3	3	3	8	9	5	5	1	3	3	4	4	3	2	3	2	4	1	2	4	0	4	6	4	7	6	2	0	0	4	4	1	4	4	1	0	1	3	4	3	1	4	4	1	3	5	6	5	4	1	1	3	2	4	2	4	4	4	5	6	5	4	4	1	1	1	2	3	2	3	4	4	4	3	2	4	1	4	5	3	4	3	0	3	4	0	4	2	4	4	4	5	5	1	2	5	4	0	1	3	4	3	0	4	4	1	4	6	2	6	4	1	4	1	4	4	3	7	1	0	2	1	2	1	0	0	1	3	4	4	4	4	4	4	4	4	4	3	0	3	5	6	5	4	3	1	3	4	6	4	0	2	4	4	1	0	0	0	0	2	0	3	2	2	3	4	4	5	6	5	3	6	3	4	0	3	4	3	1	0	0	2	4	2	1	1	1	1	2	6	7	5	4	2	4	4	4	4	3	1	3	2	3	0	0	3	4	5	7	7	5	4	5	1	4	1	2	3	4	4	3	0	3	3	1	4	7	5	3	1	0	1	3	4	3	1	0	0	0	1	2	1	1	4	7	4	4	4	3	8	1	7	5	0	2	3	4	6	7	5	5	3	0	2	3	4	3	4	4	3	0	3	3	2	2	1	1	5	9	8	4	1	0	0	1	2	1	2	4	0	3	4	4	4	4	4	4	4	4	4	4	4	0	3	4	2	2	4	4	4	7	3	7	8	0	8	4	6	7	5	4	4	4	7	4	3	2	3	3	3	5	6	5	3	3	5	7	8	8	7	5	4	5	5	4	4	
78	74	73	74	66	50	43	45	65	119	228	309	297	249	213	189	157	125	106	85	45	9	8	23	41	49	37	18	9	7	9	7	4	4	7	5	1	2	3	5	3	3	2	2	2	2	4	2	4	5	0	3	4	4	4	5	6	5	4	4	2	4	2	3	4	4	2	2	4	1	3	4	1	4	3	5	8	5	5	9	7	5	4	4	2	4	4	3	1	2	1	0	1	3	4	4	3	2	2	6	0	8	8	7	5	4	3	3	5	8	5	5	5	6	5	7	11	19	28	36	44	52	58	60	59	56	51	45	39	29	20	11	5	4	4	3	4	5	4	8	5	2	4	6	7	1	4	0	2	0	1	5	4	5	4	7	5	2	5	7	3	6	4	4	4	4	2	5	1	4	2	4	5	0	3	3	1	1	4	3	3	2	5	5	3	2	4	1	2	5	7	1	2	0	3	4	5	4	3	4	4	5	5	5	6	5	5	6	4	1	1	3	4	4	6	3	4	1	0	3	4	2	3	4	1	4	3	2	1	3	4	1	1	3	3	3	7	4	5	5	4	6	5	4	4	7	5	1	0	3	5	5	4	5	4	4	4	2	3	1	4	5	1	5	4	4	4	3	3	0	2	0	4	3	7	5	7	7	3	4	3	1	0	1	3	3	3	4	1	4	3	1	5	8	6	10	7	2	4	2	4	5	2	1	4	4	7	3	2	4	3	4	7	3	1	3	2	0	0	4	3	5	7	5	3	2	2	1	4	4	3	4	1	1	3	4	4	3	1	0	2	1	2	1	0	1	2	1	2	1	2	0	4	4	4	4	4	0	4	4	2	2	4	4	3	4	2	4	4	4	5	6	5	2	2	4	2	3	4	1	1	3	4	4	1	3	4	4	4	4	3	1	1	4	3	2	4	5	3	7	2	4	2	3	3	3	2	6	3	4	4	3	0	2	1	3	4	3	1	0	0	1	4	6	5	5	6	5	4	5	7	8	8	8	7	4	3	6	4	4	3	0	4	4	1	2	1	0	1	4	5	4	4	3	1	1	2	3	0	3	3	4	2	2	1	2	0	2	2	0	0	1	4	2	4	4	4	4	4	4	3	1	3	2	3	1	3	4	3	1	3	1	2	4	4	5	7	7	5	5	7	6	0	5	5	3	3	4	4	4	4	0	3	3	4	7	8	5	4	4	5	7	8	8	8	8	8	8	7	5	4	5	7	7	5	2	2	1	4	8	3	5	7	3	0	1	6	5	2	4	4	6	7	4	3	4	1	7	7	6	5	4	4	3	4	2	1	1	5	8	5	4	3	2	4	2	3	2	4	4	5	4	2	3	4	4	4	5	7	7	5	5	3	2	1	1	3	3	1	4	7	2	7	8	1	8	8	4	4	3	0	0	4	7	4	2	3	4	0	3	5	6	8	5	4	6	5	7	8	6	2	2	4	3	3	5	
13	14	23	40	59	70	73	65	53	47	91	172	235	265	279	297	313	313	309	304	284	258	239	198	118	21	46	54	40	32	29	24	18	13	12	11	6	4	0	5	7	8	7	5	4	4	1	0	3	5	7	7	4	2	3	5	4	5	4	3	1	3	4	4	3	0	4	3	3	2	2	4	2	3	3	7	5	1	1	5	7	4	2	4	3	0	2	1	3	3	4	4	3	1	0	0	1	4	4	5	2	4	5	2	1	4	0	4	0	5	10	12	12	13	16	23	30	32	28	13	7	18	17	15	16	17	11	3	22	39	46	41	27	15	8	5	7	2	5	6	7	4	5	4	8	3	3	0	2	0	2	5	5	3	4	7	10	8	8	4	3	4	4	7	7	5	5	7	4	3	2	1	5	4	4	4	4	4	5	6	5	4	5	6	5	2	3	4	4	4	2	2	0	2	0	4	7	4	1	3	5	7	5	4	4	4	4	4	3	0	0	0	1	4	6	2	3	3	2	0	4	3	4	2	0	3	3	3	3	1	4	4	2	3	1	3	5	5	6	4	4	4	3	1	1	5	7	3	0	4	6	0	4	3	3	2	2	3	3	0	3	5	6	5	1	1	3	4	4	2	2	3	5	4	7	3	7	5	4	4	4	4	4	3	3	0	3	4	2	2	4	3	4	7	3	8	7	4	4	1	3	3	4	5	5	4	5	2	3	3	4	4	5	4	1	5	4	3	1	3	3	5	4	2	4	5	3	3	4	3	4	3	1	4	4	4	1	0	0	0	1	3	4	3	1	0	0	0	3	4	4	3	1	3	3	2	4	4	0	3	4	3	1	4	7	7	5	5	6	5	5	3	4	4	2	4	2	2	1	0	1	2	0	4	4	3	6	8	6	2	1	3	4	5	4	4	5	5	6	4	2	4	2	4	1	1	2	2	2	2	4	5	3	2	4	4	4	4	4	4	3	2	4	4	4	4	4	4	4	3	2	4	7	8	8	9	4	7	4	3	4	1	3	4	4	4	4	4	5	6	5	3	3	0	0	1	2	0	2	0	4	4	4	4	2	2	4	3	1	0	0	1	4	7	7	6	7	8	7	5	4	4	3	2	3	4	3	1	2	2	2	3	3	4	3	2	2	0	3	2	2	4	5	3	1	3	3	4	4	4	4	0	1	2	1	5	7	7	5	5	8	10	8	5	5	7	8	8	7	5	4	4	4	4	4	4	3	1	4	7	4	4	7	4	0	1	5	8	7	5	2	2	4	4	0	4	4	8	7	5	7	5	2	3	6	2	3	0	1	5	7	8	7	7	4	2	3	1	3	5	7	5	4	5	7	8	8	7	5	4	7	7	7	8	8	7	5	4	4	4	5	1	5	8	4	7	10	3	5	4	1	0	4	4	5	4	1	1	5	7	7	6	9	8	6	3	6	4	3	4	4	4	4	1	0	3	
11	13	15	12	6	7	22	34	37	34	45	73	109	138	155	177	213	250	276	303	336	359	373	381	358	265	130	30	17	41	54	57	50	36	21	17	12	8	9	10	8	6	8	11	10	6	3	1	2	7	11	10	6	4	4	4	2	4	4	2	3	4	4	4	4	4	2	2	2	3	7	7	5	5	6	5	3	1	3	3	2	2	1	1	3	4	4	1	4	4	5	5	4	4	2	3	4	5	6	5	3	2	4	3	1	3	1	3	3	5	11	13	17	28	44	45	20	28	88	162	224	260	271	274	277	272	249	208	156	102	49	3	24	35	38	37	32	24	16	9	8	3	1	4	4	5	4	1	1	3	5	4	7	4	7	5	8	10	8	4	4	3	5	7	7	5	4	5	4	1	1	2	2	4	7	8	8	8	7	5	4	4	5	4	5	5	1	7	4	1	0	0	3	3	4	3	8	4	0	1	4	5	3	1	0	0	0	4	5	2	2	3	4	4	2	3	4	5	4	4	3	6	0	2	0	1	1	3	2	2	2	6	5	2	2	1	4	6	5	7	6	3	3	3	1	4	7	4	1	3	5	6	5	2	2	4	3	4	2	0	2	6	6	2	0	0	0	3	4	4	4	4	5	4	5	3	5	5	3	1	2	6	8	8	8	7	4	0	3	2	4	4	0	5	5	3	5	6	4	1	3	3	2	5	6	8	7	4	1	1	3	4	5	4	2	6	3	3	4	4	3	2	4	7	7	3	2	3	3	2	3	3	4	4	2	4	4	4	3	1	0	3	4	4	4	2	3	3	4	4	4	3	0	0	0	0	1	4	4	4	4	3	3	4	4	3	2	3	4	4	4	2	4	5	4	4	4	0	0	0	2	0	2	2	5	6	7	7	5	3	4	4	3	4	4	4	4	3	3	2	5	3	5	4	1	3	3	1	0	0	1	4	4	5	7	4	1	1	3	4	4	4	4	2	3	3	1	0	1	4	3	6	4	4	5	10	5	5	4	1	4	4	5	7	7	6	7	8	7	5	5	5	2	1	3	4	4	4	2	2	5	2	0	1	4	4	4	3	2	3	4	4	5	6	5	4	4	4	4	4	4	5	7	7	5	4	2	2	3	0	4	4	1	1	4	4	4	4	4	4	4	2	5	5	4	4	1	3	4	4	3	0	0	0	3	4	2	4	4	2	7	4	3	1	4	4	4	4	5	5	4	3	2	5	7	7	5	4	4	5	7	7	5	3	0	3	3	5	4	2	3	3	1	4	3	1	4	7	4	2	3	3	5	7	5	2	4	4	4	5	7	8	8	11	8	4	1	0	1	4	4	2	3	5	5	4	4	3	1	1	5	7	9	10	9	8	7	5	5	6	5	4	5	8	5	8	8	0	7	3	3	0	4	1	4	7	7	6	9	8	7	5	7	7	5	2	5	7	3	1	4	7	5	2	2	5	
12	12	13	13	16	18	16	12	9	3	13	32	51	67	67	59	55	62	72	90	119	142	164	222	321	391	373	296	216	147	82	31	9	24	40	43	36	22	13	8	7	7	9	11	11	9	7	5	5	8	7	6	7	8	6	2	1	4	7	8	8	7	5	4	5	7	7	6	7	8	7	5	4	4	4	3	1	3	4	3	2	2	3	0	1	4	7	4	4	7	2	3	1	4	4	4	4	4	3	1	0	1	4	3	2	2	7	11	13	15	16	20	27	32	13	56	156	246	310	341	346	348	356	361	360	356	353	351	348	337	302	238	170	104	38	26	50	59	61	55	42	24	11	5	3	8	10	7	1	3	4	2	5	6	7	5	7	7	5	5	7	9	10	9	7	5	4	5	5	5	7	7	4	2	4	4	4	4	4	3	0	3	5	4	5	7	0	8	4	0	1	3	4	2	4	3	7	4	1	4	4	4	2	3	0	0	1	4	5	0	1	4	3	1	0	1	5	7	5	5	3	4	2	1	0	1	4	4	2	3	4	6	5	3	1	0	3	5	7	7	5	4	4	4	3	4	5	4	4	3	1	0	1	4	5	5	7	2	4	4	4	4	4	3	0	0	0	1	3	4	3	1	3	4	3	4	3	4	4	4	4	5	7	8	8	7	5	4	4	3	1	4	3	1	4	2	3	4	4	3	2	4	2	2	5	4	2	4	1	1	3	4	4	1	1	5	7	4	4	3	4	3	3	5	3	2	3	1	1	3	1	6	4	1	0	1	3	4	4	4	1	4	4	1	4	4	4	4	5	4	3	1	0	0	0	0	0	2	5	5	3	2	4	3	0	0	0	0	1	2	1	1	4	7	5	4	3	0	0	1	3	3	1	2	1	3	5	4	10	4	7	4	0	4	3	4	3	0	1	4	5	0	6	5	5	6	5	3	0	0	1	4	7	7	5	4	4	4	3	1	2	5	4	1	0	0	0	0	2	3	4	7	2	3	3	7	6	4	4	0	2	6	8	7	5	4	4	4	4	5	6	5	2	4	4	3	3	5	7	1	7	5	1	0	1	3	4	4	2	4	4	3	1	1	2	2	2	1	0	0	0	2	2	2	2	1	4	3	1	4	5	3	1	3	5	4	3	1	0	1	4	2	2	5	2	1	2	3	4	3	2	3	3	1	4	4	1	3	5	4	7	0	4	2	4	0	2	1	3	4	2	3	4	7	5	4	4	4	5	4	4	4	4	4	3	4	2	3	0	3	5	4	3	4	4	1	3	5	7	8	7	7	8	7	6	5	4	4	4	4	4	4	5	8	7	4	4	4	4	4	2	3	4	4	3	0	0	0	0	0	1	3	3	1	1	3	4	3	2	3	2	1	4	7	3	7	5	3	8	0	4	1	3	1	2	3	5	6	8	5	4	4	5	5	7	3	5	7	3	0	2	7	10	8	4	5	
10	9	10	8	8	9	10	10	12	15	15	10	1	19	27	23	7	19	29	27	25	26	25	1	76	196	307	369	384	371	332	276	224	165	88	16	49	51	31	21	27	31	23	11	5	6	9	11	9	2	2	0	3	4	4	4	4	4	5	6	5	5	5	7	7	5	5	8	10	7	2	0	0	0	1	3	3	4	4	5	7	5	5	4	5	6	8	7	4	6	1	3	6	6	6	4	1	0	0	0	0	2	3	3	7	15	22	29	36	40	47	48	21	71	175	281	348	353	312	248	180	140	135	140	140	141	160	199	246	296	341	366	365	335	270	190	130	77	29	15	43	54	52	42	29	21	17	15	7	4	5	5	7	7	5	4	4	4	4	4	5	8	10	9	9	10	9	9	11	12	11	9	8	4	3	0	0	0	3	4	1	4	6	0	6	8	0	8	4	1	4	5	6	4	3	0	6	5	4	4	1	4	0	4	0	0	3	4	2	2	2	4	4	4	4	4	7	5	4	4	1	2	3	1	0	2	3	3	4	2	4	6	4	3	2	3	5	7	7	5	4	2	1	4	4	4	4	1	3	4	4	4	4	5	4	4	7	6	5	4	2	2	5	4	2	3	3	1	0	1	3	4	5	7	5	5	4	4	4	4	3	3	2	2	3	4	4	4	6	5	4	5	5	2	5	5	4	3	5	4	3	5	3	3	5	5	2	2	4	4	4	3	1	0	1	2	3	2	5	4	2	4	7	7	5	4	1	0	0	3	2	7	4	0	0	0	0	0	1	4	4	4	3	0	1	2	1	1	4	3	0	1	3	4	4	3	2	4	4	4	2	4	4	1	0	0	0	0	0	0	1	2	0	5	5	3	2	3	4	4	3	3	1	3	3	3	3	5	10	3	6	4	1	3	3	4	1	0	3	4	2	3	5	6	7	4	7	5	1	1	4	4	4	3	1	2	1	3	4	3	3	4	4	4	4	4	3	1	2	6	7	4	2	4	4	4	4	5	5	4	4	4	4	4	3	0	0	1	4	4	4	7	4	4	0	2	4	3	8	5	3	6	2	0	0	0	0	3	2	3	0	0	0	3	2	6	3	4	1	0	0	1	3	3	1	3	4	1	3	4	4	2	3	4	6	0	2	0	0	0	1	4	3	3	4	1	5	4	4	1	3	4	4	3	4	3	4	3	4	4	5	3	3	4	3	3	2	4	4	7	7	5	3	4	4	4	3	1	4	3	1	2	4	4	4	5	6	4	1	4	7	4	4	5	4	2	1	3	4	4	5	8	8	5	3	3	2	0	0	0	0	0	4	8	5	3	4	5	6	5	4	4	4	4	4	3	1	0	0	0	0	0	3	4	4	3	3	4	2	3	3	0	3	5	6	5	3	3	7	3	3	2	1	2	1	0	2	4	3	4	4	2	3	7	8	1	7	5	1	0	3	4	8	10	8	4	
4	5	8	11	11	8	5	5	7	10	15	22	25	22	13	10	11	12	21	23	24	25	30	43	45	21	43	122	198	269	323	348	360	366	335	238	99	24	57	41	22	23	32	37	32	26	18	12	7	3	3	2	0	1	3	4	3	1	0	0	0	3	4	7	7	5	2	4	5	4	4	3	3	2	4	4	4	5	5	7	5	5	7	9	9	5	7	7	6	1	4	8	10	9	8	7	5	1	1	3	5	9	14	16	20	33	39	27	5	11	19	27	148	284	358	354	284	177	88	36	5	13	20	18	15	13	10	12	27	58	113	178	234	289	333	360	366	340	292	232	149	56	15	47	56	47	34	25	15	12	13	11	9	8	7	5	5	8	10	8	6	9	8	8	10	13	13	13	15	14	9	7	8	7	5	4	4	4	4	5	4	4	4	2	5	7	2	7	4	2	4	4	2	2	4	2	8	7	4	1	0	3	2	3	0	0	4	4	0	0	1	3	4	4	4	3	5	4	4	4	2	3	2	3	0	1	3	4	3	1	3	5	7	8	8	8	8	8	7	7	4	2	2	2	4	4	4	4	3	1	0	1	3	5	4	2	3	5	2	0	3	5	5	1	7	7	7	5	2	4	4	4	4	5	6	5	4	4	4	4	4	3	0	2	1	3	4	3	2	4	6	7	8	6	8	5	4	4	7	3	4	5	0	5	4	0	4	2	3	5	2	1	3	4	4	4	3	3	1	6	4	4	7	8	7	4	3	0	0	1	3	5	4	2	1	0	0	0	1	4	7	7	4	1	0	0	0	0	3	4	4	4	4	4	4	4	4	4	2	4	4	4	1	0	0	0	0	0	1	3	4	4	4	4	3	0	2	3	3	3	2	4	4	2	4	4	0	6	5	5	3	2	4	2	3	4	3	1	4	4	1	4	4	5	8	2	5	5	4	4	4	2	2	1	0	2	0	2	4	4	4	4	1	3	4	4	4	4	4	4	3	2	4	0	3	5	7	7	5	4	3	0	4	7	5	3	1	3	4	1	1	5	6	5	4	1	5	2	7	4	5	5	0	2	1	0	0	1	2	0	3	3	2	4	3	7	2	4	2	0	0	0	0	0	0	4	4	0	3	4	4	2	3	3	5	6	5	4	3	1	0	1	3	3	1	5	7	4	5	3	3	4	3	4	3	3	4	2	4	4	3	3	3	5	3	4	2	6	2	2	2	1	0	1	3	3	1	0	3	4	3	0	6	4	2	6	7	5	3	4	8	3	5	7	2	1	1	1	3	3	2	7	5	2	4	7	5	3	1	0	0	0	3	7	5	2	3	4	5	7	7	5	4	4	4	4	3	0	0	0	1	3	5	5	4	4	4	6	5	3	3	0	1	4	6	4	1	1	5	4	1	1	4	6	5	4	4	3	2	3	4	4	2	6	8	3	6	4	1	1	4	1	4	5	5	3	
5	7	10	13	12	10	7	9	9	8	10	15	18	17	17	17	14	7	8	11	12	11	12	20	31	42	49	42	17	30	88	138	184	247	335	394	345	196	94	128	164	161	103	29	44	61	53	34	19	8	7	5	4	4	4	4	1	0	0	0	0	2	5	5	5	8	5	3	5	4	7	3	2	5	5	4	6	9	9	7	5	5	7	8	7	7	7	7	7	5	7	9	2	4	7	8	9	5	4	7	12	17	21	28	38	43	15	96	179	233	256	273	336	359	273	167	72	1	23	20	15	12	13	16	15	13	13	16	22	29	20	7	29	79	116	184	258	320	354	364	351	298	226	154	78	13	42	49	38	26	15	9	8	8	8	8	9	12	17	24	29	28	24	21	20	20	18	13	8	5	6	4	5	7	5	5	6	5	4	5	4	0	2	1	3	5	4	5	3	2	3	4	6	4	1	9	12	7	2	0	0	1	2	1	0	0	4	4	1	2	1	0	0	0	0	0	4	3	4	3	1	4	3	3	1	3	4	3	2	2	0	3	5	8	10	9	8	7	8	8	5	5	1	2	5	7	7	7	5	4	4	4	4	5	4	3	4	4	4	2	4	5	2	8	9	4	5	5	3	4	1	1	3	2	1	1	1	3	4	4	4	4	4	4	4	5	7	6	2	5	3	5	8	7	5	1	0	4	7	3	5	2	1	2	4	4	0	4	6	2	3	3	4	4	2	2	4	5	6	5	5	2	2	3	2	2	4	1	1	3	4	4	4	3	4	1	0	0	3	5	7	7	5	3	1	3	3	1	1	3	4	3	1	0	0	1	3	4	3	2	2	1	0	1	2	1	1	3	4	4	3	2	3	3	1	0	2	4	2	0	2	4	6	0	7	4	3	5	4	6	5	3	4	2	4	4	4	3	4	3	7	10	7	1	7	4	4	2	3	3	1	2	0	2	0	1	2	1	2	6	6	2	0	0	0	0	1	3	4	4	3	4	4	4	4	4	4	2	2	4	4	4	7	7	4	3	3	4	2	3	4	2	2	4	5	6	4	1	5	3	4	1	2	0	2	1	2	2	2	4	4	4	6	4	5	3	3	4	1	1	2	1	1	2	1	4	4	0	1	4	4	2	0	5	10	11	8	5	4	4	4	3	1	0	2	4	4	0	6	4	1	4	3	3	1	1	2	2	3	5	2	1	3	7	6	7	4	5	0	5	6	4	1	1	2	1	0	0	1	4	5	5	3	4	4	4	4	7	4	4	7	4	8	5	2	3	4	4	4	4	3	6	4	5	8	7	6	5	4	1	1	3	5	8	10	7	6	6	7	7	8	7	5	3	1	3	4	4	4	4	4	4	5	5	3	4	4	4	5	6	4	1	0	2	0	2	1	3	4	3	0	1	7	7	7	5	3	3	4	0	0	2	3	4	9	7	1	4	3	3	3	4	7	3	2	4	
4	4	5	7	10	13	11	8	6	8	11	12	12	12	11	9	7	6	7	8	9	10	9	7	5	7	11	21	30	31	26	17	8	19	94	233	366	387	346	352	349	351	332	263	165	73	15	29	44	30	11	7	7	4	2	4	4	5	6	5	4	4	4	1	2	7	10	7	8	7	11	8	8	8	8	7	8	9	10	8	5	4	4	3	2	5	5	5	8	10	7	5	2	2	4	5	8	5	4	10	15	18	19	8	21	70	176	304	353	363	371	361	312	206	69	8	27	24	8	2	5	5	5	6	3	3	2	5	9	13	16	22	25	42	21	34	16	50	98	150	233	313	357	363	326	230	105	16	32	47	39	24	17	15	12	10	13	20	31	41	44	41	44	49	45	36	32	28	21	14	8	6	5	5	2	4	3	3	2	4	4	2	3	2	2	4	4	5	4	5	5	2	3	2	2	10	8	2	3	0	0	0	0	0	0	0	4	4	3	3	4	1	0	0	0	0	3	3	4	1	1	4	6	5	4	5	7	7	6	1	4	4	4	4	4	4	4	4	8	7	5	8	5	4	4	7	8	7	7	5	6	8	7	7	8	6	5	4	5	5	4	4	7	11	7	4	8	3	3	1	0	2	2	2	3	2	1	0	0	0	0	0	1	3	4	4	4	5	6	5	2	3	5	4	1	0	0	3	5	6	5	3	3	1	4	7	5	4	7	1	4	4	4	7	7	5	4	4	4	3	2	3	3	1	0	1	4	4	4	5	5	2	4	3	4	4	1	0	4	7	2	3	6	3	4	4	4	3	0	1	3	4	4	4	3	1	3	4	4	4	2	2	2	4	4	4	4	4	3	1	0	0	1	3	4	4	4	4	1	0	3	5	5	1	8	4	4	4	2	1	4	7	7	5	7	5	5	4	4	3	10	9	8	6	7	5	1	0	0	0	0	1	2	1	0	0	0	0	2	6	6	2	0	0	0	0	0	1	4	4	4	4	3	3	1	0	1	4	4	4	4	3	5	4	3	5	5	4	2	5	6	5	2	2	0	3	4	4	5	3	1	0	2	5	4	4	2	6	2	7	4	3	7	4	3	1	2	0	3	5	6	5	3	0	2	3	4	1	0	3	4	3	3	5	5	6	7	4	5	6	5	4	4	3	0	4	4	2	4	4	4	2	1	1	0	3	4	4	6	3	4	4	5	8	5	7	2	3	3	5	2	2	2	3	3	4	1	0	0	2	6	7	4	3	7	4	4	8	4	4	4	5	5	0	4	2	3	3	1	2	4	1	3	5	5	3	0	3	4	3	3	4	4	5	8	7	5	4	5	5	4	4	3	0	0	1	3	4	4	3	0	3	4	4	2	4	4	0	3	3	4	2	1	1	2	1	3	4	3	0	3	4	7	4	4	4	1	3	4	1	0	3	4	2	5	7	4	4	3	3	3	5	3	2	1	4	
3	0	4	4	6	10	8	6	8	12	11	9	10	13	11	7	7	8	8	7	5	4	3	1	4	4	2	5	10	11	14	18	22	32	37	22	140	256	300	277	226	239	309	370	384	351	265	136	18	49	28	6	4	5	6	5	5	7	8	7	4	1	2	1	4	5	8	10	8	5	8	6	10	10	5	3	2	1	3	4	3	1	2	1	0	3	4	5	7	8	4	1	1	5	5	5	8	5	5	13	20	25	11	99	214	309	363	352	253	173	156	146	102	35	24	31	21	5	2	4	8	5	7	7	3	2	3	6	5	3	4	4	7	34	36	4	44	65	67	44	13	74	139	216	311	371	347	259	141	32	36	48	44	41	40	41	46	48	29	26	77	93	74	34	13	12	2	18	34	41	41	41	36	27	20	14	8	5	3	3	4	8	10	7	5	0	4	5	5	7	5	5	7	4	0	9	8	3	3	0	0	0	0	0	1	3	2	3	4	2	3	2	0	0	0	0	1	1	2	3	1	3	3	4	3	4	4	7	9	7	7	7	7	4	1	0	0	4	7	5	7	10	9	5	5	6	5	5	7	4	3	7	7	7	6	3	3	4	4	5	9	9	7	7	1	8	7	4	5	3	1	2	6	7	5	4	4	4	4	4	3	1	0	0	0	0	1	4	7	7	4	1	4	4	1	3	4	4	4	4	3	3	3	4	4	5	5	3	5	3	4	4	4	7	7	4	1	1	3	3	2	2	1	0	0	0	2	5	4	3	0	1	4	3	2	3	3	3	3	7	3	4	5	1	4	1	4	4	1	4	4	4	4	3	4	4	5	5	0	4	4	3	6	5	4	4	3	0	3	4	3	1	3	4	4	4	3	1	0	1	4	5	3	4	7	3	3	4	0	2	2	3	3	2	5	5	5	5	7	7	8	7	8	11	4	8	2	1	1	3	3	1	1	2	1	0	1	3	5	5	4	3	0	1	3	3	1	3	4	0	4	3	0	0	0	0	3	4	1	0	0	0	4	4	4	7	5	3	5	6	1	6	0	3	4	4	4	3	3	3	3	3	3	2	2	5	2	6	2	6	4	2	4	5	2	1	1	2	3	4	2	6	4	2	1	1	4	4	1	1	3	4	5	7	8	4	4	2	1	1	3	5	6	5	4	2	3	1	1	3	4	4	4	1	0	4	3	4	6	3	3	7	7	4	3	7	1	3	4	2	3	3	1	3	3	3	3	1	3	4	4	4	7	1	7	4	5	7	3	3	3	2	2	4	4	1	0	1	2	4	2	4	2	2	4	5	6	5	4	3	3	4	1	1	4	4	2	1	3	4	4	4	4	3	3	1	0	0	0	3	4	5	6	4	1	3	4	4	1	3	7	3	3	0	0	0	3	4	4	4	4	3	4	4	0	4	3	1	4	4	2	4	5	1	4	5	4	6	5	3	2	4	4	3	1	3	
3	2	4	5	0	6	4	7	11	10	7	5	4	4	7	6	5	4	4	4	3	0	0	1	4	5	6	7	10	10	8	8	9	16	27	38	23	24	47	34	16	15	74	165	261	345	389	357	194	5	53	24	5	7	10	10	6	7	6	7	7	2	4	4	4	2	3	5	5	4	6	7	10	5	2	2	3	2	0	3	4	4	2	4	4	5	8	10	8	8	5	4	4	7	5	5	10	11	10	13	35	42	72	253	345	340	277	164	45	20	28	26	27	26	21	18	12	7	5	8	5	1	7	7	4	1	6	3	3	4	4	5	4	11	35	42	24	27	27	22	27	33	40	20	60	195	316	377	357	253	143	77	41	19	4	8	8	23	106	219	298	322	309	259	206	176	160	143	110	66	30	6	17	32	43	44	41	38	33	26	18	13	11	10	11	5	7	6	4	2	2	0	4	2	2	7	6	5	5	4	3	1	1	3	4	3	1	3	4	0	4	4	3	1	0	0	0	3	4	4	2	4	4	2	2	5	4	2	7	7	5	5	6	5	4	4	3	5	4	6	8	10	12	8	4	3	2	4	5	2	3	5	4	5	1	4	3	4	4	2	6	7	4	2	2	5	7	7	5	4	4	4	5	6	4	2	3	4	4	4	4	3	1	3	3	1	3	4	4	4	4	3	3	4	7	7	5	4	3	1	2	5	1	4	1	4	4	0	4	3	4	3	4	5	3	5	3	3	4	4	6	2	4	3	3	1	3	2	3	1	1	2	4	1	2	1	3	4	0	5	5	2	3	2	3	1	4	2	4	4	1	0	0	2	6	5	4	7	3	1	1	4	7	5	0	2	0	3	5	6	5	3	3	4	1	1	3	4	3	1	2	7	11	10	5	1	1	4	3	1	4	4	2	1	4	4	4	6	6	8	7	3	7	10	2	9	1	2	3	4	4	3	2	0	2	0	2	2	3	4	3	1	0	3	4	4	3	4	4	3	4	1	0	0	0	0	3	4	3	1	1	3	5	5	7	7	5	0	6	5	4	5	3	3	3	4	4	4	3	3	2	2	4	1	2	2	2	2	2	1	6	7	4	4	4	4	4	0	4	5	7	8	5	4	3	1	1	4	4	4	4	3	3	3	5	6	5	4	4	2	2	3	3	3	3	3	1	1	2	2	2	2	4	4	1	3	4	7	4	4	7	6	3	2	5	5	2	2	2	2	2	3	3	0	4	3	3	3	5	7	10	7	8	4	7	5	7	4	1	0	1	2	4	3	1	1	3	4	3	7	0	7	2	2	3	4	4	4	3	1	2	4	2	1	4	5	1	0	2	6	8	7	5	4	4	4	1	0	0	3	4	3	2	1	4	4	2	2	4	4	6	2	3	0	0	0	2	1	3	3	1	0	2	4	1	4	3	0	1	4	5	0	5	4	2	4	2	4	4	5	6	5	3	0	1	4	
4	4	5	4	1	5	3	7	5	3	0	2	1	2	1	5	4	2	3	4	3	0	0	0	1	3	4	5	5	7	8	11	15	14	10	12	22	32	38	39	40	46	43	23	18	78	206	373	378	169	21	58	28	7	2	7	6	5	4	5	8	7	7	4	1	0	0	2	0	6	2	8	4	7	3	5	5	2	1	5	10	12	11	9	8	8	9	9	7	8	7	8	8	8	5	4	6	10	10	15	57	24	188	366	292	126	45	1	24	28	28	31	29	22	17	15	12	11	8	7	2	1	5	10	8	5	7	5	6	6	7	8	10	9	2	24	44	43	25	29	30	16	10	25	43	31	71	194	316	354	328	291	258	226	202	193	204	234	289	337	323	311	341	349	311	269	262	282	293	274	243	214	178	128	73	27	8	35	54	57	46	29	16	11	12	9	4	2	1	3	2	4	5	5	7	7	1	4	4	4	4	4	4	4	3	1	1	5	5	4	7	7	7	4	0	0	0	4	4	4	4	2	4	0	0	6	4	0	1	3	4	5	3	4	3	4	4	6	3	4	3	4	7	5	3	5	4	4	2	2	4	4	4	4	4	4	3	4	4	3	2	3	2	1	3	5	7	6	3	4	7	7	5	3	3	0	0	0	0	1	3	2	5	7	7	5	2	3	2	3	2	3	3	6	7	5	4	4	4	4	3	6	2	4	3	5	5	4	4	1	4	1	5	8	7	9	7	5	5	5	8	3	8	7	7	4	4	1	4	1	3	4	1	0	1	2	1	3	3	2	4	4	0	2	1	3	4	1	4	3	2	1	0	1	5	8	4	6	4	1	3	7	4	3	5	2	0	4	7	2	6	4	1	4	2	3	4	4	4	2	4	7	8	7	4	2	2	4	4	4	4	5	1	2	3	4	4	7	2	0	2	2	4	7	7	4	4	2	2	2	4	3	1	2	1	1	4	6	4	2	3	3	1	3	4	2	4	4	2	4	3	0	0	0	1	3	5	6	5	4	4	4	6	10	11	7	1	2	5	4	4	4	4	4	0	0	0	0	1	3	5	6	5	4	4	3	1	0	0	2	3	4	6	5	4	2	4	3	1	3	5	5	3	3	4	3	1	4	6	5	4	4	3	2	2	0	3	3	1	3	4	4	4	1	0	1	2	1	0	4	0	2	1	4	4	2	4	5	5	7	8	3	6	5	5	4	1	0	2	0	5	4	4	4	0	1	1	5	7	3	7	7	8	5	7	1	3	3	4	4	5	7	4	1	0	3	2	0	4	7	1	8	1	4	1	0	0	0	0	1	4	4	1	2	1	5	4	1	2	2	0	0	1	3	3	3	1	3	4	2	2	5	4	3	4	4	4	3	1	2	3	2	1	0	0	0	2	0	2	0	0	0	2	3	3	4	1	0	0	1	5	5	1	4	3	5	3	2	3	3	0	6	4	1	4	4	
3	5	5	4	4	4	2	5	4	1	2	0	3	4	4	4	4	5	4	2	1	1	3	3	2	2	2	4	3	3	5	11	13	9	5	5	8	11	13	15	17	22	27	35	52	60	2	190	385	356	159	1	52	34	7	2	1	2	4	5	4	3	1	1	3	4	4	2	1	4	2	6	2	6	4	9	7	5	4	9	10	10	12	18	25	26	18	7	7	3	7	12	15	14	10	7	5	4	9	29	42	99	328	371	168	17	40	26	14	13	7	9	9	8	7	5	5	9	8	7	5	5	8	10	8	7	8	8	8	8	8	9	10	10	9	11	43	57	41	39	59	51	24	21	32	43	41	16	110	189	230	256	276	288	292	293	291	277	258	225	145	87	127	188	207	178	151	156	189	236	274	298	309	305	281	247	207	157	99	45	3	31	40	30	17	11	4	2	2	3	8	10	5	2	3	2	3	3	0	0	2	5	4	1	0	1	2	4	4	3	10	6	5	5	3	1	0	3	4	2	4	4	5	5	6	7	5	3	1	0	2	3	2	3	0	0	3	5	2	2	5	5	1	4	7	8	4	3	2	3	5	6	4	3	6	6	2	3	4	3	1	1	3	4	5	6	4	3	1	4	4	4	3	2	4	4	3	1	0	2	1	4	7	5	5	7	4	1	0	2	1	3	4	2	1	0	4	4	4	6	5	7	6	5	4	5	7	8	7	6	7	7	5	7	4	8	10	7	5	7	8	4	8	5	7	7	4	2	4	4	4	3	0	0	0	1	2	1	6	7	1	4	4	4	3	2	4	2	3	6	3	4	1	0	1	5	4	2	4	4	2	7	6	5	4	4	1	4	8	0	5	4	4	4	1	3	4	2	4	3	3	4	4	3	3	0	1	4	6	5	2	3	6	4	0	4	2	5	6	5	3	3	4	8	11	5	6	4	3	2	1	2	3	1	0	3	4	4	4	4	4	4	4	0	4	2	3	3	2	4	1	0	0	1	4	4	4	4	5	7	7	5	5	6	5	4	4	4	5	5	4	3	4	4	0	0	0	1	4	4	4	4	4	4	4	4	3	0	1	3	5	2	3	3	1	0	4	3	3	4	5	4	4	4	4	3	3	5	6	5	1	0	1	4	4	4	3	0	0	1	3	3	1	0	0	0	0	1	2	2	2	1	0	1	4	4	4	4	4	4	4	2	7	7	4	0	3	4	4	3	5	4	1	4	2	4	4	7	8	6	5	4	4	4	7	2	3	3	2	3	4	3	2	2	0	3	4	7	7	5	3	8	3	4	3	0	0	0	1	4	2	1	1	1	2	2	4	4	1	3	6	5	4	5	6	4	2	4	4	4	3	3	2	0	4	4	1	3	4	4	4	1	0	0	0	1	3	3	1	0	0	0	1	3	3	1	0	0	0	0	1	4	4	4	6	4	7	3	4	5	6	5	2	4	4	1	
3	4	3	0	4	3	0	3	4	1	1	4	4	5	6	4	2	5	8	5	1	3	2	4	5	4	4	4	4	5	6	8	7	8	7	6	7	8	10	10	8	8	8	10	22	45	60	23	218	379	372	227	52	44	41	12	3	3	3	4	1	3	2	2	4	4	4	4	4	4	4	2	1	2	4	7	2	6	7	15	9	7	17	29	30	35	42	41	32	25	23	20	15	9	5	6	9	11	31	45	59	276	386	252	51	28	23	19	17	12	13	10	8	4	2	3	4	7	7	8	8	7	7	7	9	7	8	10	9	8	8	9	10	11	10	4	30	59	65	49	12	32	49	40	30	23	25	31	25	52	70	68	75	101	122	124	112	95	94	98	57	32	24	36	88	106	78	28	10	46	95	127	157	201	248	290	319	330	319	280	209	119	35	17	39	41	32	19	10	8	10	6	5	3	4	4	4	1	0	0	2	0	2	0	0	0	0	1	4	3	7	7	3	2	4	4	1	1	4	2	3	4	5	3	2	5	5	4	4	4	2	2	3	1	0	0	2	5	7	4	4	1	2	1	7	10	5	4	5	4	4	4	4	1	3	2	3	2	6	8	8	8	8	6	2	0	4	3	2	3	0	0	0	2	6	8	7	5	1	1	2	3	3	3	2	3	4	2	2	3	3	2	1	2	3	2	4	3	3	4	5	5	4	3	1	1	3	4	5	7	9	8	2	5	7	2	5	0	3	6	6	4	7	4	5	5	6	5	5	7	6	3	3	4	3	3	0	5	4	8	7	1	2	1	2	2	3	4	3	6	3	2	4	1	1	4	3	1	2	3	2	6	7	4	2	4	4	5	7	2	4	2	2	1	1	4	7	6	7	4	1	6	8	8	7	5	4	2	4	4	4	4	3	3	3	4	3	1	2	5	4	0	2	3	6	7	5	4	3	5	4	3	3	3	2	5	4	1	3	3	1	1	4	4	4	3	0	0	3	4	4	4	5	6	4	1	0	2	6	8	8	7	4	1	1	1	3	7	8	7	3	1	3	4	3	1	0	3	4	1	0	2	3	3	4	5	4	0	2	0	6	5	3	4	3	1	2	6	8	7	7	4	5	7	7	5	4	6	3	7	4	1	3	4	1	4	5	2	1	0	0	0	0	0	0	0	0	0	0	0	0	0	0	0	1	3	3	4	4	1	1	3	5	7	4	3	5	6	5	3	4	4	0	3	3	4	2	5	7	6	6	7	8	7	5	0	3	3	1	0	2	5	4	1	0	2	5	5	3	1	4	8	3	4	3	0	0	0	2	3	3	4	4	1	0	1	5	7	3	5	0	2	0	2	0	3	4	2	3	3	0	2	0	3	4	3	0	0	0	1	4	3	0	0	1	2	1	2	0	0	1	3	4	4	3	1	0	0	0	0	0	1	3	3	5	3	7	7	0	3	4	3	2	4	1	0	
2	4	1	2	3	2	1	1	4	4	3	4	2	3	4	4	3	1	5	8	5	5	4	5	4	2	3	3	3	4	3	4	3	4	7	7	5	7	7	4	1	4	3	4	9	19	38	39	37	188	343	402	296	94	35	45	18	10	9	9	10	8	5	4	4	3	4	5	7	7	5	4	4	4	4	4	2	4	9	20	15	21	7	47	105	111	61	17	51	63	64	54	37	21	8	9	16	33	63	25	218	382	284	82	17	20	16	18	19	15	15	13	12	11	6	4	4	5	6	5	5	3	4	3	8	5	5	7	7	5	4	4	5	11	11	10	14	31	56	83	87	63	48	47	30	11	19	24	14	18	50	47	27	34	35	27	16	25	59	63	31	20	27	21	23	66	94	76	13	48	35	25	27	25	27	68	119	181	242	288	313	300	242	153	62	14	45	51	39	21	6	1	7	3	3	3	1	1	2	1	2	5	5	3	1	0	0	0	2	5	3	3	3	0	1	4	3	1	4	3	0	3	4	1	0	6	5	4	7	7	5	4	4	4	3	1	3	4	9	10	9	10	9	7	8	11	8	5	5	3	3	2	4	1	4	3	3	3	4	4	4	4	4	4	2	2	2	3	3	2	3	3	1	3	4	4	5	8	7	4	1	2	2	0	1	2	2	3	4	4	3	1	2	3	2	1	3	3	4	2	3	2	4	3	1	0	0	1	4	4	3	7	6	3	5	3	4	4	4	2	2	4	5	3	3	3	5	6	5	4	4	4	4	4	4	5	6	5	2	6	6	3	4	4	2	3	1	1	2	2	4	3	3	2	2	3	4	7	7	4	4	2	4	4	5	8	11	11	8	5	5	3	0	0	2	2	3	3	5	4	6	4	4	4	4	4	6	4	3	3	5	4	3	2	4	0	4	7	6	1	4	4	5	7	6	1	2	3	0	3	2	2	4	3	1	6	3	0	0	0	0	0	1	3	3	1	1	3	2	2	4	5	7	6	2	0	0	3	4	4	4	4	4	4	4	1	5	4	7	7	3	1	1	3	4	4	4	4	3	3	3	4	5	2	4	7	4	0	2	5	5	6	4	4	4	4	5	6	5	4	6	3	4	4	4	4	3	4	2	4	4	4	4	3	0	4	6	0	2	0	0	0	1	2	1	0	0	0	1	2	1	0	1	3	3	1	0	4	4	0	0	2	4	5	4	3	6	0	6	3	4	3	0	1	2	1	0	4	4	0	2	2	6	6	2	3	4	4	3	0	2	0	2	1	3	4	4	3	4	3	2	7	6	4	0	3	3	1	1	3	3	2	4	4	1	3	7	5	2	5	3	1	0	1	2	3	3	3	5	7	7	5	4	4	3	1	0	0	0	0	3	4	1	1	4	2	3	1	0	0	2	2	0	1	2	3	0	0	0	0	0	1	2	1	4	3	5	6	4	4	3	1	3	4	1	0	
1	4	3	4	6	5	4	1	1	4	4	4	3	4	4	4	3	2	3	5	4	5	6	4	0	4	6	4	1	1	2	0	4	2	2	1	2	5	4	2	4	4	4	5	5	10	18	29	38	8	109	289	410	329	113	34	55	37	22	14	12	11	9	7	5	4	4	4	4	5	6	6	6	6	7	7	6	9	17	33	29	31	117	241	304	315	287	206	129	70	21	20	40	48	48	45	43	56	31	139	364	354	121	26	25	15	17	12	9	10	12	11	9	12	9	2	1	3	3	2	4	4	4	2	7	5	4	4	4	3	0	0	1	7	13	15	10	6	12	29	54	67	65	54	23	9	16	17	22	6	31	63	66	41	37	28	33	72	75	41	13	8	6	8	8	8	55	93	52	50	38	25	47	28	23	45	54	36	2	54	130	215	287	317	286	204	105	24	29	47	37	17	7	4	4	3	1	2	1	2	4	4	3	3	2	1	3	3	2	4	4	3	3	0	0	4	3	4	4	1	0	4	4	1	2	5	6	3	4	6	7	7	8	8	7	5	3	4	7	12	12	12	12	12	13	14	11	5	4	2	4	3	4	1	2	1	2	4	4	0	0	1	2	3	4	0	0	1	3	4	4	4	4	4	2	2	0	5	9	10	5	5	7	7	4	2	3	4	4	4	4	4	5	7	6	3	3	5	5	3	1	2	4	4	4	2	3	4	4	0	4	6	4	5	2	2	3	4	1	0	1	5	7	4	3	1	4	1	2	0	1	1	1	1	1	4	7	6	3	6	2	4	4	4	4	1	3	1	3	3	0	3	2	2	5	6	6	7	5	4	2	1	3	1	4	7	8	7	5	4	7	4	1	3	2	3	5	4	4	5	7	2	3	4	4	5	5	1	1	2	1	6	7	4	3	4	4	4	4	3	2	5	5	4	3	3	2	1	2	1	0	3	4	5	6	5	1	0	0	0	0	0	0	0	0	0	2	2	3	2	1	2	3	2	3	0	0	4	4	1	3	4	5	7	8	7	4	4	5	6	3	2	0	0	1	3	4	3	1	4	3	7	8	3	5	8	4	0	3	5	6	5	3	1	2	0	1	2	4	4	4	3	4	3	1	0	0	2	5	5	3	1	1	3	3	2	5	5	2	1	3	3	1	0	2	0	0	0	3	2	3	0	3	4	4	3	0	3	4	3	1	1	4	5	7	1	5	3	4	3	5	4	4	4	4	4	4	5	5	4	3	1	0	2	2	3	4	4	3	0	1	2	1	3	2	4	4	5	7	7	4	3	6	4	3	3	2	4	2	2	3	3	2	4	4	4	6	4	3	3	3	3	3	1	1	2	0	2	3	2	3	4	2	1	2	3	4	4	3	1	1	4	2	4	4	2	4	1	1	2	2	3	4	4	3	3	0	0	0	0	0	2	1	4	2	2	4	2	3	4	4	4	2	2	4	1	
0	4	3	2	1	4	7	5	3	3	4	4	4	4	4	3	3	3	6	4	0	4	7	7	5	5	3	2	3	4	4	4	4	3	3	4	4	5	5	1	3	2	4	6	4	7	14	17	26	42	38	54	254	405	338	137	11	48	37	17	9	9	11	12	10	5	2	2	2	3	4	5	6	6	10	11	13	21	39	47	29	179	300	311	242	234	308	359	360	326	272	213	143	65	11	6	6	29	140	335	392	216	8	44	17	14	11	4	2	3	10	8	3	8	9	4	4	4	3	2	4	6	4	2	5	7	4	1	4	3	2	1	0	4	8	8	5	5	8	10	7	7	14	14	7	21	8	12	19	17	8	31	84	87	28	29	71	88	49	15	0	7	5	11	22	27	16	59	60	20	31	11	41	73	70	45	16	17	18	16	7	58	137	237	320	346	310	240	146	44	27	47	34	18	13	11	8	6	5	3	6	3	2	3	3	5	6	5	1	4	1	2	1	1	3	5	4	5	4	3	2	4	3	0	0	4	5	4	5	1	6	8	8	8	8	10	7	7	5	7	7	4	2	5	10	15	15	10	7	6	7	7	7	5	4	4	3	3	4	2	3	4	3	1	4	0	0	3	4	3	1	2	5	4	2	2	3	3	3	8	7	7	4	3	3	3	3	1	0	0	1	3	4	3	3	2	1	4	3	6	2	3	0	1	4	4	4	3	1	2	3	4	7	8	6	2	2	5	5	1	3	7	5	4	6	4	5	6	5	4	4	4	3	3	0	3	4	4	7	4	5	5	4	4	6	3	5	4	4	4	4	1	2	3	3	4	0	4	3	0	1	3	1	1	4	3	0	0	0	3	7	7	5	4	4	6	2	4	3	4	4	3	4	4	5	7	5	4	4	2	4	3	4	6	1	7	4	1	3	4	4	1	3	4	7	7	4	1	1	3	3	3	6	7	4	2	2	1	1	2	1	0	0	0	0	1	4	7	6	2	2	1	3	3	0	3	4	4	3	2	2	2	1	4	5	7	0	4	4	6	4	0	2	1	0	0	0	0	0	4	3	8	9	0	6	8	4	1	5	8	7	7	4	3	2	2	0	3	2	1	2	2	3	2	3	1	2	2	4	4	4	4	4	3	3	1	3	4	4	4	3	3	2	5	5	3	1	0	3	2	3	0	4	4	4	5	3	2	2	4	4	3	0	3	7	5	4	4	5	6	5	4	4	4	4	4	4	5	7	8	7	4	2	3	1	1	3	3	1	0	0	0	0	3	3	5	3	3	2	3	5	4	3	2	4	7	7	7	4	5	4	2	3	1	3	3	1	6	7	4	3	3	2	3	3	4	4	4	5	7	7	5	4	4	3	2	3	4	4	3	0	4	1	4	1	1	4	4	4	4	4	1	0	2	5	4	1	0	1	2	1	2	5	4	2	2	1	0	0	0	2	5	5	2	3	3	
3	3	1	3	2	2	6	8	7	3	4	4	3	4	5	3	3	2	7	5	4	4	4	4	5	7	5	3	4	4	2	3	3	1	3	4	0	4	7	3	3	4	5	7	7	9	12	10	7	14	38	48	40	239	394	370	205	35	46	43	21	11	11	13	15	14	10	2	7	6	5	2	4	6	7	7	20	40	40	33	202	331	279	119	18	11	101	208	279	334	376	386	364	310	246	213	213	250	338	382	254	60	34	26	4	5	4	1	3	7	8	4	3	7	5	7	8	7	6	7	8	7	5	1	1	4	3	0	3	3	4	4	1	7	5	7	6	5	4	6	11	15	18	22	18	13	11	8	12	7	12	9	63	112	61	27	89	94	34	12	3	5	7	20	26	31	21	16	48	41	13	21	22	48	75	92	96	92	80	72	67	63	65	84	146	219	261	292	304	254	145	32	36	50	38	26	17	9	9	10	8	4	3	6	8	7	4	7	0	4	0	0	0	3	5	7	7	5	4	4	5	7	5	4	4	4	3	1	5	6	2	4	4	4	5	8	10	8	5	4	5	5	1	5	4	11	15	13	9	7	7	5	5	4	1	3	4	3	3	0	3	2	3	0	4	0	0	3	4	1	0	2	0	3	4	1	5	4	1	6	2	1	3	4	1	1	2	1	0	0	0	0	0	3	4	1	2	4	2	4	5	4	1	0	2	4	2	0	1	4	7	7	4	3	5	5	4	5	8	5	4	7	4	3	7	5	0	3	4	4	4	2	4	5	3	3	3	4	6	3	4	4	4	5	7	4	5	4	4	4	5	4	0	4	3	5	5	6	5	4	3	3	1	4	4	1	0	1	3	2	3	7	6	2	3	7	3	3	0	2	6	7	6	6	5	4	1	1	4	0	3	2	4	4	2	6	4	1	2	5	7	6	5	7	7	5	4	4	1	2	2	0	2	2	2	3	3	4	3	0	2	0	1	2	1	3	4	3	2	2	1	0	0	1	4	5	7	7	4	0	3	4	4	5	5	8	5	7	7	5	2	4	3	3	0	0	0	0	0	3	3	6	5	6	5	7	4	3	6	7	4	1	2	4	3	3	2	4	4	3	3	1	4	3	4	4	3	0	4	3	1	0	0	2	4	2	1	4	5	3	3	5	5	4	4	4	4	3	2	2	1	0	3	4	4	6	4	4	3	1	3	4	4	4	4	4	7	5	4	4	3	1	0	0	0	0	0	1	3	3	4	5	2	4	3	1	0	0	1	4	6	4	1	1	3	5	4	5	4	3	2	3	4	2	4	8	10	7	2	6	5	4	4	1	0	1	4	4	4	4	3	5	2	3	4	4	0	3	4	4	3	1	1	2	2	2	3	1	4	3	0	4	0	4	0	1	2	1	1	1	2	4	3	2	4	4	4	4	4	3	3	2	3	4	7	4	1	1	3	3	3	0	3	4	3	3	
7	4	1	1	4	4	4	7	8	4	7	7	5	4	5	0	2	1	5	7	6	2	0	1	4	7	4	1	4	3	0	0	0	0	1	4	4	5	7	3	0	1	4	4	3	5	7	9	5	4	11	34	44	31	205	377	399	232	32	56	50	29	12	1	7	14	18	14	12	7	8	7	7	9	12	22	28	7	87	232	337	264	76	53	72	83	89	26	58	111	172	227	289	335	332	310	307	320	311	219	68	26	31	12	1	3	5	7	8	9	5	1	4	5	4	7	8	7	7	10	11	9	9	5	1	3	4	4	5	6	6	7	5	7	7	7	9	6	4	5	7	5	10	20	26	18	4	4	8	4	12	22	32	111	95	6	78	108	69	29	13	8	11	22	15	16	23	10	13	34	39	31	23	13	8	29	47	55	57	58	53	43	36	27	30	86	110	122	192	282	311	247	124	20	35	47	40	23	12	11	12	11	8	5	4	3	2	7	6	5	3	1	0	4	7	3	5	3	1	2	5	5	4	5	6	4	1	0	3	8	5	0	0	0	1	3	4	4	4	4	5	8	7	7	5	8	12	12	9	7	8	5	5	4	0	1	3	4	3	2	4	3	3	1	2	4	4	3	3	2	0	1	2	3	3	2	6	3	4	7	5	7	7	5	3	4	2	3	0	1	2	1	0	4	4	1	1	3	0	3	4	4	4	2	4	3	4	4	4	4	4	4	3	2	1	4	3	2	5	7	7	5	3	1	5	8	5	4	4	4	3	2	7	5	4	0	3	4	2	2	1	2	3	4	8	4	3	3	4	4	4	4	3	4	3	7	5	3	3	2	1	2	2	4	2	1	2	4	4	4	3	1	4	3	1	5	6	5	4	4	4	4	5	7	7	5	3	3	3	2	1	3	3	5	6	4	2	3	4	1	3	3	3	4	4	1	1	4	2	2	2	0	2	3	1	4	3	4	4	2	1	1	4	3	3	3	4	4	2	1	1	0	0	3	5	5	4	4	4	4	3	3	2	6	7	8	5	4	4	3	2	3	3	3	0	1	3	3	1	2	4	0	5	5	3	5	4	4	4	7	10	8	4	3	0	1	3	3	2	2	3	0	2	0	5	4	3	3	3	4	4	4	3	0	4	3	2	3	4	7	7	5	4	1	0	1	3	4	4	2	3	4	5	7	7	5	3	3	4	4	3	1	1	3	2	1	2	3	3	2	3	4	3	1	0	0	0	1	3	4	7	4	2	3	4	4	1	0	3	7	6	7	3	0	3	4	1	5	2	1	0	0	0	4	6	3	2	4	7	8	2	7	5	4	1	3	4	1	3	6	1	4	3	3	5	5	3	0	0	1	4	4	5	7	6	4	4	3	4	1	0	3	2	3	1	4	4	4	4	4	2	2	4	3	3	2	5	5	3	3	5	4	6	5	5	4	3	2	2	2	3	2	1	1	2	1	
6	4	4	5	7	5	2	4	6	5	9	8	8	6	1	2	2	3	3	0	2	3	0	0	3	7	5	4	4	1	0	0	1	3	4	5	7	7	7	3	1	0	3	4	4	4	5	9	10	8	8	12	31	46	14	154	362	396	227	66	15	47	45	15	9	1	13	16	12	8	13	22	31	40	53	46	45	179	294	327	235	58	49	49	12	76	105	44	12	12	9	10	60	128	159	152	147	145	114	40	30	32	18	11	8	8	8	8	7	7	4	3	5	4	3	4	3	4	3	5	4	5	9	9	5	4	4	4	4	4	4	5	7	8	8	3	4	4	4	5	5	1	5	13	16	24	16	7	4	3	10	26	3	85	112	54	30	91	92	56	30	15	13	19	7	12	15	10	7	4	13	13	7	10	15	13	11	6	1	5	5	9	19	21	6	48	88	68	41	85	196	299	315	236	124	27	34	52	39	20	13	12	11	6	4	3	2	5	10	11	8	5	1	3	8	2	4	1	1	4	4	1	0	3	3	4	1	0	1	8	7	1	2	1	0	0	0	0	0	1	4	7	8	5	7	8	13	14	11	8	8	8	10	8	5	4	3	1	1	2	5	4	1	3	4	7	7	5	4	4	3	1	0	2	6	6	3	3	5	4	4	4	2	3	4	6	1	2	4	4	4	4	1	3	4	4	4	3	2	2	1	4	6	0	6	3	3	4	2	2	3	2	4	1	1	2	1	0	2	6	7	3	1	1	1	5	7	8	7	5	4	4	7	3	4	3	2	1	0	1	2	0	4	2	4	4	1	3	4	4	3	4	3	4	0	7	3	7	5	4	4	4	3	3	2	3	3	7	7	5	5	3	5	4	0	1	3	4	4	3	1	0	3	3	2	4	4	5	7	7	6	6	5	5	7	8	6	3	4	5	1	3	3	0	4	3	0	1	4	5	6	4	3	0	0	3	4	3	3	3	2	4	2	3	3	1	3	3	2	3	4	1	0	4	7	4	1	1	2	0	3	5	5	3	2	5	4	0	1	3	4	0	4	1	1	4	5	6	5	4	4	5	1	2	0	3	4	4	1	1	4	7	4	1	1	4	4	3	1	2	2	0	2	1	5	5	4	3	0	1	4	6	5	4	4	3	1	3	4	4	4	3	1	0	0	0	0	1	4	4	4	4	4	4	4	3	1	2	2	0	1	3	4	4	4	2	2	4	4	2	4	4	4	4	1	0	1	4	4	4	5	2	4	4	0	4	3	1	4	7	0	8	4	0	4	5	3	8	3	3	0	1	3	4	5	4	1	6	7	5	5	8	4	5	4	4	3	0	1	5	4	4	4	1	4	6	4	0	1	4	4	1	3	4	4	6	4	5	5	3	1	1	2	0	4	4	0	3	3	0	4	3	1	3	4	3	1	2	0	3	7	4	4	0	4	4	3	1	4	5	2	0	1	2	2	3	
4	5	7	7	5	3	2	3	3	7	9	7	6	5	4	1	3	4	4	4	3	3	0	0	1	5	7	4	1	0	1	3	4	4	4	4	4	4	5	4	4	4	4	4	4	3	2	5	8	8	8	8	13	35	60	19	170	341	361	289	188	76	18	53	43	27	22	21	22	28	38	48	50	38	8	73	220	311	270	149	22	56	32	10	32	68	86	42	11	19	31	38	35	32	48	46	41	40	27	20	20	13	11	10	9	10	9	8	7	5	3	4	7	4	5	4	3	4	3	4	0	1	5	9	8	7	5	1	0	0	0	1	4	7	5	2	4	1	1	4	3	0	4	15	12	11	22	11	1	0	5	20	14	44	99	90	22	47	73	56	32	13	8	13	7	8	6	7	7	7	8	7	5	5	7	11	13	15	16	15	12	10	16	23	27	8	62	100	72	20	12	90	224	314	314	240	137	43	18	39	37	27	18	10	8	7	5	2	7	7	10	9	5	3	6	5	2	4	4	4	1	0	1	4	4	5	5	3	2	8	7	3	2	3	0	0	0	1	3	4	4	4	7	3	5	2	8	15	17	13	7	10	13	15	12	9	7	5	4	4	7	7	5	4	6	2	3	1	4	4	4	3	0	3	4	4	2	2	1	6	9	11	12	8	5	5	2	3	4	3	2	4	3	2	5	4	2	2	1	0	0	3	5	6	5	3	0	1	4	4	4	2	4	4	4	4	4	2	4	4	4	5	0	2	0	1	3	4	4	3	1	2	5	2	3	4	4	4	4	4	3	3	1	4	3	3	0	1	3	3	1	3	3	4	3	4	7	8	7	4	2	3	4	3	1	4	3	4	7	7	5	4	7	3	3	4	4	4	4	4	4	3	0	4	3	0	1	3	4	5	6	5	4	1	3	3	5	8	4	3	5	4	4	4	5	4	1	0	1	4	6	7	5	1	0	1	4	1	2	3	5	7	2	4	1	1	3	3	3	3	4	3	0	4	7	4	1	3	4	4	2	3	5	7	3	3	4	4	3	1	1	1	3	1	3	5	5	4	5	4	4	7	6	5	4	6	10	10	7	6	4	4	4	1	3	4	0	4	4	4	3	0	1	2	2	4	3	1	0	0	2	0	2	6	7	4	1	0	0	0	0	0	0	0	0	0	0	0	1	2	1	0	0	0	0	0	0	3	4	4	3	3	1	2	0	2	3	1	4	2	4	4	3	2	3	4	4	4	1	2	3	3	3	3	2	4	3	4	4	4	2	7	4	0	4	7	4	10	3	3	0	3	4	3	4	4	2	5	7	5	5	7	0	3	3	3	1	0	0	3	4	2	4	4	4	4	4	4	4	4	1	0	4	4	3	5	4	5	5	4	3	1	2	2	4	1	2	3	2	3	4	5	3	4	3	3	5	5	3	0	7	7	5	5	6	4	0	2	4	2	3	1	5	7	8	8	
7	8	8	6	2	0	3	3	5	8	8	5	3	4	4	4	5	4	0	2	1	3	4	4	4	4	5	4	4	4	5	7	7	5	3	1	1	4	4	2	3	4	4	4	4	3	1	1	4	4	3	4	5	15	37	43	43	150	242	313	349	311	194	62	25	50	59	62	65	67	56	25	45	130	215	283	304	216	60	34	38	5	49	68	77	80	66	26	15	22	20	18	19	16	15	27	28	21	8	4	5	2	3	4	7	6	5	2	3	3	2	7	8	3	7	4	4	4	4	4	0	0	1	5	5	4	6	3	1	3	3	1	3	4	1	4	4	0	3	4	0	3	4	11	17	13	18	10	4	1	3	11	18	12	65	95	53	36	75	63	30	10	4	11	5	1	6	9	11	12	11	9	8	6	3	5	5	8	11	9	2	5	5	14	23	28	8	52	106	94	30	38	8	108	237	308	313	262	165	67	18	43	46	31	14	7	5	4	8	4	7	8	5	4	2	5	2	3	2	2	3	1	3	4	4	5	9	8	5	6	5	3	1	4	1	0	1	4	5	7	6	4	5	3	2	4	5	5	16	16	9	11	12	13	15	12	10	10	8	6	8	11	11	7	3	3	4	2	4	1	4	4	0	3	4	4	3	0	3	2	2	4	8	10	8	7	4	1	0	0	1	4	3	3	2	3	0	0	1	2	1	1	3	4	3	1	0	2	3	3	4	3	1	3	4	4	5	4	4	2	4	8	7	5	3	1	0	0	3	4	4	3	3	2	1	3	4	4	4	3	3	4	0	1	2	1	0	0	1	3	3	3	5	4	4	4	8	5	4	4	4	3	1	0	1	4	3	0	1	2	0	5	6	2	4	4	4	4	4	4	4	4	4	4	4	2	1	1	2	1	1	4	5	2	4	4	0	5	7	5	5	3	1	3	4	1	3	3	4	5	4	4	5	4	4	4	4	1	3	4	4	7	3	4	1	5	6	5	0	4	4	3	0	3	5	5	3	3	4	4	3	0	4	7	4	5	6	5	2	2	4	2	2	5	7	7	2	3	3	2	1	4	4	4	4	5	7	8	7	5	3	1	4	2	4	3	2	4	1	4	3	0	0	1	2	1	0	0	0	0	1	1	2	4	3	3	3	3	4	4	3	1	0	0	0	0	0	0	0	0	0	0	0	1	3	4	3	5	4	0	1	4	3	2	2	2	2	3	4	2	3	4	4	2	4	6	4	1	0	1	4	7	8	7	4	4	3	4	1	1	3	5	3	0	4	8	1	9	4	1	1	4	3	0	3	4	1	4	6	4	3	5	3	1	0	0	0	0	0	1	4	2	4	5	2	1	3	4	3	1	0	0	4	4	1	4	2	4	3	3	4	3	0	1	4	1	2	4	1	4	5	8	7	5	4	8	5	4	4	3	5	5	7	5	4	3	2	0	5	1	2	4	7	7	9	8	
8	8	8	7	5	4	5	5	5	8	7	5	4	4	3	4	6	3	3	4	5	6	5	4	4	4	5	4	5	7	7	5	4	4	4	4	4	4	1	0	0	0	1	3	4	4	3	0	3	4	3	1	1	8	17	24	12	50	79	113	201	306	352	306	210	120	52	11	8	21	76	156	247	309	316	270	176	67	4	29	72	98	99	89	77	58	28	4	14	13	8	5	5	3	0	4	4	5	1	5	5	4	3	4	7	0	7	2	3	0	4	7	7	6	7	3	3	4	3	4	0	0	1	4	6	4	4	4	3	2	2	3	4	3	0	3	4	1	4	4	3	4	4	7	11	10	7	7	8	5	5	8	14	10	42	82	55	34	79	54	15	8	2	12	8	5	7	8	8	8	7	6	7	7	5	4	6	8	7	5	7	4	2	2	2	11	24	14	41	104	116	49	46	58	18	112	201	281	314	279	195	90	6	41	43	27	17	11	7	0	7	7	2	2	1	4	5	2	4	2	3	3	4	3	4	6	6	10	7	1	4	1	3	4	4	3	4	4	4	4	4	5	7	7	5	3	6	2	11	13	10	10	11	12	13	12	8	7	8	8	8	9	10	8	3	2	2	3	4	0	3	4	4	2	2	3	0	3	2	2	3	3	3	5	3	1	2	0	0	0	3	4	1	3	2	3	0	0	3	2	3	0	0	1	3	3	2	4	7	8	6	2	1	4	4	4	4	2	2	4	4	5	4	4	4	4	4	4	5	7	7	6	6	5	4	4	4	3	1	0	3	4	1	0	0	0	0	1	4	4	4	4	4	4	5	6	7	3	1	2	5	5	4	2	4	4	1	0	0	0	3	6	2	4	3	1	0	0	0	0	1	3	4	3	3	0	2	2	0	1	3	2	7	5	0	4	3	1	4	4	4	1	0	0	1	2	3	2	0	3	4	2	3	7	7	5	3	3	4	1	1	4	3	4	4	7	3	7	3	3	3	1	0	1	4	6	4	0	3	3	1	1	3	4	7	7	5	3	4	4	0	4	3	4	7	3	2	5	4	4	4	3	4	1	1	4	4	3	5	7	5	1	3	3	4	1	1	4	5	7	4	1	1	3	3	1	0	0	0	0	0	2	4	1	4	5	5	4	4	3	3	2	0	0	0	0	1	3	4	3	1	0	0	3	4	4	4	6	4	3	1	4	4	1	3	4	3	4	4	0	0	0	0	4	6	1	4	4	3	1	3	5	7	7	5	5	2	2	3	1	2	4	1	2	2	7	3	7	4	1	4	5	3	1	1	4	5	7	5	3	1	4	4	3	3	1	0	0	0	0	3	4	3	0	2	1	3	3	1	0	0	0	4	4	1	4	1	4	3	3	5	5	3	2	4	4	5	7	5	5	7	8	4	6	8	5	2	0	3	4	2	3	4	1	3	4	5	6	4	2	3	2	4	7	4	2	
5	5	7	8	8	6	7	7	5	8	7	6	7	7	7	4	4	3	4	4	5	4	4	1	0	1	4	4	4	5	6	5	4	4	5	6	4	1	0	0	0	0	0	0	0	3	4	2	2	1	2	2	2	4	10	19	17	31	62	43	29	55	179	285	335	334	297	250	236	262	296	312	294	233	150	89	63	67	89	105	98	76	56	39	23	8	7	11	7	1	3	2	4	4	5	6	5	6	10	13	10	7	7	7	4	1	6	2	4	2	4	5	8	10	8	4	2	4	0	4	4	4	3	3	5	4	5	7	7	7	7	5	4	1	1	4	7	5	3	4	3	4	1	6	8	5	1	1	5	7	7	5	8	7	38	75	49	30	77	48	8	8	5	14	12	7	5	4	3	1	4	6	5	5	8	9	10	9	7	8	7	4	0	3	4	2	7	22	15	35	107	125	64	27	30	32	10	67	176	274	322	302	217	108	23	24	43	41	27	14	10	4	7	10	8	5	7	3	6	3	4	3	4	2	3	7	6	5	5	1	3	1	2	4	6	4	3	2	4	4	4	7	8	8	8	8	6	2	6	8	10	9	9	10	11	13	8	4	4	4	5	6	8	8	5	7	7	4	3	1	3	4	4	4	3	1	4	5	5	4	2	5	3	6	4	5	1	3	3	1	3	4	4	2	1	0	3	4	4	2	4	3	2	4	4	4	4	4	4	4	4	4	1	4	2	3	4	4	4	4	2	4	1	0	1	3	4	4	4	4	4	1	3	3	4	3	1	2	2	1	4	7	5	1	1	3	4	4	4	1	1	2	1	1	3	3	3	0	2	2	0	3	4	4	4	1	0	0	0	0	4	4	5	5	3	3	0	0	0	0	3	2	3	0	1	2	1	1	2	1	4	3	5	7	4	4	3	0	1	2	1	0	1	2	1	0	1	4	7	7	5	4	4	3	3	2	1	4	3	0	0	1	2	4	4	4	2	6	4	1	0	0	0	0	4	5	4	4	1	0	0	2	1	3	4	4	7	4	3	4	4	4	3	4	3	4	4	4	2	6	7	4	5	4	4	4	4	2	4	5	7	4	2	1	1	0	0	1	2	4	2	4	4	4	4	4	3	1	0	0	0	1	4	4	4	3	3	3	4	5	7	4	1	0	0	1	4	4	4	4	4	4	4	4	2	3	4	4	3	4	3	3	4	4	4	5	4	4	4	1	0	0	1	4	4	4	7	6	5	3	5	8	6	5	5	4	5	4	4	4	3	5	3	1	1	5	4	5	3	3	5	5	4	4	3	0	4	5	3	1	0	4	7	4	4	3	0	0	0	0	1	4	5	3	1	3	4	4	3	0	0	0	4	4	3	5	4	5	6	2	4	4	3	0	1	3	5	5	4	4	5	4	2	7	5	6	7	4	0	4	2	2	1	0	2	6	8	7	5	3	1	2	1	7	7	1	
4	4	4	4	7	4	4	5	6	10	8	6	7	9	12	5	5	5	2	3	4	2	4	3	1	3	4	4	3	4	4	4	4	4	4	4	4	3	1	0	0	0	0	0	0	1	4	6	4	4	2	2	5	7	10	18	36	11	73	87	41	52	24	49	127	222	297	325	326	307	263	201	131	72	39	42	63	74	65	47	25	7	7	10	12	14	10	5	1	2	2	2	5	5	4	2	1	3	8	8	6	7	8	7	4	4	4	1	5	2	4	3	4	4	4	4	3	4	3	3	4	3	2	3	5	6	5	5	7	7	6	6	5	4	4	5	7	9	4	4	4	7	7	3	5	5	3	2	4	6	5	4	5	4	42	75	43	34	76	46	7	8	7	11	11	5	2	4	4	2	2	3	4	2	3	6	4	1	6	9	5	7	8	8	7	3	1	8	20	9	41	99	114	91	54	26	12	40	28	44	144	250	315	308	241	155	73	12	32	43	41	35	28	21	17	12	8	6	8	4	1	1	4	4	5	8	11	11	7	3	1	3	2	4	5	4	1	4	4	4	4	4	4	4	4	7	7	5	5	7	8	8	7	7	8	12	9	7	5	4	4	4	8	10	5	4	5	6	5	4	3	3	0	3	4	4	4	4	3	7	3	6	2	9	6	3	5	4	4	4	4	5	6	5	4	4	4	4	3	2	3	4	4	4	1	1	3	4	3	1	1	4	2	2	4	0	3	4	3	1	3	4	2	2	1	0	0	0	0	0	3	2	3	2	0	3	4	3	1	3	4	5	7	3	3	5	6	4	0	3	3	1	0	1	2	2	3	3	0	2	1	2	1	2	2	2	1	0	0	0	3	3	5	5	4	4	0	0	0	0	4	1	4	4	3	2	2	1	1	3	5	4	5	5	4	6	4	1	0	0	0	0	3	3	4	4	3	2	4	4	4	3	0	4	4	2	4	4	0	3	4	4	4	2	2	5	5	1	4	4	1	0	0	0	4	4	1	4	4	1	0	1	2	1	1	5	7	3	1	3	4	3	1	4	2	3	2	4	3	7	8	3	5	7	6	2	3	3	5	4	4	3	4	3	0	0	1	3	5	7	7	7	4	1	1	3	4	4	3	3	1	0	1	1	2	5	7	7	6	7	5	4	3	0	1	4	4	1	1	2	0	3	4	3	2	4	3	1	0	3	4	0	3	4	4	4	1	3	4	3	0	0	2	4	1	4	6	2	7	4	7	10	1	6	7	4	5	4	4	7	3	5	4	3	0	4	1	4	1	4	6	4	2	3	4	4	5	5	4	4	4	5	7	3	4	4	1	2	1	1	3	4	5	4	1	3	4	3	4	0	0	1	4	3	3	6	1	6	7	2	4	4	3	0	0	1	4	3	1	2	4	1	3	5	1	4	7	7	3	4	4	0	0	1	5	6	5	4	4	1	0	2	5	7	7	1	
7	4	8	1	5	3	1	3	10	11	5	2	2	8	11	5	4	4	3	3	4	1	3	4	4	4	4	3	0	4	4	1	3	3	1	2	6	7	5	1	1	3	4	3	2	2	5	8	4	1	4	4	4	5	5	10	33	36	44	92	69	61	34	33	47	21	53	106	108	85	66	55	48	51	56	52	36	14	11	14	15	12	10	11	12	10	5	3	1	4	6	5	4	4	1	3	2	7	8	5	4	7	7	5	7	7	4	4	7	1	4	1	0	0	1	4	3	3	4	2	3	3	2	1	2	4	3	1	3	4	4	5	7	8	7	5	5	10	10	9	8	8	11	8	6	1	3	5	4	3	7	9	5	12	50	73	31	44	76	40	4	5	4	6	9	7	3	4	4	1	4	7	5	4	4	2	4	4	5	6	3	6	10	12	10	7	4	5	8	15	9	26	61	83	85	84	72	31	35	53	34	25	116	217	289	314	290	222	137	61	11	37	44	37	27	13	7	7	10	6	1	3	2	2	3	1	1	3	4	7	3	2	4	3	3	4	4	4	1	4	5	2	4	4	4	4	4	5	6	5	4	4	4	7	8	10	10	10	11	11	8	6	8	11	7	5	5	7	8	7	5	5	2	4	8	9	6	2	1	4	3	5	1	8	7	7	5	1	1	3	4	4	4	5	7	7	5	4	3	1	0	2	5	4	1	1	4	4	4	2	3	4	5	3	4	2	1	1	3	3	0	4	4	4	4	4	4	3	2	3	5	6	4	1	0	3	4	1	0	3	4	2	7	5	5	7	3	3	2	2	2	2	1	4	3	6	2	3	3	4	4	4	1	1	4	4	4	1	1	3	5	6	5	3	7	4	1	3	3	1	4	3	3	4	4	4	3	2	5	7	7	5	7	5	4	4	4	4	1	1	3	4	4	2	3	3	3	1	4	4	4	4	4	4	1	2	4	2	3	5	7	7	4	2	3	4	4	4	0	4	3	1	2	1	4	5	2	1	4	2	1	3	4	4	4	7	5	1	0	0	0	0	0	4	3	3	4	5	3	4	7	4	2	3	3	2	2	5	5	3	1	0	3	4	4	4	4	4	4	5	6	4	0	2	1	0	4	7	4	4	3	0	1	5	7	8	8	7	5	4	1	3	4	4	4	4	1	1	5	7	7	5	1	0	4	5	2	2	3	5	7	5	1	0	0	2	5	5	4	4	3	3	2	4	3	2	5	3	7	4	7	9	3	5	8	5	4	3	4	8	3	4	6	4	4	5	5	7	5	4	4	4	3	1	1	3	5	7	8	8	8	8	8	4	5	5	4	3	4	4	3	3	4	4	1	2	3	1	4	4	4	4	4	1	1	5	6	4	4	6	5	2	2	4	4	5	7	4	2	3	4	2	4	4	2	3	4	7	4	3	4	0	1	5	8	4	3	1	4	4	4	4	5	7	5	2	
12	5	6	6	2	4	1	6	10	4	2	3	4	7	9	5	2	2	4	2	3	3	1	3	4	4	5	5	1	4	5	5	6	5	2	5	7	8	9	5	5	8	10	9	8	7	8	8	5	4	4	1	0	2	2	5	24	70	78	24	60	88	87	88	23	55	55	50	47	32	46	63	63	52	32	10	10	18	19	16	12	6	5	7	8	8	6	2	1	4	4	3	2	4	4	5	3	7	8	7	5	7	4	7	8	7	4	4	7	3	4	3	0	0	3	4	1	1	4	4	4	2	2	4	3	3	4	1	1	4	7	8	7	5	4	3	2	4	7	7	5	5	8	5	6	5	2	4	8	4	10	13	5	20	61	72	17	57	74	32	0	4	5	4	6	8	5	4	4	0	2	4	1	2	3	0	3	2	5	4	0	2	3	3	7	11	7	2	3	10	14	10	1	25	43	62	90	98	53	25	7	26	35	2	72	161	247	302	315	287	221	135	55	5	34	34	22	10	11	7	8	10	9	8	8	8	8	7	4	4	2	2	4	1	1	4	6	4	2	5	7	3	4	3	3	1	1	3	4	4	2	3	5	8	11	12	12	10	11	11	9	8	8	11	11	12	11	8	5	4	5	8	8	9	11	12	11	7	4	3	4	4	2	5	7	7	5	3	1	0	1	2	2	4	7	8	8	7	5	4	3	2	4	4	4	4	4	0	4	0	4	4	4	4	7	5	4	3	2	2	3	3	3	2	4	7	7	5	1	2	0	2	2	0	0	1	4	4	4	3	3	1	5	7	8	7	4	4	2	6	6	2	3	3	4	7	1	4	4	4	1	4	4	4	4	2	4	3	3	4	4	4	3	2	7	5	5	6	5	4	5	4	1	1	4	5	4	3	5	3	2	0	5	4	1	3	3	5	4	4	4	4	3	1	0	3	5	5	6	6	6	5	3	1	1	4	7	5	4	6	4	4	6	4	1	0	1	4	3	3	4	3	0	3	4	5	0	0	5	2	4	5	7	7	4	5	3	3	4	3	2	3	4	4	3	0	1	4	4	2	4	7	3	3	4	1	2	3	2	1	0	0	1	3	4	4	3	1	0	0	0	1	4	4	4	1	4	7	4	4	4	3	4	5	3	1	3	5	4	1	0	1	3	4	3	1	1	2	5	4	3	6	3	0	4	7	2	6	4	4	5	8	5	4	4	5	7	7	4	4	4	4	4	2	3	2	5	6	5	2	5	7	4	4	8	7	4	3	5	7	3	4	5	4	6	5	4	5	5	2	1	3	4	3	0	0	2	5	5	4	5	8	7	5	8	7	4	3	7	4	2	4	4	4	2	4	3	1	1	3	4	3	1	0	0	2	2	1	3	4	3	2	5	7	8	7	4	3	1	4	3	2	4	5	3	1	3	5	7	4	3	0	3	7	5	3	4	0	2	5	5	4	5	4	1	1	
14	12	3	7	3	5	4	7	9	3	3	2	2	6	7	5	4	4	4	4	3	3	0	0	2	3	4	8	8	7	7	7	4	7	4	7	5	5	8	5	5	8	7	8	7	6	9	11	7	6	5	3	1	1	4	1	47	83	85	79	43	15	52	97	77	17	27	36	17	72	86	56	29	9	6	13	11	6	5	7	4	2	3	4	5	5	4	4	4	4	1	0	0	2	5	7	6	7	7	7	6	3	2	7	8	5	3	4	5	3	4	4	0	0	3	4	1	0	2	5	4	4	4	4	4	3	5	4	3	5	7	7	4	3	0	0	0	1	3	4	4	4	7	2	0	3	4	1	10	7	7	14	9	25	72	69	7	73	66	21	4	5	7	6	1	8	7	5	5	3	0	4	2	4	4	5	6	5	7	4	0	1	4	4	4	10	8	6	5	5	7	10	8	9	6	17	52	102	96	57	43	40	12	23	38	23	32	101	182	267	326	327	272	183	87	14	39	45	37	27	18	9	8	11	10	6	6	9	8	4	1	4	4	0	0	4	6	4	4	6	5	2	3	0	0	0	0	0	2	5	5	4	4	5	8	10	11	7	5	7	8	8	8	8	8	11	10	8	3	0	2	6	8	10	9	7	7	8	7	8	7	4	2	3	5	6	5	4	3	0	0	0	0	3	4	4	4	4	5	4	4	3	3	2	6	7	4	3	3	2	2	4	3	3	4	2	4	4	4	6	5	4	4	1	2	2	2	6	3	3	4	3	1	0	1	3	5	7	8	8	7	5	5	7	7	4	6	4	4	4	4	3	4	1	6	4	4	5	4	3	0	1	3	3	0	3	4	3	4	4	0	1	2	0	5	7	8	7	7	7	7	4	3	3	4	4	5	3	2	4	7	8	7	5	4	5	1	3	3	3	1	0	0	0	1	5	7	3	3	1	3	4	1	0	3	4	5	7	4	4	4	4	6	4	1	0	0	3	4	2	2	5	6	5	4	1	5	5	8	4	7	8	4	4	3	3	3	4	4	4	4	4	4	4	4	4	4	5	7	7	4	6	4	4	3	0	1	3	4	4	3	1	0	0	0	0	0	0	0	0	0	2	4	1	4	4	2	5	7	8	8	7	3	3	7	7	5	4	3	0	0	0	0	1	3	3	3	2	7	10	5	5	5	2	4	8	1	7	4	1	1	5	5	3	1	4	5	2	2	4	4	3	5	4	5	4	1	3	3	2	4	5	7	3	8	9	8	8	7	5	1	3	4	4	4	3	1	1	4	3	0	0	4	3	2	2	4	4	4	1	3	7	4	7	11	7	3	4	6	4	3	4	4	4	4	4	1	4	4	4	4	4	4	4	4	4	4	3	1	0	0	4	6	3	2	0	3	4	2	4	1	0	1	4	3	1	4	7	8	7	5	3	3	8	4	4	4	1	4	3	3	3	4	1	0	1	
8	10	6	7	7	5	8	7	6	3	5	9	8	8	7	8	10	8	5	3	5	4	1	0	2	4	2	7	10	8	4	5	3	5	6	5	2	5	7	3	3	7	4	3	3	2	4	9	5	5	7	8	7	6	7	2	56	87	9	94	64	20	34	46	73	54	11	22	76	100	61	9	11	10	8	5	4	3	1	4	3	1	3	3	3	4	1	3	3	1	0	0	0	2	0	3	3	5	5	4	5	6	5	5	6	4	3	2	4	1	3	4	3	1	2	5	5	1	3	4	4	5	4	4	5	3	7	7	4	10	4	0	4	3	0	0	0	3	4	4	4	3	5	3	2	1	3	2	8	8	1	12	10	32	82	59	34	84	49	8	2	1	1	2	1	8	7	6	6	2	2	4	1	4	4	4	2	6	7	5	1	1	2	1	2	6	7	7	4	3	4	8	1	4	1	9	12	54	89	65	32	34	42	30	5	23	11	2	10	42	128	225	298	328	301	216	104	17	30	47	38	18	5	4	4	4	3	3	5	2	0	4	4	0	1	4	8	4	2	5	5	3	1	0	1	3	4	4	4	5	6	5	3	3	5	7	10	7	4	5	7	5	7	7	7	7	8	10	5	1	2	0	1	6	1	3	4	4	4	7	8	7	5	2	4	4	4	4	4	4	4	4	3	2	4	4	4	3	2	3	4	3	1	3	4	4	4	4	3	3	1	3	3	4	3	0	4	4	3	4	3	2	4	3	1	3	3	4	4	7	7	4	1	0	3	4	4	4	4	5	7	8	7	5	3	2	5	4	3	1	4	4	4	0	5	3	5	5	3	1	0	0	0	0	2	2	1	3	4	3	0	3	3	4	3	0	4	2	4	4	3	3	4	4	4	1	4	4	3	4	4	6	5	3	2	5	6	5	3	1	0	0	0	0	3	7	5	3	7	5	4	3	2	0	3	4	0	4	4	2	2	3	2	4	4	1	0	2	2	2	1	3	4	3	1	2	2	3	10	6	5	10	7	4	3	1	2	1	0	1	3	4	4	4	4	4	4	4	4	5	5	1	3	3	1	0	0	0	1	2	3	2	0	1	3	3	1	0	0	0	0	1	4	4	0	4	2	3	5	7	7	5	5	4	2	4	4	2	2	4	3	1	1	4	4	4	5	3	2	6	5	4	7	3	5	8	4	4	4	3	0	3	4	3	2	4	6	1	3	5	5	4	5	5	5	4	4	4	3	3	4	4	7	1	4	7	7	5	3	1	0	1	4	6	5	4	3	1	4	4	0	0	4	1	2	6	4	2	4	4	5	7	2	8	12	5	4	3	2	4	3	4	3	2	4	3	2	4	1	3	4	4	4	4	4	3	1	0	0	0	0	3	5	7	5	4	3	1	1	4	4	1	1	4	5	2	4	4	5	5	4	4	0	7	5	4	3	3	4	3	4	4	4	1	3	4	
4	6	4	5	5	4	9	11	8	7	10	10	11	10	7	7	5	5	8	5	3	4	2	2	4	5	5	3	4	4	4	5	5	3	1	1	4	8	4	2	3	3	5	4	4	5	5	4	5	2	3	4	7	8	9	9	37	88	60	85	56	13	33	38	50	51	35	86	103	66	15	10	11	7	5	2	4	3	0	4	3	4	4	4	3	4	2	1	1	2	1	0	0	1	2	1	0	4	4	1	3	4	4	4	2	3	4	1	4	0	1	3	4	3	2	1	6	3	4	4	1	4	4	4	4	3	8	7	4	10	4	4	4	1	0	0	0	3	4	1	1	2	5	3	3	4	5	6	5	7	3	9	8	43	88	49	52	87	40	3	3	4	4	2	4	10	5	5	7	7	4	4	3	2	5	7	0	5	7	8	5	4	4	4	4	5	7	8	7	2	3	7	3	3	3	8	10	5	49	76	59	31	25	35	8	39	47	54	39	22	5	34	98	183	273	329	316	248	155	62	10	35	29	21	17	14	6	6	4	3	6	4	3	0	2	4	10	4	1	5	4	1	0	1	4	4	4	4	4	5	7	7	5	4	3	6	8	10	7	3	4	3	4	9	10	6	8	11	9	5	3	2	4	5	1	4	3	3	4	4	3	4	5	4	4	2	4	5	7	8	7	5	4	2	2	4	4	4	2	2	4	4	4	5	4	1	4	4	0	0	1	3	4	3	1	0	3	4	4	4	3	3	4	4	4	4	4	5	7	8	7	7	4	2	4	3	1	3	4	4	4	3	3	1	2	2	4	3	0	0	3	4	4	2	4	2	5	5	3	1	0	0	1	2	2	3	4	4	3	1	0	3	3	2	4	4	4	2	2	3	4	2	2	4	3	0	1	3	4	7	5	3	2	3	4	2	2	4	4	3	0	0	0	0	4	8	3	7	7	5	5	3	1	1	2	2	2	0	3	4	4	3	1	1	4	4	4	4	4	3	1	1	3	4	4	5	7	7	8	5	4	8	7	7	4	2	2	1	0	0	3	4	4	3	0	3	4	3	1	2	4	2	0	0	0	0	0	1	2	4	4	1	1	4	4	4	4	3	1	1	3	4	4	5	4	4	3	0	3	4	0	1	4	8	8	7	5	4	5	6	5	4	1	3	2	0	4	2	3	7	3	5	7	2	4	8	7	5	4	2	3	3	2	4	7	7	5	2	3	5	4	2	7	7	2	4	7	8	7	4	3	3	5	4	1	3	4	4	1	0	0	0	3	4	5	7	7	5	5	4	0	0	4	1	2	7	4	0	2	6	7	5	1	8	12	3	2	1	0	1	2	4	1	2	3	1	1	4	4	2	3	4	4	4	4	4	4	4	4	3	1	1	3	5	5	2	1	3	3	3	4	2	3	3	7	3	3	0	3	4	1	4	3	5	5	3	0	4	3	4	4	4	4	2	2	1	
1	4	3	4	5	4	4	4	4	5	8	3	10	7	6	5	3	1	5	6	4	7	1	7	7	5	2	2	7	5	4	5	5	4	4	5	7	5	2	5	7	5	0	3	4	7	2	2	4	2	4	3	1	2	3	10	7	50	61	63	39	17	45	52	52	14	62	97	62	13	7	5	4	4	3	1	3	2	1	3	3	5	3	2	3	5	3	3	3	2	3	0	0	0	0	0	0	4	4	0	0	1	2	1	0	0	4	1	4	1	0	0	4	4	1	2	5	3	4	3	1	4	6	4	1	4	8	5	4	6	3	3	1	1	3	4	3	2	4	4	4	3	6	3	4	4	4	4	3	4	4	10	2	53	86	42	48	91	56	11	4	4	1	5	9	8	1	3	3	6	5	4	4	4	5	7	2	4	5	7	7	7	5	4	4	4	4	5	7	4	4	7	4	1	3	5	10	13	6	42	72	66	48	52	27	57	65	50	80	75	54	37	22	25	66	150	249	316	330	279	175	69	10	32	45	47	39	21	10	10	10	8	5	3	2	3	8	5	4	7	3	3	0	3	5	4	3	1	3	4	4	4	4	2	2	5	8	11	11	7	4	4	5	6	4	4	5	9	11	11	11	9	8	8	8	9	10	9	7	4	4	5	2	2	4	4	5	6	5	4	4	4	5	7	5	4	3	1	4	4	1	3	4	4	1	2	4	4	0	0	0	0	0	1	3	4	4	4	4	5	4	4	5	4	4	4	4	3	1	1	4	4	4	4	4	1	3	4	3	0	3	5	5	2	0	2	3	4	1	0	1	3	4	5	7	5	7	4	3	2	1	3	4	4	4	2	3	4	4	3	1	1	4	4	2	4	3	0	2	2	0	1	3	2	2	4	3	1	1	5	5	4	4	4	3	3	1	3	4	3	0	0	1	3	5	9	3	7	6	3	4	1	2	4	4	2	1	3	0	1	3	4	4	4	5	7	8	7	6	6	5	4	5	7	8	7	5	3	5	3	4	4	4	6	5	5	0	2	0	1	4	3	0	1	5	7	8	7	5	5	7	4	1	0	0	0	0	3	2	6	4	2	4	4	1	1	3	4	4	4	4	4	4	5	6	4	1	0	4	4	3	2	3	6	7	4	2	2	3	0	3	4	2	4	6	5	2	2	6	5	3	8	5	1	1	5	5	4	2	2	4	3	2	4	7	7	4	1	2	4	2	0	7	8	2	4	5	7	9	9	5	0	4	5	3	1	1	4	4	3	1	0	4	5	4	4	5	7	7	4	0	1	4	2	2	5	5	3	4	4	3	1	1	8	11	2	0	2	0	0	0	3	2	3	1	3	3	2	4	5	7	8	8	8	8	8	8	8	8	8	7	5	4	3	3	1	4	4	4	6	4	2	4	2	5	3	0	3	2	2	4	5	5	3	5	3	4	5	3	4	4	3	4	1	3	4	
0	3	4	7	7	4	2	3	3	2	7	4	9	3	2	5	4	4	5	6	7	9	7	8	7	6	4	5	5	4	4	4	3	0	0	2	3	3	4	6	4	7	4	4	4	8	2	2	4	2	5	5	3	1	1	6	5	14	25	27	16	3	40	81	63	19	83	62	9	12	7	2	4	3	0	2	5	5	3	1	3	5	4	4	5	5	4	4	4	2	4	1	0	0	0	0	0	3	4	1	0	1	2	1	0	0	4	3	4	4	1	1	3	2	4	3	5	2	4	2	3	4	4	4	1	3	7	5	4	3	0	0	0	3	4	3	3	2	1	3	3	3	6	1	2	1	0	0	0	2	7	12	14	63	78	39	29	84	71	20	2	4	4	5	7	2	7	4	6	2	7	4	1	4	7	5	1	2	4	3	3	3	2	3	4	4	3	4	3	5	5	6	4	4	4	5	7	10	12	6	26	58	73	82	53	35	96	69	29	42	47	57	60	52	37	29	11	93	205	296	321	276	199	119	49	9	45	57	40	21	11	8	5	4	4	0	5	8	8	8	2	3	0	5	8	7	7	5	4	3	1	4	5	4	5	6	6	8	13	14	10	7	4	1	4	3	4	8	10	11	11	8	5	5	5	7	7	5	4	4	7	7	1	5	4	4	4	4	4	3	2	3	4	5	7	7	5	3	4	4	0	0	0	1	2	1	3	4	1	0	0	0	1	4	4	4	4	3	2	4	2	1	4	3	0	0	0	3	2	2	4	1	2	4	2	0	4	3	4	4	5	7	5	5	3	1	1	4	6	5	4	4	5	6	7	6	5	1	4	1	4	5	6	5	5	4	4	4	3	3	1	3	5	7	6	7	4	1	1	3	4	3	1	3	5	6	5	4	2	4	4	2	1	2	3	3	2	5	6	5	4	4	4	4	5	10	5	4	5	3	3	3	2	7	4	3	2	4	3	4	3	2	4	6	5	5	7	8	8	8	7	4	3	3	3	4	4	1	4	1	4	1	2	0	6	5	2	1	0	3	4	1	1	5	8	5	4	5	5	7	5	4	3	0	0	0	0	3	2	4	4	4	4	1	1	3	4	4	4	3	1	0	1	3	4	3	0	0	4	4	3	3	8	6	5	3	0	2	1	2	1	3	4	3	1	4	3	1	7	7	6	8	1	0	0	4	4	1	4	4	0	4	4	3	2	1	3	4	0	4	3	1	5	6	5	7	5	4	5	7	8	5	2	3	4	2	2	4	6	5	3	1	4	6	4	0	4	7	8	4	1	4	4	1	1	5	8	6	4	1	0	0	3	8	9	3	2	0	3	3	1	1	3	4	4	4	4	4	5	6	7	7	8	8	8	8	7	5	5	8	11	11	8	5	3	1	4	1	5	8	5	4	4	2	4	4	4	2	3	1	3	5	7	4	7	4	4	5	4	5	5	3	3	0	1	3	
0	2	7	10	7	2	3	4	4	2	5	5	7	4	3	2	3	4	4	4	5	7	5	4	7	4	5	7	5	7	7	4	1	0	0	2	1	3	3	4	4	4	4	5	4	8	6	4	5	3	7	4	4	4	5	8	5	2	2	6	7	9	10	67	87	17	86	55	7	5	1	4	4	1	0	3	2	7	4	0	2	4	1	3	4	2	4	4	3	2	4	4	4	4	4	3	1	1	4	3	0	2	0	2	0	0	4	4	1	4	3	2	1	3	4	4	7	3	4	3	4	4	1	4	3	1	5	5	3	1	0	0	0	4	4	3	4	1	0	0	0	4	7	4	4	4	2	3	4	3	4	7	19	67	74	39	18	82	82	24	4	1	2	3	5	6	4	4	6	1	7	4	0	3	4	1	1	4	4	1	0	3	3	4	4	5	2	1	4	6	8	7	4	4	4	4	4	5	6	12	13	15	49	89	100	40	80	90	30	12	3	9	29	72	88	47	58	69	23	75	187	270	312	309	269	201	109	17	36	47	39	29	17	7	3	3	3	5	10	6	5	4	2	7	9	3	3	4	1	3	4	5	7	5	5	6	5	4	7	12	13	10	5	4	5	5	6	7	7	5	5	8	1	4	2	2	4	4	1	1	5	9	7	5	4	3	4	4	4	4	4	4	4	4	4	4	7	5	4	3	1	3	3	1	0	0	1	4	4	1	0	0	3	4	1	0	4	4	2	4	2	1	4	3	0	0	0	3	3	4	5	4	4	4	4	4	4	0	4	1	2	4	1	4	3	1	3	6	9	8	5	4	5	4	5	4	3	2	4	4	4	4	4	4	4	2	1	0	3	4	2	4	4	5	6	5	4	4	1	1	2	1	0	4	6	0	4	4	1	4	4	4	4	3	3	3	5	5	5	7	7	6	6	4	4	8	8	6	1	1	1	4	3	8	5	4	4	5	4	4	4	4	4	4	4	2	4	3	1	1	4	3	1	4	3	1	4	4	3	1	4	1	1	2	5	4	1	2	1	4	4	0	2	7	6	0	3	2	2	4	0	4	4	3	4	4	3	0	2	1	1	2	2	3	4	4	4	4	3	1	2	1	0	0	4	4	0	1	5	5	5	7	9	5	7	5	4	4	4	4	4	4	5	5	6	5	2	2	5	7	5	8	1	0	1	4	5	4	4	0	4	4	2	2	1	2	1	4	4	4	5	4	4	1	5	5	3	1	0	1	5	7	5	1	7	2	2	4	4	7	5	3	4	5	4	3	4	5	7	4	4	4	1	0	3	8	10	4	3	0	0	0	4	8	8	4	1	5	7	7	5	3	2	4	3	1	2	5	5	3	4	5	7	8	8	7	5	2	5	7	8	8	8	5	1	1	4	4	7	8	4	0	3	3	0	4	7	4	4	1	1	4	4	4	5	1	3	4	1	5	3	1	2	3	4	4	
3	4	5	3	2	1	4	2	4	3	2	5	5	3	0	1	2	1	0	1	4	5	5	4	7	3	4	5	4	6	5	4	4	4	3	3	0	2	1	1	2	2	2	4	3	8	8	6	0	5	7	4	7	5	4	4	3	4	4	5	5	9	11	38	79	22	72	58	4	2	1	6	5	3	4	4	1	7	4	1	2	4	2	0	1	2	1	2	0	0	1	3	4	4	4	4	4	1	3	4	3	2	2	0	3	3	4	4	4	4	3	1	2	1	0	4	7	4	4	4	3	2	3	2	4	1	4	4	0	1	2	1	1	4	3	3	4	4	3	2	2	5	7	4	0	4	5	7	6	6	14	20	17	60	76	43	17	87	87	23	5	4	4	3	1	2	2	6	2	2	5	4	1	3	2	4	4	4	1	1	2	4	3	1	0	4	7	8	7	6	9	10	7	5	5	6	6	7	4	5	10	10	10	48	94	87	48	72	40	14	8	14	15	23	93	101	39	32	69	65	27	46	134	223	291	328	317	244	144	60	7	23	37	33	24	18	11	8	11	5	4	4	7	7	4	7	7	4	1	5	3	1	3	2	2	1	2	1	1	5	9	11	8	7	7	5	2	3	4	4	4	8	5	3	5	3	5	7	5	4	5	8	10	8	5	5	6	5	3	2	6	7	5	4	5	8	12	12	8	5	4	4	4	3	1	3	3	2	4	4	4	4	5	5	3	1	3	4	5	5	2	3	4	1	0	0	1	1	4	5	7	5	3	2	3	4	3	2	4	4	5	7	5	5	5	4	4	5	4	7	3	0	3	3	2	4	1	0	2	4	2	4	3	4	3	0	1	3	4	2	4	3	0	1	2	1	1	4	4	5	6	5	3	4	5	6	7	7	5	5	4	4	4	3	1	2	4	4	4	4	4	4	3	3	3	5	5	5	7	8	7	7	6	8	5	4	5	7	4	1	1	3	4	4	5	0	4	4	4	4	4	3	1	4	3	1	2	3	2	3	4	3	0	1	4	3	2	0	2	4	4	0	1	7	7	4	4	3	2	3	4	5	5	4	4	4	4	3	0	0	0	1	4	4	3	0	3	4	4	4	3	3	1	2	4	4	5	7	8	7	7	7	5	2	5	5	4	5	7	8	7	5	5	4	4	3	2	4	5	5	4	7	4	2	5	7	9	8	7	8	7	5	4	4	4	4	3	5	7	3	5	3	1	3	4	1	0	0	0	0	1	4	7	0	7	2	2	4	1	8	5	4	4	4	3	4	4	3	5	7	7	5	4	3	3	10	7	2	2	3	3	1	3	7	8	5	5	8	5	5	7	5	0	4	4	3	4	3	4	1	4	6	2	0	0	2	6	2	6	4	2	3	5	7	3	1	4	6	7	7	0	4	4	4	4	0	5	4	1	1	4	4	0	4	3	0	3	4	2	6	1	2	3	4	3	1	
4	3	2	3	2	2	4	2	4	1	3	4	3	1	1	4	4	4	1	0	1	4	4	2	5	2	3	4	1	0	3	3	4	4	4	5	3	2	4	4	3	1	2	2	3	7	8	8	6	1	5	4	4	4	5	6	5	4	4	5	7	8	9	24	64	30	55	58	14	6	6	5	6	4	4	3	3	5	4	4	4	4	1	0	0	1	2	2	3	3	1	0	0	0	0	1	4	3	1	2	3	2	0	3	4	4	4	3	4	3	1	0	0	1	3	4	4	3	3	3	1	3	4	2	4	3	4	4	0	3	3	4	4	2	2	1	5	7	5	1	0	5	5	5	4	2	3	3	5	14	13	10	7	53	77	44	18	89	88	22	6	6	6	2	0	1	4	4	3	4	2	2	4	3	1	0	1	3	4	4	4	5	5	4	4	4	4	4	3	2	5	8	11	12	12	11	8	7	6	5	4	7	10	3	41	74	59	43	30	10	7	7	15	10	49	106	101	46	11	40	55	62	47	4	62	151	253	325	337	294	226	151	78	17	31	43	37	23	10	4	5	5	7	2	2	3	2	4	6	5	1	2	1	3	2	1	1	0	0	1	5	9	8	5	5	5	4	2	1	3	4	8	8	4	5	3	3	5	7	7	5	6	9	9	7	5	3	7	4	3	4	4	3	2	6	8	9	11	9	7	4	1	3	4	4	4	4	3	1	3	5	8	10	8	5	3	2	6	7	4	3	3	4	1	1	2	4	2	6	2	3	2	0	0	0	0	0	2	6	7	5	5	7	7	5	3	1	3	2	7	4	0	1	4	2	4	4	2	4	4	4	4	0	4	1	0	3	4	3	1	4	2	0	0	0	0	0	2	6	7	6	7	5	5	7	8	7	5	5	7	5	7	7	5	4	4	4	3	4	4	1	1	2	4	1	4	4	2	7	9	7	7	4	5	4	1	4	5	4	3	0	0	2	0	5	3	2	3	2	4	5	2	2	3	3	4	4	3	2	4	4	3	1	4	4	1	1	2	1	3	4	1	0	5	5	3	1	1	3	5	6	4	2	3	3	1	4	4	0	0	1	4	4	1	0	3	4	3	3	3	2	3	3	3	5	8	11	11	8	5	4	3	1	1	4	5	4	5	4	4	4	5	5	3	0	0	3	4	5	5	4	4	4	6	7	5	10	12	11	8	5	5	5	2	1	4	3	8	8	1	5	3	4	4	4	2	1	0	0	0	0	4	7	2	4	2	2	4	4	6	2	5	5	4	1	3	4	5	7	8	8	8	8	7	4	8	5	3	2	4	4	3	2	7	11	8	7	5	1	1	4	7	4	2	1	3	6	2	4	4	4	7	5	7	8	7	5	2	5	7	7	4	2	7	5	4	4	5	8	7	4	4	0	1	4	3	4	4	0	2	4	1	4	4	1	0	1	4	2	4	6	4	3	4	0	0	
2	0	1	3	4	4	1	4	4	1	4	5	1	0	3	4	2	4	4	1	0	3	4	0	4	3	2	4	2	5	4	1	0	0	1	4	4	4	4	2	3	3	1	3	3	7	7	7	8	5	2	4	0	4	6	5	3	0	1	3	4	4	5	17	48	34	37	53	17	5	4	2	4	5	1	0	4	4	1	3	3	1	0	0	0	0	0	3	4	4	3	0	0	0	0	0	3	4	4	5	7	4	1	3	4	4	3	0	1	2	1	0	1	4	4	3	0	2	1	1	2	0	4	2	4	3	3	4	1	4	3	3	3	3	7	8	7	2	7	3	2	2	4	5	6	5	6	9	6	10	16	16	11	58	72	36	15	81	89	27	13	12	8	2	2	4	4	1	2	2	1	3	3	2	3	4	4	4	4	3	2	4	5	6	5	4	3	1	0	0	2	6	9	11	11	8	7	4	4	6	7	8	12	15	6	24	37	29	18	8	5	5	7	14	6	61	104	87	46	21	1	18	38	54	58	38	18	112	215	287	322	325	291	225	141	54	12	36	32	15	6	8	11	4	2	5	10	9	6	4	5	7	8	8	7	5	4	4	4	3	2	5	8	7	7	8	9	5	4	4	5	8	11	7	5	5	3	2	3	4	2	2	2	4	5	5	4	7	5	5	5	5	5	4	4	1	1	5	5	4	4	2	4	6	4	1	4	3	3	3	2	7	7	4	6	4	4	4	2	4	4	1	5	5	4	4	7	2	4	4	2	2	4	4	4	4	4	4	4	4	3	1	3	3	1	0	0	1	2	5	4	0	0	4	4	1	4	4	5	4	4	3	2	4	3	1	3	4	1	1	4	4	3	1	0	0	1	4	4	3	2	4	4	3	4	4	2	2	4	3	6	8	7	6	7	8	6	2	4	4	0	3	4	1	0	3	4	4	6	3	5	5	3	3	4	1	4	3	4	3	0	0	1	2	2	4	3	0	0	2	0	2	1	3	4	3	1	0	1	3	3	1	3	4	0	3	4	4	4	3	3	2	0	4	4	0	0	0	1	4	4	2	2	4	4	4	3	3	3	4	3	3	2	0	0	3	4	3	2	3	3	1	4	3	4	7	7	5	4	3	1	0	0	0	1	4	4	4	0	2	0	4	7	4	0	0	1	4	7	8	4	2	4	7	8	3	4	7	8	4	0	3	2	3	3	4	3	10	7	2	6	4	5	6	5	4	4	1	0	0	0	3	5	7	7	4	1	1	1	3	5	4	4	0	2	0	3	5	7	8	8	7	5	5	4	5	4	1	4	3	4	4	3	3	8	7	4	1	0	0	1	7	7	5	7	7	7	3	5	6	1	5	4	4	4	4	3	0	2	0	3	4	4	8	8	4	2	4	7	3	6	4	1	0	4	3	4	3	0	1	4	5	5	3	3	4	3	1	3	3	4	4	3	3	0	0	
8	5	5	6	4	1	0	4	3	4	4	8	4	3	4	4	1	1	4	4	4	4	5	4	4	3	3	5	4	1	3	4	4	3	1	1	3	3	1	1	3	5	6	5	2	9	7	4	4	6	2	4	4	4	2	7	4	0	0	0	0	0	3	12	33	35	28	46	17	1	0	3	4	8	5	1	3	4	4	3	1	0	1	3	4	4	3	5	4	4	4	0	0	0	0	0	1	4	7	8	7	5	4	3	4	3	0	2	3	0	2	0	3	4	1	1	5	7	7	4	2	4	4	2	4	1	1	4	3	3	4	1	1	7	7	8	10	3	7	4	0	1	2	1	2	3	4	6	6	6	11	11	22	69	68	27	10	68	91	38	16	7	13	4	6	4	1	0	1	3	3	1	0	0	1	3	3	1	0	0	0	1	3	5	6	5	4	3	1	3	4	4	4	4	4	7	8	7	5	4	5	5	5	8	12	8	6	9	7	3	4	7	7	12	16	17	66	90	94	80	49	20	14	5	24	46	64	64	28	38	115	191	260	311	321	277	190	91	17	20	31	23	8	4	3	7	7	1	2	3	4	3	1	1	4	7	8	8	7	5	4	5	8	8	8	8	11	8	7	5	5	8	12	11	5	5	4	4	3	5	1	1	3	0	4	4	5	7	5	5	7	7	8	4	2	3	3	5	4	1	4	4	4	4	4	1	3	3	4	4	3	6	4	4	3	5	4	1	2	6	2	5	4	7	4	2	5	7	2	3	4	5	6	5	4	4	4	2	2	4	3	1	2	1	1	3	4	3	1	3	4	1	0	4	5	3	4	3	3	0	2	1	4	6	5	4	2	4	3	0	1	2	3	2	0	1	4	4	1	0	0	4	4	0	1	3	4	4	2	2	5	6	5	4	5	6	5	2	4	3	0	3	4	4	3	2	3	3	5	3	4	7	4	1	4	3	3	3	4	1	0	0	0	0	0	4	4	0	1	3	3	2	3	4	3	2	3	4	3	1	0	1	4	2	4	4	4	4	4	4	3	1	0	4	4	0	1	3	4	4	1	3	4	1	2	4	1	4	7	7	4	1	2	1	3	5	6	5	4	4	4	4	4	3	3	4	1	0	0	0	1	3	4	3	1	1	2	1	2	0	2	4	7	4	1	0	0	3	4	8	5	3	3	6	8	3	2	0	7	7	2	4	2	4	4	3	3	8	8	4	5	5	4	4	3	1	4	2	0	0	0	2	6	8	7	7	4	4	4	4	4	3	3	2	0	2	0	2	2	1	3	4	3	4	3	4	4	2	3	2	3	4	2	2	4	4	3	0	0	0	0	4	9	11	9	7	5	3	7	5	2	3	0	2	0	0	1	5	7	7	5	5	5	4	6	2	2	4	6	0	5	4	2	3	4	0	4	1	0	1	4	6	4	2	5	6	5	4	4	1	0	1	2	1	1	3	
13	9	7	4	3	0	0	3	3	4	3	11	7	4	4	4	4	1	2	5	5	4	5	4	3	1	3	5	5	7	7	5	3	3	2	1	3	3	2	4	5	7	8	6	7	14	8	7	4	5	4	2	4	5	2	7	4	0	1	2	1	1	4	8	19	28	29	37	12	2	0	3	2	4	6	3	1	3	4	4	4	4	4	4	4	4	4	6	4	3	4	0	0	0	0	0	0	2	3	4	1	6	6	0	3	3	5	7	8	6	2	0	3	4	2	4	7	7	8	8	2	4	0	4	3	0	0	4	4	1	4	3	3	6	5	5	7	6	5	3	1	4	4	4	3	1	3	2	10	3	5	4	20	75	75	28	11	59	84	41	7	4	12	4	7	4	2	1	0	0	1	2	1	0	2	2	2	2	0	0	0	0	0	2	0	2	4	4	2	3	2	1	0	0	1	5	8	8	6	2	3	4	1	1	4	4	1	1	2	2	4	5	7	8	12	6	24	56	84	97	83	37	19	17	11	14	32	56	75	77	59	26	33	116	210	292	332	306	232	138	46	21	43	36	21	9	4	1	4	7	4	4	4	4	3	6	8	7	5	5	7	7	7	7	4	4	7	7	7	5	1	3	7	10	4	5	5	6	5	6	2	2	4	2	4	2	4	7	5	4	6	4	8	5	2	4	4	7	5	1	1	2	1	1	4	4	5	6	5	5	6	3	2	3	2	2	3	0	1	5	5	4	3	4	3	1	3	7	6	5	5	5	3	2	3	3	2	4	5	5	2	2	0	2	3	4	3	3	2	1	4	4	1	4	7	4	4	4	2	1	1	3	2	3	3	4	4	4	4	4	4	5	7	4	1	2	3	3	4	4	4	4	3	1	4	4	3	1	3	5	5	3	4	2	3	1	5	4	4	1	0	1	3	4	4	3	0	0	4	4	4	8	4	0	4	4	1	2	1	0	0	0	0	0	0	4	3	3	3	1	2	3	4	4	4	4	5	6	5	3	0	2	3	3	5	3	1	0	0	0	0	0	0	3	4	4	4	4	3	1	0	1	4	4	4	5	5	7	8	7	7	4	4	4	4	4	4	5	4	5	6	5	3	1	4	4	0	0	1	3	4	4	3	4	4	3	1	0	1	3	4	5	7	5	4	3	1	4	3	5	5	2	1	7	8	1	3	4	3	8	5	4	3	6	7	4	3	6	7	2	5	7	4	0	3	4	4	1	0	0	0	3	2	0	2	4	3	4	3	0	1	1	1	1	2	0	3	5	6	5	4	3	4	3	3	5	5	2	1	3	1	4	3	1	2	4	3	3	4	4	4	5	7	7	5	4	3	3	8	4	0	3	3	4	3	1	3	7	5	5	7	3	3	7	5	1	1	4	6	2	4	4	0	4	3	3	4	0	0	3	4	3	3	1	6	1	3	2	1	0	0	1	3	3	3	2	
8	5	6	5	5	4	4	5	6	4	5	12	7	5	5	3	3	2	3	3	4	2	4	3	0	1	4	8	10	9	6	2	3	4	1	3	4	4	4	4	3	3	2	4	10	14	7	3	4	4	7	7	4	2	2	4	4	5	7	8	8	7	4	4	10	14	18	18	7	4	1	1	3	4	5	3	0	0	0	1	3	4	3	1	0	0	4	5	4	3	3	0	1	2	2	3	4	4	5	5	3	4	5	4	5	5	7	6	7	7	3	0	1	4	4	4	5	6	4	10	1	4	4	5	3	1	0	4	4	1	4	4	4	8	10	6	2	6	3	1	3	3	2	1	0	1	1	1	8	3	8	10	14	75	93	40	9	53	75	50	20	10	4	5	7	5	4	4	1	0	2	0	2	0	1	3	3	1	0	0	0	0	0	1	2	1	3	4	3	3	2	0	0	0	0	1	4	4	4	3	1	4	4	4	4	4	1	1	3	4	3	1	4	7	8	4	3	9	18	60	81	44	4	23	45	39	17	7	21	38	48	50	51	45	13	62	167	265	321	327	275	180	80	11	23	32	28	20	13	7	2	5	4	5	7	4	3	3	2	6	7	5	4	4	6	4	2	3	5	7	2	4	4	7	6	5	4	4	7	7	4	4	5	3	4	2	2	5	7	6	3	2	3	7	7	5	4	7	8	7	4	1	0	0	1	3	4	4	4	4	5	6	5	4	4	2	4	1	0	1	4	2	2	4	3	2	0	3	3	4	5	2	3	0	4	4	5	5	4	0	2	1	2	1	3	4	5	7	5	4	5	7	5	3	8	4	1	3	4	3	0	4	1	4	1	1	4	5	6	5	5	7	5	4	3	1	3	4	4	4	4	3	1	3	4	1	0	0	4	7	4	2	4	2	3	4	2	2	1	0	0	0	0	0	4	4	0	1	4	3	3	7	5	1	3	4	1	1	2	1	0	0	0	1	2	5	1	4	2	3	1	4	4	1	2	1	4	0	7	5	3	0	3	3	4	3	4	1	1	3	3	2	2	0	4	7	7	4	1	0	0	1	4	6	5	5	4	5	5	5	8	5	5	5	3	3	5	7	5	4	4	4	1	0	4	4	0	0	3	4	3	1	3	7	5	4	4	1	0	3	4	5	7	5	4	4	4	4	3	4	5	3	1	7	7	2	2	4	2	5	5	2	3	4	4	4	6	7	7	1	6	8	4	3	4	3	1	0	0	0	1	3	2	5	5	2	0	0	1	4	3	3	0	1	2	4	4	3	3	3	4	3	3	1	2	4	4	2	2	3	0	1	3	4	3	3	3	4	4	4	4	3	1	1	2	1	0	4	7	4	2	4	4	5	5	4	4	6	4	2	2	4	3	3	3	4	3	3	5	2	4	4	3	4	0	3	4	1	0	4	4	1	4	2	5	6	5	3	1	0	0	2	2	2	3	3	
7	4	7	8	8	8	8	8	7	5	7	11	5	11	12	11	7	3	5	5	7	4	3	4	2	4	4	4	4	4	4	4	4	4	3	2	4	2	1	1	1	4	4	5	8	11	8	3	7	7	11	10	5	2	3	0	4	7	7	7	10	10	5	0	5	4	5	8	10	7	3	1	3	4	4	1	0	1	3	3	1	1	2	1	0	0	3	4	2	3	4	3	3	0	1	2	1	2	3	4	3	1	4	4	5	5	4	1	4	8	4	0	0	1	2	1	4	4	7	8	2	3	3	3	1	4	3	4	4	4	4	4	4	6	5	7	5	1	5	4	5	7	7	5	4	4	3	3	5	2	6	14	14	61	106	57	3	39	69	73	50	19	3	7	5	5	3	4	4	4	5	6	4	1	0	0	0	0	1	3	3	1	1	3	3	1	2	5	5	2	2	3	1	1	3	3	4	4	5	5	4	3	0	3	2	2	5	7	8	7	4	1	2	7	11	8	7	12	21	55	83	54	24	72	97	113	82	32	4	15	26	20	10	28	51	65	43	18	104	204	289	330	306	229	130	43	21	35	34	28	22	20	19	15	8	1	4	2	4	6	5	6	4	5	9	5	0	0	3	7	5	3	3	6	7	5	4	5	8	10	8	8	8	7	5	4	4	2	3	4	2	3	2	3	6	5	4	4	4	7	7	3	0	0	0	0	1	3	3	1	2	1	4	7	6	3	4	4	4	3	2	2	2	2	0	2	1	1	3	4	4	2	4	3	4	1	5	7	5	6	5	4	4	4	6	10	11	9	7	6	6	7	7	3	7	4	0	0	3	4	1	4	1	4	4	4	5	7	7	5	4	4	1	4	4	0	1	2	1	0	0	0	0	3	4	4	4	4	4	7	4	1	4	5	1	4	2	2	3	1	0	0	0	0	4	4	1	4	5	4	5	8	9	5	0	4	3	3	2	3	0	0	0	3	3	7	2	4	4	3	1	4	3	3	5	6	7	3	7	6	3	4	3	2	4	4	3	3	3	4	4	5	1	4	4	4	3	3	2	0	0	2	2	2	1	5	4	4	3	1	5	4	5	3	2	4	4	5	7	6	3	4	4	1	3	4	2	2	3	4	0	0	4	8	4	1	4	4	3	4	3	4	5	4	4	5	7	7	5	5	7	1	4	5	5	1	2	2	4	2	2	4	2	2	3	3	7	7	7	6	7	7	3	4	4	0	0	0	0	0	3	1	4	4	1	1	3	3	2	3	3	3	0	3	2	6	4	2	4	1	1	2	1	0	0	3	4	0	2	1	0	1	3	5	5	2	2	1	0	0	0	0	0	3	2	3	0	4	5	4	4	5	5	4	5	4	4	4	0	2	2	4	5	7	8	7	5	3	4	2	5	3	4	3	0	1	4	4	3	3	4	3	5	3	2	3	4	4	4	1	0	2	6	7	5	4	
5	7	8	8	8	8	8	8	7	8	8	10	10	17	16	14	11	5	7	5	7	7	1	4	4	2	1	2	4	6	6	7	7	6	5	2	2	4	3	0	0	2	5	3	5	11	7	3	8	7	4	5	10	5	4	3	2	4	2	3	4	5	8	4	4	4	6	8	9	10	5	5	7	7	5	3	1	3	4	4	3	3	2	3	0	0	1	4	4	5	6	5	5	4	5	7	8	7	4	3	4	0	2	5	5	4	1	1	5	7	3	0	0	0	0	0	3	4	8	5	1	0	0	2	5	5	4	5	4	3	1	3	4	4	4	6	5	6	7	4	4	4	5	7	5	3	2	4	5	6	4	13	17	43	105	70	7	19	44	75	66	23	3	7	7	2	3	5	6	5	4	4	4	2	3	3	1	1	4	4	4	4	4	3	2	2	3	3	4	3	2	2	2	3	4	4	5	5	7	8	8	8	7	5	5	8	10	9	8	8	7	5	2	3	9	9	3	2	11	54	88	41	63	110	86	115	131	89	30	7	28	26	5	12	12	29	57	72	66	34	48	149	253	318	319	258	169	87	25	21	33	34	37	41	38	29	20	15	11	5	6	5	7	8	12	7	4	3	3	7	10	8	6	7	7	5	4	4	5	8	10	9	8	7	4	2	4	3	0	3	4	4	4	3	0	0	3	4	1	4	7	4	4	4	3	1	2	2	2	1	4	6	4	4	3	4	2	3	5	6	5	3	6	8	8	8	7	5	4	3	1	3	4	4	2	3	4	3	6	8	7	5	4	4	5	7	7	5	4	3	1	5	5	6	5	3	0	0	1	4	3	4	3	3	4	4	4	4	5	7	4	1	0	3	4	1	3	2	3	1	3	4	4	5	6	5	4	4	3	5	4	0	3	5	4	1	6	4	4	3	0	0	0	0	3	4	2	5	5	5	6	7	8	7	2	5	4	4	2	3	0	0	0	4	3	8	6	3	3	1	3	5	3	5	7	3	7	3	5	5	4	4	2	5	1	6	1	4	4	4	3	5	9	8	4	0	4	4	2	3	3	2	3	2	3	6	4	3	1	0	3	3	4	2	2	3	0	1	3	4	4	2	4	4	0	4	5	0	1	4	4	3	3	7	4	1	4	7	4	3	0	5	5	2	2	4	4	4	4	7	9	7	5	5	5	4	4	2	2	3	2	5	4	2	4	1	6	5	4	7	7	5	1	3	4	1	0	0	0	1	4	1	7	1	3	2	4	4	2	3	5	2	0	3	2	4	4	3	3	0	0	0	0	1	2	2	4	3	0	1	3	4	4	5	7	4	3	1	0	0	0	0	0	3	2	3	0	3	4	2	3	5	4	2	4	3	3	4	4	0	4	0	3	3	2	2	4	2	4	2	6	3	4	1	0	0	1	3	4	3	4	4	8	2	4	1	0	1	4	3	0	3	4	4	4	4	
4	7	5	5	7	8	8	7	7	8	8	8	12	17	11	10	12	7	5	2	8	7	0	1	2	1	0	5	7	7	8	9	10	8	7	5	4	4	3	1	3	4	4	3	5	11	4	4	6	5	2	7	11	4	5	5	2	2	4	5	7	1	7	5	4	3	2	2	7	9	5	4	4	3	3	3	2	3	4	4	4	4	2	4	1	0	1	4	7	7	4	4	4	4	4	2	3	4	4	4	5	3	2	4	3	1	0	3	7	5	1	1	2	1	0	0	1	2	5	2	1	3	4	4	4	2	4	7	5	3	1	1	2	1	2	3	4	6	5	3	3	0	1	4	3	1	4	7	9	10	8	13	16	32	98	80	15	12	46	88	66	15	1	4	8	7	2	1	3	4	2	3	4	0	4	4	4	4	2	1	0	4	7	8	4	1	3	2	2	4	7	6	2	3	4	0	4	4	5	7	8	7	7	7	7	8	5	3	4	4	5	8	3	3	8	8	9	7	5	51	100	52	78	108	42	37	100	121	92	54	15	22	25	7	32	42	31	5	19	31	34	24	18	107	221	306	330	300	235	167	126	106	83	47	9	34	53	52	37	21	12	7	2	5	10	8	7	6	7	8	8	8	7	4	3	2	0	0	1	3	4	4	4	4	4	1	3	4	4	4	4	4	3	1	1	3	4	5	4	4	5	7	8	7	5	4	5	7	6	2	2	0	3	5	3	3	2	1	4	4	7	4	5	7	7	5	5	5	3	3	4	5	7	5	3	4	3	2	4	4	4	4	2	1	4	4	0	0	1	3	3	2	3	4	4	3	1	0	0	3	4	4	3	0	0	0	0	1	2	3	2	1	3	4	5	3	3	3	5	4	4	4	4	4	4	4	4	4	4	4	3	0	1	4	6	2	7	4	4	4	0	0	0	0	1	4	3	5	4	4	1	7	7	6	3	7	4	5	3	1	0	1	3	2	2	7	7	1	3	4	5	7	3	7	7	2	7	5	4	5	0	4	2	4	6	5	2	4	4	3	1	3	4	2	4	4	4	0	2	3	3	4	5	7	7	5	3	0	0	0	1	2	1	1	2	1	0	0	0	1	4	4	2	4	3	3	5	6	5	4	4	4	3	4	4	4	3	7	4	1	3	7	7	7	7	5	4	4	3	1	7	5	3	4	4	0	4	2	5	7	5	4	7	5	2	3	7	4	2	4	3	1	0	1	4	3	1	3	4	4	4	3	7	2	3	3	4	0	3	5	1	2	0	1	2	1	1	3	3	1	0	0	0	2	0	2	3	4	2	4	4	2	2	4	4	3	4	3	0	0	0	0	0	1	2	1	0	1	4	4	4	4	1	0	3	4	7	4	5	3	4	3	1	4	4	3	4	2	5	1	5	4	4	3	1	0	1	2	2	3	5	4	10	5	4	2	1	0	4	4	0	3	4	2	3	4	
3	5	4	5	6	5	4	4	7	8	5	4	9	10	1	6	8	4	3	2	8	6	2	2	3	4	3	4	7	4	0	4	7	8	7	4	3	3	1	3	4	5	8	4	4	10	7	4	3	4	0	7	8	7	10	8	7	4	6	8	9	7	4	4	1	1	3	3	5	8	4	1	4	4	4	4	1	1	3	3	4	4	2	4	4	3	1	3	3	2	4	5	3	2	3	4	4	3	1	7	7	5	0	4	1	0	0	4	8	3	3	4	4	4	4	4	3	2	4	7	8	8	8	7	5	4	4	5	5	3	2	2	7	8	7	5	5	7	6	4	4	4	4	5	5	4	4	4	4	4	5	13	17	25	94	88	19	29	71	86	44	4	4	3	3	7	8	5	2	4	6	4	2	3	3	1	3	3	2	3	4	4	3	7	3	0	1	3	3	2	3	4	3	1	4	4	3	1	1	3	4	4	5	4	3	5	1	1	2	5	9	11	6	5	1	9	11	11	13	21	87	76	60	88	41	29	38	77	107	110	84	39	38	55	74	96	100	85	62	67	72	54	11	26	13	77	174	261	314	320	306	295	283	260	215	150	78	20	15	37	45	40	29	20	19	16	8	3	5	4	4	5	8	7	4	3	4	4	4	4	3	5	4	1	4	4	5	6	5	4	4	4	4	4	4	4	4	5	7	9	10	8	5	4	5	4	4	4	4	5	7	8	6	1	3	3	0	4	4	2	5	6	5	4	4	4	4	5	4	4	5	6	5	5	6	3	4	5	5	4	5	7	1	3	4	3	0	0	0	3	4	1	1	3	4	3	3	1	3	2	3	6	5	3	1	0	0	2	3	2	1	3	4	4	7	7	6	6	5	3	1	0	0	1	2	0	3	4	4	3	2	3	3	5	4	5	5	3	4	4	0	0	0	0	0	2	4	1	4	5	7	11	7	0	5	5	1	4	2	0	1	4	4	2	2	4	4	4	4	4	5	5	2	7	7	6	7	7	4	7	4	0	3	2	5	5	3	3	3	1	0	1	3	4	4	2	1	7	8	8	7	7	8	10	9	6	2	0	0	0	1	2	1	0	0	1	2	1	0	0	1	4	4	4	4	2	2	4	4	3	0	1	2	1	1	4	3	4	4	4	4	7	7	4	7	8	8	8	7	5	2	2	4	4	3	2	3	3	7	5	3	2	5	7	2	3	4	3	4	3	0	0	0	0	3	4	1	3	4	6	4	5	5	2	1	1	4	4	4	4	2	0	3	4	3	1	0	2	0	2	0	1	3	4	3	1	1	4	6	4	1	3	4	3	1	0	3	4	1	0	0	0	0	0	1	3	4	3	0	3	3	1	0	0	1	4	7	4	7	4	3	4	4	4	2	2	4	2	7	2	3	3	5	6	5	1	3	2	3	3	4	3	8	7	7	5	4	4	4	3	0	1	4	4	4	3	
4	7	4	4	4	4	3	4	7	7	4	4	6	4	5	8	5	1	0	4	8	6	0	5	4	4	4	0	5	7	5	3	4	8	8	4	0	0	0	4	4	1	5	7	9	12	11	6	4	4	2	5	9	13	11	5	6	8	3	3	7	6	3	3	0	0	1	3	5	8	5	4	3	1	1	3	4	4	3	1	3	4	1	1	3	4	2	4	3	3	7	5	4	4	4	3	1	3	7	9	7	8	4	3	2	0	0	4	7	4	7	7	6	6	5	4	4	4	6	10	11	8	4	2	3	3	0	4	6	3	3	10	11	8	7	5	5	7	6	7	4	4	4	5	5	1	2	1	2	1	2	13	18	27	94	88	15	53	84	65	23	2	0	1	1	1	6	6	4	4	6	4	2	4	1	0	0	0	3	2	3	6	0	7	4	1	0	0	1	4	4	4	3	0	1	3	4	4	4	1	0	1	4	4	1	4	4	4	4	7	9	7	1	5	5	4	4	8	13	6	47	60	40	59	25	18	14	14	42	70	96	99	93	87	75	72	82	97	85	76	75	80	79	43	31	55	37	25	104	167	202	218	237	272	312	334	316	256	177	102	44	4	34	48	48	42	32	20	12	8	5	4	5	9	8	7	6	8	10	8	5	6	4	7	8	8	8	7	5	2	3	4	4	4	3	1	2	6	9	11	11	10	5	5	7	5	3	2	4	7	8	7	5	4	4	4	5	7	5	5	7	7	5	4	4	3	3	4	1	2	3	0	2	4	7	8	9	9	6	4	5	10	9	6	5	4	3	2	2	0	4	4	4	4	2	3	4	4	4	4	6	4	4	4	4	1	0	1	4	4	4	4	3	1	4	7	7	4	1	0	1	3	3	4	4	4	3	0	0	0	3	4	4	6	3	4	2	2	2	2	3	1	0	0	0	3	3	4	0	3	5	8	3	6	4	2	2	4	1	1	4	4	1	4	4	2	6	6	2	0	3	4	0	5	5	5	7	5	2	5	5	3	4	4	2	1	4	3	1	0	0	1	2	2	4	4	7	8	5	5	3	4	7	5	4	4	4	4	4	3	3	0	2	0	0	2	0	2	0	0	0	1	4	5	6	5	4	1	4	4	0	0	0	0	0	1	2	0	4	6	4	5	8	4	1	2	1	0	3	4	3	6	8	7	5	5	7	6	3	4	2	3	4	4	4	5	6	5	2	2	4	4	3	1	1	4	2	4	5	4	2	7	4	0	0	0	1	3	3	1	0	3	4	4	4	4	1	1	3	3	1	3	4	4	4	4	4	5	6	2	4	4	4	3	3	1	2	4	2	0	0	0	0	0	3	4	4	4	3	0	0	0	0	0	0	4	3	4	6	4	3	0	2	1	1	3	5	4	7	0	2	3	4	2	6	2	3	2	4	4	5	4	4	3	3	2	3	4	3	2	2	2	1	1	1	2	
4	8	4	1	5	7	5	6	5	4	3	3	2	4	7	5	1	0	0	3	7	7	4	5	3	2	4	2	2	4	6	4	3	7	8	5	1	0	0	3	4	1	1	3	3	4	7	5	1	2	1	1	4	7	5	6	5	4	7	7	5	2	1	2	4	4	4	4	5	9	8	8	8	8	8	8	7	5	4	3	1	4	4	2	3	5	4	4	4	3	8	4	1	3	3	2	5	7	7	7	1	7	7	4	1	0	0	4	5	4	5	4	4	4	4	1	1	3	5	7	6	5	6	2	3	0	2	4	5	4	10	11	7	4	8	5	5	8	3	7	3	0	0	3	6	1	2	3	3	4	8	18	3	63	101	64	20	79	84	41	12	5	0	2	1	3	7	5	0	2	2	4	3	3	1	3	3	1	1	3	3	5	0	5	4	3	0	0	0	2	1	2	1	0	1	3	4	2	2	4	1	1	4	7	5	4	6	3	9	6	5	5	2	7	7	3	5	8	8	10	35	30	15	37	18	8	5	8	11	13	38	69	73	57	33	15	13	43	55	42	8	35	60	59	31	18	46	63	54	28	5	17	38	63	119	199	272	313	326	315	281	220	150	93	51	12	22	41	46	43	34	22	11	7	4	6	5	7	7	8	8	7	5	8	10	8	5	5	8	5	4	4	3	2	3	4	4	5	6	5	5	8	7	8	8	8	7	5	4	5	6	5	5	4	4	5	7	5	4	4	4	4	4	4	3	4	4	4	4	4	5	3	1	1	3	5	6	4	2	3	2	3	7	7	5	4	4	5	1	3	2	3	6	4	4	4	3	3	3	5	8	5	3	2	4	4	1	0	1	3	4	4	3	1	0	1	4	4	1	1	4	4	4	7	5	5	5	4	4	4	2	2	5	4	1	1	4	7	5	4	6	5	2	3	4	4	1	4	2	0	4	7	2	6	4	2	3	2	4	4	4	1	1	4	3	3	4	4	3	1	3	5	4	3	4	2	4	2	2	4	5	4	4	3	2	5	5	4	3	0	1	4	3	4	2	0	6	5	3	4	4	4	7	4	0	1	3	4	4	4	4	2	1	0	0	1	2	1	0	0	0	1	4	6	5	5	7	5	4	3	0	0	0	1	2	1	1	4	4	4	3	4	8	4	1	4	4	4	4	7	9	7	5	4	4	4	4	4	2	2	4	4	3	1	1	3	4	4	4	4	4	4	4	2	3	4	3	1	5	7	4	7	3	0	0	0	0	0	0	0	0	3	4	3	1	4	2	0	3	2	3	3	4	0	3	4	4	4	1	5	5	2	3	3	2	2	3	4	1	1	2	1	0	0	3	4	4	4	4	2	1	0	0	0	0	3	3	4	2	3	4	4	3	0	2	3	4	6	5	3	4	6	8	7	5	1	1	2	4	4	7	4	1	0	0	0	0	0	0	2	0	5	2	3	1	3	
3	7	5	5	8	5	4	4	4	4	4	4	4	4	4	1	0	0	0	1	5	7	4	4	1	2	4	1	4	4	5	4	1	5	8	7	4	1	1	2	4	2	1	1	4	4	5	6	1	4	4	2	7	5	5	9	1	4	6	4	1	1	5	7	8	8	7	5	4	7	7	8	8	8	7	4	3	2	4	4	0	1	4	4	5	7	5	5	5	3	7	4	2	3	3	3	6	4	2	5	4	2	4	4	1	0	0	4	4	4	4	0	0	1	4	4	2	3	5	7	3	7	7	2	3	0	1	4	5	7	11	8	4	8	11	4	7	9	3	7	3	0	0	2	7	7	2	5	4	4	8	8	48	106	90	13	59	89	63	19	5	5	6	4	1	3	6	3	2	2	0	1	2	1	3	4	4	3	1	2	1	3	2	3	4	4	1	3	4	5	6	5	3	1	3	5	7	7	4	3	4	5	7	8	8	4	3	4	6	7	8	8	3	7	7	3	7	8	7	14	32	18	15	29	18	9	4	4	8	3	8	11	12	7	6	7	8	4	13	22	34	56	67	56	31	13	4	11	26	37	41	39	40	40	45	25	25	90	163	230	282	317	326	313	277	221	157	98	43	12	42	52	46	28	14	12	10	5	2	5	9	9	4	6	3	7	4	5	8	8	8	7	5	4	4	5	6	5	3	3	3	5	7	7	7	7	8	7	5	4	4	5	5	4	2	4	4	1	0	0	0	1	3	4	4	7	5	5	5	3	3	3	3	3	2	4	2	4	5	4	4	4	1	5	4	1	3	5	4	2	4	6	2	3	6	4	2	6	8	7	8	5	4	3	1	4	4	1	1	2	2	4	4	4	1	0	1	4	3	2	4	2	1	5	10	11	9	7	5	4	2	4	7	4	3	0	6	6	6	8	1	6	2	4	4	2	2	4	0	3	5	7	4	4	3	1	3	3	1	1	3	4	4	4	0	4	3	3	4	3	0	3	4	3	3	1	4	4	5	7	3	3	6	4	4	4	0	4	4	3	4	4	3	6	2	2	6	4	1	3	4	4	5	3	0	1	3	3	2	4	3	0	0	1	3	4	3	1	0	0	0	3	4	4	4	3	5	7	4	1	0	0	0	3	2	3	3	4	0	4	3	4	7	4	4	4	1	0	2	7	9	3	3	0	0	0	0	1	4	2	3	4	4	4	4	3	0	4	6	4	1	1	4	0	5	5	2	1	3	4	6	5	1	0	0	0	0	0	0	1	3	3	0	3	4	2	2	3	4	2	3	1	4	4	4	4	4	5	6	5	4	4	4	7	4	1	4	4	0	3	3	4	3	1	1	3	4	3	3	0	2	0	0	0	0	2	5	5	3	1	0	4	4	0	1	4	3	2	3	4	6	4	7	4	1	0	0	0	3	2	3	2	0	0	0	0	0	1	3	3	1	5	2	3	3	2	
1	5	5	5	5	1	3	4	3	3	3	4	4	3	1	0	0	0	0	0	3	5	3	2	2	3	4	1	4	1	3	4	1	4	7	5	5	4	5	7	8	7	5	4	4	1	3	5	9	8	8	6	4	7	3	5	8	12	10	7	1	3	7	5	4	4	4	4	4	4	6	8	8	7	5	6	4	1	4	4	0	0	1	3	5	4	2	4	4	2	5	4	1	4	2	3	5	4	4	7	4	1	1	4	3	1	2	4	4	4	3	0	0	0	1	4	4	5	7	5	3	7	5	6	5	3	1	1	4	8	9	5	4	10	11	4	7	6	2	4	3	4	3	2	4	8	5	7	4	7	22	59	104	108	41	50	83	67	27	3	4	4	3	3	2	3	5	4	2	2	4	4	4	3	4	4	4	3	2	0	2	1	2	1	3	4	4	4	4	5	5	7	5	4	3	7	2	5	6	2	7	6	4	4	8	5	3	5	3	2	7	8	6	5	7	2	6	7	4	12	24	19	14	21	13	7	5	4	3	5	9	5	7	8	8	5	2	3	3	11	41	87	95	62	31	13	4	9	9	6	14	18	24	24	40	57	63	53	33	7	45	117	185	236	275	303	315	305	265	198	120	49	9	37	48	48	43	31	20	16	16	15	11	8	5	7	8	10	10	8	5	4	5	5	2	2	3	2	2	4	5	6	5	4	4	4	8	10	9	7	6	7	7	5	4	4	1	0	0	0	0	1	3	4	5	8	8	9	10	9	7	5	4	4	4	4	2	6	4	2	0	4	6	2	4	1	2	6	9	7	4	6	3	2	4	5	4	4	4	3	4	4	4	3	1	3	5	4	4	4	4	4	2	4	3	0	0	3	4	0	4	3	0	2	6	7	4	3	2	1	4	5	4	1	4	2	5	10	6	4	5	4	1	4	1	3	4	1	3	5	7	9	5	5	5	3	1	2	4	4	4	3	1	2	3	4	1	1	4	5	5	2	1	3	4	4	4	4	4	3	2	5	4	4	7	3	5	7	5	4	3	1	3	5	7	7	4	2	3	1	0	2	4	1	3	4	4	4	4	4	1	1	3	4	4	4	4	3	0	1	2	4	4	4	3	1	3	5	4	1	0	0	1	4	1	4	3	4	4	4	1	3	5	4	3	1	0	0	1	7	10	3	4	3	4	4	4	4	4	3	2	3	3	4	4	4	3	3	5	5	4	5	5	4	6	0	2	3	2	2	2	1	1	2	1	0	1	3	4	4	4	4	4	2	1	1	3	3	5	6	4	1	1	3	4	3	1	0	2	1	4	7	4	3	2	0	4	4	0	4	3	3	4	3	0	0	0	0	1	2	0	2	1	1	2	2	4	4	4	3	1	3	2	3	2	2	1	1	3	3	4	4	4	3	0	0	0	0	2	2	2	3	3	3	1	1	3	4	4	4	4	5	3	1	3	2	
0	4	4	3	4	1	1	4	5	7	5	1	1	2	1	1	3	3	1	1	3	5	3	2	1	7	5	4	4	0	1	4	4	4	4	4	5	5	7	5	4	2	6	7	4	0	2	6	7	4	8	7	3	3	2	2	8	10	10	15	16	10	7	3	0	0	0	0	3	5	9	7	2	2	9	9	3	1	4	4	0	1	3	4	5	1	3	5	5	3	4	4	5	5	4	5	8	8	10	9	6	4	1	3	4	4	4	5	4	3	1	0	0	0	0	1	3	7	7	4	5	5	3	5	6	5	3	0	3	6	5	1	4	8	9	4	5	4	1	3	5	6	5	1	4	7	8	7	13	31	65	101	104	54	22	81	82	36	4	7	5	4	3	4	2	1	4	3	3	4	4	4	4	4	4	3	3	1	1	2	1	0	0	0	1	4	6	4	1	4	3	4	5	5	3	6	3	7	4	3	6	5	7	7	5	5	5	3	3	3	5	5	5	6	5	0	7	5	1	8	16	17	16	12	8	4	2	0	3	4	4	3	4	2	5	8	5	3	7	11	6	49	102	122	108	70	22	4	1	2	7	10	12	3	3	5	13	22	30	39	46	41	23	5	49	108	173	237	290	318	313	274	208	132	68	21	12	30	37	43	47	46	36	21	11	7	5	6	8	7	5	8	10	8	5	0	4	4	3	4	3	3	2	3	4	4	5	7	5	5	7	8	9	7	6	5	4	4	4	4	4	4	4	4	4	5	5	6	10	11	9	6	2	1	2	2	4	8	11	10	7	0	7	6	3	2	5	8	13	13	8	3	0	4	8	10	9	7	4	1	1	3	3	1	3	3	5	4	3	2	2	2	3	5	5	2	3	4	5	4	4	2	3	5	5	3	2	5	4	4	2	3	7	4	4	5	5	7	7	3	3	3	2	4	3	4	4	1	5	7	4	8	4	5	4	4	3	3	2	2	3	4	3	3	3	4	1	0	1	3	4	4	1	2	2	0	2	3	4	7	7	5	2	4	6	4	8	5	3	1	0	1	3	5	7	7	4	2	4	3	0	1	4	4	4	3	1	1	2	1	0	3	4	3	1	0	4	4	1	4	4	5	4	4	3	3	0	3	4	4	3	2	4	4	2	4	2	3	3	1	0	2	4	1	2	1	1	2	1	5	8	6	5	4	4	5	6	5	3	1	1	4	4	3	1	3	4	0	4	5	7	7	5	7	7	3	1	4	3	4	4	4	4	4	4	4	5	7	7	4	1	0	1	4	4	0	4	2	2	4	4	3	0	0	1	5	6	5	4	4	0	5	7	7	5	4	4	3	0	3	4	1	3	4	1	0	0	0	0	1	4	4	4	3	0	1	4	1	4	4	3	1	2	4	4	5	6	5	2	2	2	3	2	2	3	1	0	0	3	4	4	6	4	4	4	2	4	3	1	0	1	4	4	3	0	2	
4	4	3	1	4	4	4	5	7	8	9	5	4	4	4	5	7	7	5	4	4	7	5	1	7	9	4	7	5	2	1	1	3	3	1	1	4	2	4	1	2	5	7	8	4	1	3	4	1	4	7	5	5	5	2	3	6	5	9	34	47	36	11	4	4	4	3	1	2	9	9	11	8	7	8	9	0	2	4	4	0	3	4	5	8	8	9	10	9	7	7	10	12	11	9	10	11	10	8	5	5	5	2	1	3	3	2	4	3	0	1	3	4	4	3	1	3	6	3	2	6	4	0	3	3	7	7	5	4	4	4	4	4	5	7	4	3	5	2	1	2	0	5	3	5	7	8	17	46	71	90	84	40	23	72	88	60	13	6	5	4	4	5	7	7	5	4	3	4	4	0	0	0	4	4	0	0	1	2	1	0	0	0	0	0	2	2	1	3	4	3	1	4	5	3	2	3	4	2	4	2	4	8	11	10	5	3	4	1	4	4	4	2	4	4	4	9	4	1	5	8	7	7	7	5	3	3	4	3	1	2	6	8	7	5	7	7	7	9	13	17	5	30	74	111	123	90	34	4	5	5	5	4	7	11	12	11	8	5	2	8	24	36	44	47	41	24	14	79	155	223	278	314	323	302	260	202	149	111	77	34	19	43	43	34	25	13	6	8	7	8	11	10	10	7	4	5	7	4	4	4	5	2	2	6	6	2	4	3	4	5	7	11	8	8	7	5	4	4	4	4	3	1	0	0	4	3	5	8	10	9	7	5	4	3	1	3	5	9	11	11	5	4	7	3	0	6	3	4	8	5	4	4	7	5	7	8	8	8	7	5	3	1	1	4	2	4	4	3	1	1	4	4	5	7	4	4	4	5	7	7	4	3	2	5	5	3	5	3	2	2	4	5	7	7	4	2	2	4	7	2	1	2	4	3	3	4	4	5	5	2	8	1	4	2	4	4	3	4	3	1	2	2	4	1	4	3	0	0	0	1	4	4	2	3	5	6	5	4	4	4	2	2	2	4	9	8	4	1	0	1	4	4	5	7	7	8	5	4	4	3	3	0	2	1	0	0	0	0	0	0	4	4	0	0	0	3	4	4	4	2	4	4	4	4	5	6	5	3	0	3	3	3	2	1	4	3	0	1	2	1	2	3	3	4	4	2	2	3	4	5	3	3	0	2	3	0	2	0	0	0	1	3	4	4	0	4	4	2	2	3	0	2	5	6	1	3	4	3	1	3	5	6	6	6	5	5	5	4	4	1	1	2	2	4	3	2	4	2	0	3	4	2	3	4	5	1	2	1	4	4	3	4	4	4	4	3	1	0	1	4	4	0	4	4	3	3	1	1	4	4	2	4	4	3	4	5	3	3	4	2	2	4	3	3	4	2	6	3	3	4	3	4	4	4	3	0	0	3	4	3	9	5	4	5	0	4	3	1	1	3	2	2	4	3	1	
5	6	5	3	2	3	4	4	4	5	10	10	7	2	1	5	5	5	7	4	2	5	7	5	6	5	2	7	7	3	4	1	0	0	1	3	4	1	4	0	3	5	8	11	7	5	5	4	0	4	4	6	8	7	5	3	3	10	31	61	56	65	25	4	6	7	5	3	3	9	1	14	10	2	6	6	2	1	4	5	2	5	4	1	4	7	8	6	3	4	8	11	10	6	4	7	8	5	3	1	7	7	4	4	4	4	4	4	4	2	4	4	4	4	4	3	3	5	7	7	5	3	0	4	4	6	8	5	3	2	2	1	3	4	4	4	1	7	3	4	3	2	5	8	2	17	8	46	74	79	68	37	19	74	93	70	28	2	7	8	5	1	4	7	8	5	3	1	3	4	1	0	0	3	4	3	1	2	0	2	0	0	1	3	3	0	3	2	2	3	1	1	3	5	4	4	4	2	2	1	1	2	1	0	2	2	3	4	1	2	2	4	1	5	5	3	9	4	7	7	5	3	1	2	3	2	3	4	4	4	5	10	11	11	10	7	4	5	7	8	13	19	13	12	51	99	120	82	28	6	4	4	3	6	7	6	5	3	0	2	1	2	4	3	12	27	41	49	42	18	24	63	125	200	265	309	326	326	323	311	272	197	111	41	10	38	45	39	29	16	8	4	6	8	8	7	5	5	2	3	5	8	8	8	7	5	4	5	6	4	4	4	10	7	3	3	2	1	3	4	4	4	3	1	0	4	1	6	3	4	4	3	4	4	4	2	3	5	0	6	10	9	5	5	2	2	4	3	3	5	4	1	2	4	4	3	1	2	6	8	5	4	4	4	5	4	4	4	4	4	2	4	0	4	4	2	1	1	3	4	5	8	11	9	3	4	1	4	5	4	4	3	1	3	3	2	4	4	0	7	5	4	5	5	2	1	3	3	2	4	0	7	2	3	2	5	4	1	1	3	2	4	0	4	4	4	4	3	4	4	4	4	5	4	4	4	4	2	1	1	0	2	3	3	5	4	2	3	4	1	4	4	2	4	5	5	8	7	5	5	4	4	4	1	0	0	0	0	0	0	1	4	3	0	0	0	1	3	2	2	4	2	2	2	1	0	3	4	4	4	2	3	2	4	4	4	3	0	3	3	4	0	3	3	2	4	3	2	4	3	4	1	3	4	4	5	3	1	0	1	3	3	1	1	4	4	0	3	4	4	4	4	5	7	4	2	4	3	1	1	2	3	3	3	4	4	5	5	3	3	2	3	2	3	4	4	3	4	1	0	1	4	4	4	3	2	3	4	4	4	6	2	3	0	0	0	0	1	2	1	1	4	3	4	6	2	2	1	4	4	1	1	4	3	2	0	5	4	3	3	2	5	5	3	3	4	1	5	5	5	7	4	2	2	5	4	1	0	1	4	3	9	7	2	7	3	3	4	3	3	4	4	4	2	4	4	
4	4	4	4	2	2	1	0	0	1	4	7	8	7	1	6	4	1	4	3	0	4	7	5	8	8	7	5	7	3	4	3	0	1	4	3	1	2	4	0	3	5	8	12	7	4	6	4	3	2	4	8	9	7	7	3	4	9	46	88	32	82	45	7	7	4	7	4	2	8	7	20	41	43	32	15	3	2	5	7	2	7	4	0	0	2	3	3	3	2	2	3	3	5	3	7	7	4	4	5	10	8	5	7	7	4	1	1	4	2	6	3	0	0	3	4	0	3	4	4	3	1	0	4	6	1	7	5	3	4	4	4	6	6	4	4	1	7	3	2	4	4	4	3	11	20	12	73	79	45	26	2	54	95	78	31	3	10	5	10	8	5	4	4	7	5	3	1	1	4	3	0	0	1	3	4	4	2	2	2	3	3	2	4	4	4	3	3	4	1	3	4	3	4	5	5	5	4	2	2	3	2	6	7	4	1	4	4	3	4	4	5	6	4	4	2	6	5	10	8	3	1	3	6	8	5	5	7	7	5	7	10	4	4	7	8	5	5	4	3	6	18	25	19	5	48	92	85	41	10	4	4	3	7	9	2	3	0	3	5	7	7	7	0	2	2	5	17	28	30	29	30	31	15	22	77	137	185	225	269	318	340	319	267	194	112	40	17	43	45	31	14	7	7	10	8	1	4	0	0	1	4	8	9	5	4	3	5	5	2	4	2	8	6	3	4	1	3	4	4	4	4	4	3	0	3	2	3	6	7	5	3	1	0	2	4	1	5	3	2	5	8	6	7	7	7	5	4	3	5	4	1	3	2	2	4	4	5	1	6	4	1	4	6	7	6	5	4	4	5	3	3	2	3	3	4	4	4	3	1	2	2	6	10	10	6	4	4	5	7	7	4	1	0	0	3	4	2	2	4	4	6	5	3	4	2	1	0	0	4	3	5	6	2	4	5	1	2	0	4	4	4	3	3	4	4	5	4	4	4	4	4	4	3	5	5	1	4	4	4	3	0	3	3	2	3	4	3	5	1	6	3	1	4	5	4	4	4	4	4	1	2	4	2	0	0	0	1	3	3	3	4	2	0	0	0	1	3	4	4	4	4	3	3	4	4	3	0	0	4	4	3	2	0	3	3	1	0	3	2	3	2	0	0	0	2	5	5	5	3	3	3	4	3	2	4	3	1	3	4	4	3	4	1	2	4	1	2	0	3	3	1	2	4	1	4	1	0	0	3	3	5	5	4	7	7	5	5	3	0	3	2	1	4	4	2	4	3	0	0	0	1	2	1	0	1	4	4	4	3	4	2	3	0	1	2	1	2	0	3	3	5	5	3	5	3	3	1	3	2	2	4	4	1	1	2	1	6	7	4	4	4	3	3	4	4	3	2	3	8	7	3	4	5	7	4	3	0	1	3	3	6	7	3	7	4	0	4	4	4	4	1	4	2	3	4	
3	2	2	4	3	3	3	0	0	0	0	1	5	8	4	4	4	4	4	3	1	4	4	3	5	7	5	3	4	4	3	4	0	3	3	2	4	3	3	1	1	12	33	44	38	14	3	2	3	1	4	7	6	8	7	2	9	7	58	102	21	92	60	6	10	5	7	3	2	5	29	56	76	81	68	37	8	4	7	8	3	7	4	0	0	1	3	3	2	4	3	6	6	3	2	7	5	3	4	5	7	4	4	2	5	8	7	5	5	7	8	4	1	1	3	5	4	3	1	0	0	0	0	3	5	6	8	5	4	7	4	1	7	8	4	2	1	4	7	5	4	4	4	2	10	24	47	85	70	28	8	28	85	93	41	2	10	5	2	5	7	6	6	5	7	7	5	4	2	6	5	4	3	2	3	4	5	3	0	3	4	4	0	4	1	5	5	2	3	3	2	1	2	1	0	2	4	3	5	7	8	5	7	7	7	4	5	4	4	4	1	3	4	4	3	2	5	11	8	5	5	0	5	3	4	7	7	6	6	5	5	7	4	7	3	4	8	8	7	6	7	16	36	49	42	79	106	79	34	9	5	6	4	4	11	5	8	5	5	6	5	8	13	10	5	1	1	5	12	12	8	10	23	42	56	56	44	31	18	16	84	165	240	302	335	324	268	184	90	15	41	52	41	25	15	11	6	7	6	4	1	0	3	3	7	5	1	0	4	4	3	3	7	5	3	4	2	4	4	2	2	3	2	2	4	4	3	2	4	3	1	0	0	0	3	4	2	4	3	0	4	5	1	3	4	4	6	5	4	7	5	4	4	4	4	4	3	4	2	4	4	2	4	4	4	2	4	4	4	4	2	1	1	3	3	2	4	7	7	5	0	4	3	2	7	6	2	1	3	4	3	3	2	0	0	1	4	2	2	2	2	4	2	4	7	3	4	2	1	3	4	2	7	5	3	4	5	2	0	3	4	3	4	0	0	3	4	1	0	0	0	4	3	3	3	1	4	3	2	1	2	2	0	0	0	1	4	6	2	4	5	0	4	5	7	6	2	1	2	1	1	4	4	1	0	0	0	3	4	4	4	4	3	0	0	1	4	4	3	2	2	5	4	4	5	4	7	5	4	4	3	1	4	6	5	3	1	0	2	5	3	1	1	0	0	3	4	4	4	2	1	4	4	1	3	4	3	2	3	4	7	1	4	2	3	4	1	0	2	1	2	1	1	4	3	3	0	0	0	3	2	3	2	6	5	3	4	4	4	4	4	2	4	5	4	2	4	1	0	0	0	0	0	0	0	2	3	3	4	4	5	7	8	7	5	3	3	1	3	5	4	5	7	3	3	0	0	1	3	4	4	4	0	3	3	1	3	4	4	3	3	4	6	4	3	3	4	5	7	5	4	7	7	5	4	2	4	4	4	4	4	4	4	2	4	4	4	4	3	4	4	0	4	4	0	2	
0	2	0	3	2	3	4	0	0	0	0	0	3	7	5	0	3	5	6	5	5	7	5	3	0	4	4	3	0	4	1	3	3	5	4	4	2	2	0	5	4	34	53	52	55	29	4	4	2	2	5	7	1	8	10	9	16	4	78	109	22	100	64	3	7	7	5	1	4	6	47	76	59	60	78	47	8	1	5	9	7	5	4	3	3	1	0	1	2	3	1	4	2	4	5	4	4	0	0	3	5	8	12	14	12	7	2	2	1	4	5	4	3	3	2	4	3	4	4	1	1	2	1	1	2	0	5	5	4	6	4	2	5	5	10	10	5	2	5	7	7	4	12	26	41	60	80	82	52	18	15	64	95	64	7	11	4	3	6	5	4	1	3	2	5	5	6	5	1	9	8	7	7	5	3	3	6	4	1	4	3	3	3	3	5	1	4	4	1	3	3	5	6	5	3	1	3	4	9	9	11	8	8	8	10	9	7	4	4	3	0	0	0	0	1	1	15	22	15	11	6	2	4	5	3	5	5	4	4	7	1	7	4	3	2	1	5	7	8	8	1	18	30	67	95	104	92	52	19	4	2	4	6	5	14	17	17	22	14	7	5	4	8	9	7	4	4	5	9	11	10	10	8	7	12	22	32	41	52	58	53	35	7	70	154	244	312	337	307	229	119	20	42	52	40	26	20	16	13	12	9	7	4	2	6	7	2	0	3	4	0	3	4	2	4	5	4	5	5	3	5	3	1	2	3	3	2	3	4	1	0	0	0	0	3	4	4	4	3	0	3	4	4	1	6	4	0	2	1	5	5	3	1	1	3	4	4	4	4	4	5	4	4	1	1	2	0	2	5	4	0	0	1	2	3	0	5	4	5	7	4	4	3	1	4	7	5	2	3	3	4	4	1	0	0	0	1	4	4	4	4	1	3	6	5	2	6	0	2	2	5	4	3	7	5	4	4	4	1	1	4	3	3	0	1	4	3	0	0	0	1	3	2	4	2	4	2	2	4	4	3	1	0	0	0	3	4	4	6	4	0	4	2	1	1	2	2	0	0	0	3	4	1	0	0	0	0	3	4	5	5	4	3	0	1	4	4	1	0	3	2	7	4	4	7	4	7	7	5	3	0	2	4	3	5	3	2	1	4	3	5	0	2	0	0	3	4	4	3	0	1	4	3	3	4	3	1	1	4	3	7	1	5	3	4	4	2	1	2	4	3	3	0	1	2	1	0	0	0	1	3	3	1	3	1	2	3	3	4	1	3	5	7	4	1	4	4	0	0	0	0	0	0	0	0	1	4	6	5	5	7	8	8	8	6	4	4	1	4	4	0	3	4	6	4	1	0	0	0	2	1	3	4	4	4	4	4	2	4	3	2	6	8	6	2	1	3	5	5	2	4	7	7	4	2	4	6	5	3	2	3	3	1	1	1	2	5	6	4	4	4	4	4	3	0	1	
0	1	3	3	1	4	4	0	0	0	0	0	1	5	7	3	0	2	1	2	5	4	0	2	3	4	6	5	4	2	2	0	4	5	4	1	0	1	4	3	20	61	54	30	58	33	4	2	4	7	8	11	7	2	12	17	8	36	98	101	21	104	65	5	2	2	3	6	7	4	57	90	34	57	89	50	7	4	4	8	8	7	5	4	4	4	2	4	4	3	2	4	5	8	6	4	4	2	2	1	13	23	23	16	5	4	5	1	3	4	3	3	4	2	2	3	0	1	4	4	5	6	5	2	5	7	8	8	4	2	4	3	3	1	4	8	10	5	2	2	6	24	47	63	69	70	63	51	27	13	59	87	73	28	6	7	0	5	4	4	3	2	4	1	7	6	5	2	7	10	6	3	4	4	1	4	4	6	7	5	4	4	5	3	4	2	1	3	2	1	0	3	4	4	4	3	5	7	9	7	9	12	9	5	5	10	8	4	3	1	0	0	0	0	2	5	21	18	20	25	14	2	2	5	6	1	2	3	5	6	2	3	2	3	3	1	4	5	3	5	11	25	47	58	90	84	41	21	14	2	3	4	6	5	9	31	24	31	34	10	3	4	4	6	5	4	3	3	7	11	9	9	5	1	2	4	7	4	4	14	26	37	49	56	42	9	86	183	272	329	327	253	148	61	3	38	47	42	35	31	26	16	6	3	7	7	3	3	2	4	4	3	1	3	4	4	2	3	3	2	4	4	0	4	4	4	1	1	4	3	0	1	2	1	1	3	4	3	1	0	1	4	8	10	7	0	4	2	0	4	4	0	0	0	1	2	1	3	4	4	4	2	1	0	0	2	3	2	6	4	4	3	2	3	5	6	4	2	4	4	3	3	1	3	4	5	7	5	6	5	7	5	4	4	3	1	0	1	3	3	1	0	4	5	4	0	5	5	2	2	1	6	3	4	4	0	1	4	4	4	5	5	2	0	3	4	0	3	4	4	4	2	4	3	5	7	2	4	2	1	0	0	0	0	1	4	5	4	7	4	3	4	1	3	3	3	0	3	4	3	2	4	1	0	0	0	1	4	7	6	2	2	2	0	3	4	1	0	0	3	2	6	4	4	7	3	2	3	2	0	3	2	6	2	6	4	1	2	4	2	5	2	1	0	0	1	3	3	1	0	3	4	1	3	4	1	0	0	1	3	5	1	6	1	4	4	4	4	4	4	3	4	1	3	3	1	0	0	0	0	0	0	1	4	3	3	0	1	4	4	5	7	4	2	4	4	3	0	0	0	0	0	0	0	0	0	2	0	2	2	3	2	1	1	4	6	4	4	4	1	2	1	3	4	4	4	4	4	4	5	7	7	3	2	2	3	6	4	4	3	4	4	2	4	2	1	0	3	4	4	7	4	3	1	4	4	4	3	0	1	3	3	1	3	2	4	4	4	4	5	4	4	3	1	0	0	
3	3	4	3	4	4	3	0	1	2	1	0	0	4	8	4	1	4	8	11	13	12	9	7	5	4	4	5	5	2	1	3	3	4	4	1	3	4	4	18	50	66	19	49	60	24	1	2	7	5	5	11	11	2	13	19	37	83	99	66	26	101	69	10	4	4	10	8	15	5	67	88	18	74	83	38	3	8	6	7	7	5	4	4	5	7	8	7	4	1	1	3	5	8	5	5	4	2	5	10	34	38	33	22	10	7	3	6	4	2	2	2	2	3	1	2	0	1	4	7	7	6	8	6	8	5	5	8	5	1	2	3	3	2	3	3	10	8	6	5	20	53	67	61	48	36	29	21	12	65	90	73	33	6	4	2	2	4	4	1	0	1	4	1	7	5	5	5	8	4	3	7	4	4	1	2	5	7	7	5	3	3	2	4	2	1	2	1	0	1	3	5	7	5	7	4	4	5	7	4	2	4	3	0	3	7	10	5	4	4	3	1	1	3	4	3	21	24	16	40	44	24	9	5	5	1	0	3	8	2	3	3	4	3	3	1	3	7	5	10	11	14	57	90	69	34	28	13	31	25	8	1	2	7	12	40	34	25	43	28	13	5	2	3	7	7	5	4	5	10	5	1	3	3	4	7	13	13	10	11	9	4	7	21	39	53	51	21	50	146	256	330	340	289	198	102	36	15	35	43	48	44	29	17	14	11	8	5	4	2	4	5	5	2	4	4	1	1	2	3	1	4	3	4	5	2	0	0	3	4	4	4	3	3	0	1	3	3	1	0	0	3	5	8	5	5	0	2	0	3	4	1	1	3	4	4	4	4	4	4	5	1	0	1	3	4	4	3	5	3	4	4	3	2	3	4	2	2	3	0	3	4	4	4	3	4	5	4	4	5	7	5	4	4	4	4	4	3	2	2	2	3	5	5	4	2	1	3	4	5	6	7	4	5	4	0	1	4	7	7	5	4	4	4	4	2	4	4	4	4	3	3	6	0	6	7	2	5	0	2	0	0	0	0	3	4	7	6	3	4	4	3	2	4	3	2	4	4	3	3	1	4	4	1	0	0	2	2	0	1	2	3	2	0	4	4	0	0	0	2	0	3	3	3	5	1	4	3	1	0	3	2	4	3	5	2	3	2	2	3	3	0	0	0	0	1	2	1	0	0	4	4	0	1	4	4	1	1	2	3	3	2	4	2	1	2	1	4	6	4	4	3	3	4	4	3	0	0	0	0	0	0	0	2	4	2	0	1	1	1	3	3	4	7	8	7	4	1	0	0	1	3	4	4	4	4	3	1	2	2	4	2	0	0	3	5	7	7	4	1	1	2	1	0	1	3	4	4	4	5	5	4	6	4	4	6	4	5	5	6	7	5	5	7	4	3	1	4	6	4	4	3	4	1	3	2	3	4	0	3	4	4	4	4	2	5	4	2	2	4	2	0	0	0	0	0	
7	7	7	2	1	2	1	3	3	2	4	4	4	5	7	2	5	7	7	7	10	13	9	7	4	1	1	4	7	5	4	4	1	4	4	2	2	2	13	42	62	34	31	67	44	8	3	5	8	5	3	11	13	14	28	52	79	90	60	24	29	93	74	9	10	8	7	7	17	27	89	71	26	85	62	20	7	9	4	5	4	1	4	5	8	12	13	10	7	5	4	4	4	6	3	2	4	3	5	25	53	34	43	33	10	8	1	7	4	4	4	4	2	3	4	4	2	4	4	5	6	5	7	3	4	3	3	4	5	4	4	5	4	4	2	3	5	11	15	8	43	76	62	34	16	11	8	15	63	96	73	28	3	4	3	1	2	2	4	4	4	4	4	3	5	4	4	2	4	3	4	5	4	4	2	2	1	2	2	1	2	3	2	4	4	1	0	0	1	4	5	8	10	8	5	1	0	3	7	2	2	3	2	5	5	1	7	5	4	4	4	2	5	6	7	3	14	31	42	46	69	53	13	10	22	27	18	8	4	2	2	2	3	2	2	2	1	7	10	7	2	2	32	102	115	34	34	31	13	34	23	3	1	5	18	48	33	21	34	30	19	7	5	8	11	12	12	10	7	10	11	8	6	17	33	36	16	12	18	13	10	8	1	4	6	18	28	37	42	25	34	118	211	287	324	311	267	207	153	103	42	15	43	51	42	22	8	5	5	4	1	5	7	4	3	4	4	4	4	1	1	4	3	1	3	3	1	1	2	1	0	1	2	3	1	4	4	4	3	1	2	5	6	0	5	5	6	4	1	1	4	4	4	5	6	6	7	7	5	4	7	3	0	3	4	3	0	4	2	2	1	1	2	0	3	3	2	4	4	4	4	5	7	6	2	4	4	4	3	4	7	4	0	0	1	3	4	4	5	1	5	4	5	7	5	7	9	10	8	5	5	7	4	6	4	1	3	4	4	4	3	2	2	0	2	1	4	0	3	3	2	4	4	2	4	5	3	2	2	1	0	0	0	0	4	3	3	4	3	0	2	1	3	4	3	0	5	4	4	5	4	4	5	3	1	3	2	2	4	2	2	4	0	3	4	3	0	0	1	5	6	5	1	1	4	1	4	0	0	0	1	2	1	2	3	2	1	1	2	1	2	0	1	3	4	4	4	4	1	1	4	3	0	1	2	3	1	4	3	4	3	3	1	1	2	1	0	3	5	7	7	5	4	3	3	4	1	0	0	0	1	2	1	3	3	4	1	3	3	4	4	4	5	5	4	4	4	3	0	1	4	4	4	4	4	4	4	4	3	3	4	1	0	0	1	3	4	4	4	3	0	0	0	0	0	0	0	1	2	4	4	4	6	4	4	6	4	4	0	2	7	4	3	3	4	4	4	4	4	3	1	2	1	1	3	4	3	3	1	4	3	1	4	5	3	2	4	4	4	4	1	0	0	0	1	3	
5	7	8	4	4	4	2	4	2	6	7	6	5	4	4	4	8	5	4	5	4	8	5	4	4	1	1	3	7	7	7	5	4	5	5	1	5	4	18	48	45	8	59	56	19	6	4	5	9	9	5	7	13	29	45	68	78	55	19	4	26	81	73	27	36	27	9	14	3	67	106	45	73	93	39	6	7	7	4	7	3	2	4	4	7	7	7	5	5	6	2	6	17	19	9	2	3	1	7	44	60	15	56	35	6	7	2	4	2	0	2	3	5	3	4	5	4	4	1	2	3	2	7	3	3	4	4	3	2	3	3	3	0	5	3	3	7	13	16	11	70	86	44	13	7	7	19	65	92	74	26	5	8	8	5	4	1	3	1	3	7	7	4	5	4	4	5	4	6	4	0	5	5	5	3	3	2	2	1	2	2	3	4	2	4	4	1	1	4	4	3	3	4	4	1	1	2	0	7	4	3	1	5	8	7	9	7	2	0	0	3	3	5	1	5	8	2	25	67	62	66	98	44	22	50	46	52	23	1	1	2	1	2	6	6	2	0	5	10	9	7	7	11	66	130	94	8	43	28	22	28	5	2	5	23	52	23	24	32	26	20	12	11	13	11	10	10	9	8	11	16	15	32	69	93	101	94	62	34	17	4	8	7	8	6	13	11	15	26	40	49	43	12	61	157	243	308	355	375	355	300	221	132	38	42	55	40	31	23	14	8	5	7	7	3	6	7	6	7	5	4	4	4	8	10	8	5	3	2	1	3	4	3	1	2	3	3	4	3	2	0	5	5	2	3	7	7	5	4	3	2	3	4	5	4	4	4	5	6	5	9	3	3	4	3	0	3	4	2	3	4	4	3	3	2	3	4	7	7	4	1	3	4	4	4	4	3	4	5	4	8	5	4	4	4	4	4	5	8	7	5	3	4	6	1	4	7	7	5	4	1	3	2	4	4	4	2	4	1	3	4	4	4	4	4	3	3	3	4	4	4	4	0	2	1	5	5	1	0	0	0	0	0	1	4	3	1	1	2	4	3	1	4	3	1	2	2	4	6	5	4	4	7	4	2	2	2	2	0	2	3	3	4	5	6	5	3	1	3	6	3	7	5	4	4	3	4	0	1	2	2	4	6	5	4	2	3	2	2	4	3	1	4	4	5	5	3	4	4	4	4	0	3	4	4	2	2	2	3	3	0	0	0	0	1	2	1	1	3	4	4	4	3	0	1	2	4	1	0	0	3	3	4	3	3	4	3	3	3	2	4	4	4	2	3	4	4	3	1	4	4	1	0	0	0	0	0	4	4	4	4	0	0	1	3	4	4	4	5	4	1	0	0	0	0	0	0	2	0	3	3	3	2	3	3	2	3	2	2	2	7	3	4	1	7	3	6	4	4	3	0	0	0	0	1	2	1	1	4	4	1	0	1	4	4	1	1	3	3	1	1	3	4	4	5	6	
4	4	7	3	1	4	2	2	4	6	6	1	3	4	7	7	5	1	3	4	3	8	4	2	5	5	4	4	5	6	4	1	1	4	7	6	2	5	18	46	45	36	58	38	4	9	5	1	6	6	6	6	6	36	60	56	41	18	5	2	29	77	58	29	61	62	46	23	23	96	97	24	112	91	18	17	8	4	7	7	3	4	1	4	8	3	4	1	7	12	9	19	46	56	52	24	3	8	31	68	50	37	67	29	6	3	3	2	3	4	4	3	6	4	4	5	6	5	3	0	4	3	7	5	3	4	4	3	1	1	3	5	5	0	5	7	4	10	16	25	88	80	26	5	8	7	58	88	66	26	2	10	3	12	7	4	6	4	1	5	4	4	4	6	4	4	6	3	2	2	3	7	4	4	2	1	1	2	2	2	3	4	2	0	1	4	4	4	5	4	2	2	3	3	0	3	3	4	3	5	2	3	6	5	3	3	3	1	1	4	7	6	1	2	1	7	11	7	65	96	22	107	113	77	83	51	76	42	5	4	2	4	4	4	4	3	1	4	5	7	4	7	18	13	90	124	72	8	41	22	22	12	6	2	21	42	27	46	48	31	15	11	11	8	4	5	4	5	8	12	11	41	85	103	88	83	107	115	103	72	31	4	8	5	4	20	17	14	5	17	27	39	49	48	29	11	71	153	234	318	388	419	397	300	137	17	34	52	58	56	51	39	32	33	33	33	35	36	35	31	24	20	20	18	12	8	7	5	7	7	5	4	5	7	6	2	1	4	3	1	5	4	4	7	7	7	5	4	6	7	5	2	5	5	1	2	1	2	2	5	8	7	8	6	2	0	4	4	4	4	6	8	8	8	8	8	7	5	4	4	1	3	4	4	5	3	3	5	7	5	10	7	4	4	4	3	2	3	5	5	4	3	4	6	1	5	4	1	1	4	2	3	3	1	1	4	3	3	2	1	4	7	5	1	1	2	2	4	5	0	2	1	3	2	6	3	7	3	0	0	0	0	0	3	3	2	4	3	3	3	4	4	5	3	1	0	0	2	2	2	3	4	8	5	4	5	6	5	4	4	4	4	4	5	4	4	4	4	2	4	4	3	7	3	2	4	3	0	2	0	4	6	6	8	7	4	1	3	4	4	2	4	4	1	3	2	3	2	2	2	2	3	4	3	0	4	4	1	4	2	1	3	3	1	3	2	3	0	0	1	3	4	3	4	2	2	4	4	1	0	4	3	4	1	4	4	4	1	4	4	1	6	6	3	4	4	3	0	4	4	1	0	0	0	0	0	1	4	3	3	4	4	3	2	4	4	4	5	7	4	3	0	0	1	3	4	4	4	3	1	0	0	0	0	0	1	2	3	1	4	5	2	4	1	7	5	3	3	3	1	0	0	0	0	3	4	4	2	5	4	3	1	0	1	4	3	0	0	0	0	3	4	4	5	7	5	
2	2	6	3	4	5	7	2	1	4	7	4	7	7	7	4	0	2	5	4	4	8	4	3	5	8	4	1	0	3	6	5	6	4	7	7	3	8	10	28	38	34	37	26	8	4	8	8	8	3	7	8	7	22	72	81	35	4	4	3	37	84	46	57	75	70	88	39	34	106	88	29	117	85	17	18	7	3	6	5	9	8	5	4	6	4	5	8	25	47	61	53	74	65	84	75	44	53	75	79	35	68	66	17	3	2	3	4	3	5	4	6	7	5	5	7	7	4	3	2	2	4	4	7	4	3	1	2	1	4	4	3	4	5	5	10	5	10	10	42	97	68	14	6	3	34	83	72	24	2	5	6	4	10	7	3	1	1	4	5	3	1	4	4	4	7	10	8	7	5	4	6	3	4	1	0	1	4	4	3	7	3	4	1	0	2	1	2	4	4	4	2	1	1	1	5	4	5	3	3	2	2	7	8	7	8	9	6	4	5	4	5	4	3	2	3	5	8	32	100	91	23	114	128	104	61	96	50	3	7	5	0	2	1	4	3	5	7	5	4	3	3	14	15	31	99	117	62	7	18	18	13	4	26	45	44	19	43	36	15	8	6	13	11	2	5	5	5	8	7	27	89	111	75	28	9	35	65	91	107	82	19	16	15	17	54	77	91	77	46	9	7	13	26	40	52	67	88	75	24	120	234	349	421	379	276	182	120	90	52	25	56	68	67	60	48	44	51	59	62	59	55	51	43	34	27	24	19	13	10	11	13	16	18	17	15	12	9	3	7	8	11	12	11	5	3	5	4	7	9	11	9	8	5	5	2	2	1	6	5	2	6	4	3	2	1	4	2	4	5	3	3	6	9	9	7	4	3	1	4	3	1	3	3	1	5	5	4	5	0	8	6	0	0	0	2	0	2	3	4	4	4	5	7	6	5	3	0	1	4	3	0	0	0	0	1	3	3	1	0	1	5	8	5	1	0	2	2	6	2	1	3	5	3	6	2	6	4	4	3	1	1	3	4	1	3	1	4	5	4	4	4	5	4	4	1	0	1	3	4	5	0	7	5	4	4	5	6	4	3	2	0	2	3	3	3	0	3	2	2	7	4	4	5	4	2	1	1	1	2	2	7	5	8	10	2	3	2	2	3	2	4	1	0	4	1	4	3	2	2	2	3	4	4	4	4	1	1	4	4	2	4	4	4	5	0	4	0	0	3	4	4	4	7	0	4	1	4	4	1	3	4	4	2	4	2	4	1	1	4	6	4	4	7	4	1	2	1	4	2	0	0	0	0	0	0	3	4	1	1	3	4	4	1	4	0	0	2	3	2	3	0	0	3	4	4	4	4	4	1	0	0	0	0	0	2	0	3	2	2	4	4	4	2	4	6	5	3	1	0	0	0	0	1	4	3	4	0	7	4	4	3	0	1	4	2	3	3	1	0	3	4	1	2	4	1	
5	4	7	7	7	6	8	8	7	5	6	3	7	5	4	4	4	2	5	2	2	6	5	4	4	4	7	4	0	2	7	8	2	3	5	7	5	11	11	13	9	13	18	17	11	1	3	3	4	3	11	7	11	4	49	95	69	21	2	2	33	79	69	87	82	59	113	56	28	94	93	7	92	101	61	15	7	7	0	6	8	8	8	6	1	4	4	15	41	61	90	98	77	56	66	98	98	101	89	54	31	76	70	27	5	4	4	6	7	8	7	8	7	5	4	3	4	7	7	5	4	3	1	8	3	5	7	6	3	4	0	4	5	3	5	7	9	10	25	77	93	52	14	12	20	67	81	41	8	5	3	4	4	7	5	7	8	6	4	4	1	3	4	1	2	6	10	8	8	8	7	4	1	2	1	2	4	4	1	5	8	2	4	4	1	2	0	3	4	4	3	5	3	1	4	7	4	5	6	3	1	2	3	7	7	8	7	5	1	6	9	3	5	7	4	3	3	5	10	57	120	103	39	76	69	76	118	52	5	3	7	5	2	3	4	0	7	7	6	3	2	2	2	14	9	40	100	112	68	19	20	11	51	86	94	85	79	90	83	47	24	24	37	43	31	10	16	15	5	37	86	117	86	23	12	18	15	7	21	86	124	65	29	45	52	93	89	95	119	110	75	49	24	13	14	5	23	66	117	151	145	84	54	189	292	337	340	330	326	300	233	142	106	106	121	140	151	143	115	67	15	20	20	14	17	31	45	50	48	46	48	51	51	48	45	41	34	27	17	13	11	11	10	5	3	4	2	7	7	6	8	10	8	6	8	10	8	7	3	3	2	2	2	1	5	5	4	4	7	4	3	2	2	1	4	3	3	4	0	3	4	1	0	1	4	4	4	0	4	4	7	4	3	4	4	4	3	2	3	4	3	2	4	5	7	6	2	1	5	5	2	0	0	0	0	0	0	0	0	0	1	2	4	5	6	5	6	9	8	4	2	5	7	7	2	5	0	6	7	5	4	5	6	4	2	4	4	7	5	4	4	2	4	2	4	3	1	3	3	0	5	4	7	4	0	2	3	1	4	3	2	1	1	2	4	4	3	0	4	3	5	8	10	7	1	4	4	4	4	4	4	3	5	8	7	3	4	4	4	1	3	4	1	0	4	3	4	4	3	3	1	1	3	4	3	2	3	3	2	4	1	5	4	7	8	3	3	1	3	4	3	1	4	6	2	4	3	4	5	4	2	2	3	2	4	2	4	3	0	4	8	4	4	7	4	2	2	2	4	4	1	0	1	3	4	4	2	2	3	1	0	1	3	1	3	1	3	5	6	4	1	0	0	4	4	0	0	1	4	3	0	0	0	0	0	1	2	1	0	0	1	3	3	1	0	1	3	4	3	0	0	1	3	4	4	1	4	0	7	4	3	4	0	2	3	3	4	4	4	3	0	4	4	1	2	4	
3	1	5	9	10	10	10	8	7	8	7	6	5	3	1	3	5	6	3	2	3	1	6	7	3	1	7	15	16	10	7	5	10	11	10	8	7	15	18	15	7	11	12	12	11	5	9	8	5	5	10	7	4	14	10	69	96	62	17	4	18	46	72	76	55	47	117	77	17	80	93	32	60	88	76	35	1	6	3	3	3	3	1	2	2	3	2	10	47	75	47	46	50	39	29	57	68	64	42	18	29	60	76	44	10	8	8	9	10	10	7	4	0	2	1	3	6	6	4	2	1	4	4	8	4	7	5	4	7	5	3	4	2	3	2	4	13	10	71	103	73	32	12	14	63	88	59	15	3	8	4	3	3	5	4	4	4	4	3	4	2	4	4	4	4	2	5	5	4	5	7	8	7	5	4	3	7	4	1	7	7	2	3	5	4	3	5	7	7	5	3	7	4	3	5	5	2	2	4	5	3	4	5	4	0	2	3	4	5	5	4	7	5	3	4	3	2	3	17	8	77	139	97	22	24	96	130	51	7	1	4	5	4	7	6	4	8	6	1	7	6	4	1	1	10	20	34	64	88	59	14	61	101	108	84	62	60	86	113	112	86	72	83	97	101	70	22	12	38	88	109	82	32	11	12	12	17	23	24	31	117	112	48	11	51	114	103	34	45	92	103	95	70	54	56	55	50	36	5	70	134	162	149	111	65	82	153	214	249	296	352	376	392	394	390	387	390	396	387	342	267	208	204	202	178	140	90	34	12	30	33	25	11	6	15	28	40	50	55	51	43	39	33	25	24	25	20	12	5	3	2	6	7	4	2	3	5	10	11	11	8	7	3	8	10	11	8	7	5	5	6	4	0	2	1	0	4	3	3	5	7	5	1	2	4	1	4	2	2	2	5	4	4	4	4	4	3	2	0	3	3	4	3	1	0	2	2	2	6	2	3	3	3	1	1	3	3	1	0	0	3	4	2	3	7	8	8	8	7	5	1	7	3	9	6	2	6	4	4	5	4	5	3	3	0	1	3	5	3	1	4	1	3	3	4	3	2	3	2	3	4	1	6	1	2	0	2	5	3	2	4	4	4	4	1	3	4	1	3	4	0	4	5	3	5	4	3	6	8	8	7	4	2	2	2	3	1	1	4	4	3	4	4	3	2	4	4	3	0	0	0	0	0	0	0	2	2	2	2	3	2	6	5	7	11	7	6	7	8	6	2	2	4	3	3	5	4	4	5	4	4	4	1	0	4	4	3	4	4	4	7	4	4	5	4	3	2	4	2	2	4	2	4	4	4	4	2	2	4	3	1	4	2	3	1	3	4	4	4	4	4	4	4	4	3	0	0	0	3	4	4	4	4	4	4	3	1	0	0	0	0	0	0	1	2	1	0	4	4	1	3	4	4	3	1	0	3	2	4	4	3	3	0	1	3	2	2	2	2	4	3	5	7	3	3	5	
1	0	2	3	5	7	10	8	7	8	7	6	6	4	1	0	2	4	4	4	2	3	3	5	6	4	4	9	22	38	43	40	32	17	14	7	13	27	20	8	13	14	10	8	7	11	11	11	8	7	5	5	5	8	14	22	77	98	55	4	15	7	18	19	23	25	103	102	11	81	101	39	33	75	87	41	6	7	1	3	4	4	3	0	3	5	7	4	26	84	102	48	7	16	8	11	8	6	2	18	21	46	78	52	5	9	7	5	4	5	3	6	4	4	4	4	3	6	8	8	7	11	10	12	8	3	4	0	7	7	3	5	3	4	2	5	8	43	97	87	38	13	17	61	96	78	28	7	4	7	4	3	2	2	4	1	1	4	6	5	3	4	3	4	3	1	3	4	4	4	4	4	5	5	3	3	7	4	4	7	6	4	3	4	4	4	5	8	8	7	5	8	5	4	6	4	1	3	7	4	3	1	2	2	7	11	9	1	8	14	14	7	3	3	1	0	0	2	12	15	28	107	144	101	19	100	137	51	8	1	5	0	5	5	4	6	7	7	7	9	5	7	5	6	8	33	61	70	57	53	77	104	100	60	22	14	10	22	52	85	96	84	75	80	111	132	102	53	63	91	58	29	35	21	8	7	8	14	26	21	67	112	115	97	78	76	80	86	50	9	52	81	80	67	66	79	97	100	80	30	27	53	59	80	92	72	35	39	38	80	165	263	321	332	314	289	280	293	319	356	378	377	373	367	365	355	325	275	224	197	193	205	221	223	202	162	107	47	10	20	13	9	20	41	58	66	65	52	35	20	10	7	5	5	2	2	1	5	10	11	10	12	8	8	4	8	5	6	5	5	6	5	4	3	1	0	3	3	5	7	9	11	7	0	4	4	2	2	5	7	8	7	1	3	4	2	2	1	4	5	4	4	4	4	5	5	2	2	7	7	2	3	3	4	3	3	2	3	0	0	3	4	3	2	1	2	3	3	0	6	1	7	5	7	7	4	7	3	1	4	3	4	0	4	0	0	3	4	1	1	4	2	3	4	3	1	1	4	3	3	3	2	4	2	1	1	4	4	3	3	4	6	6	7	7	4	3	3	3	5	4	5	8	11	7	2	2	2	0	1	3	7	5	4	4	4	4	3	2	3	5	7	5	4	2	2	3	1	1	2	1	1	3	3	1	1	3	3	1	1	3	7	8	7	11	8	8	7	5	4	3	1	4	4	4	4	1	1	4	3	1	4	4	4	4	3	1	3	4	3	4	4	4	3	1	2	2	3	4	3	3	0	3	2	1	0	4	4	4	4	3	4	2	4	4	4	3	0	1	3	4	4	4	3	1	0	0	0	1	3	4	4	4	4	4	4	3	0	0	0	0	1	3	4	3	3	0	3	4	5	7	7	5	3	1	0	1	2	1	1	2	1	0	0	1	2	2	2	3	3	4	5	6	4	7	3	
0	0	1	4	7	4	4	6	7	5	4	4	5	6	5	1	3	2	6	4	7	6	2	3	3	7	7	17	27	42	69	73	54	38	24	4	31	34	13	21	17	8	6	7	9	8	3	7	5	3	1	4	7	1	17	14	32	96	98	24	17	2	10	7	18	7	78	122	44	81	115	50	26	75	91	40	9	5	4	1	0	1	5	7	8	7	5	10	10	38	91	67	22	13	5	8	7	5	4	8	18	53	88	49	2	6	2	3	2	3	1	6	4	1	7	10	9	8	4	8	16	9	2	7	12	5	2	4	4	7	3	5	1	5	5	5	37	80	94	57	5	32	67	94	83	41	4	12	2	8	5	0	2	1	4	3	3	4	5	5	4	4	1	3	4	3	2	3	4	4	4	3	4	4	1	4	4	6	6	4	6	3	2	3	1	2	4	7	5	5	7	11	7	3	4	4	3	2	7	7	7	5	4	6	5	4	4	8	7	12	19	21	15	7	1	2	2	5	6	7	4	41	119	156	91	70	151	67	6	2	3	5	4	0	4	4	5	10	10	5	3	7	12	10	8	45	68	55	28	42	89	86	53	21	10	12	4	5	6	11	35	40	25	17	33	90	120	110	77	55	39	46	44	34	10	5	5	10	18	21	17	57	101	116	104	76	30	33	55	38	3	38	50	48	46	56	73	96	109	83	64	72	60	54	26	36	74	59	33	25	33	64	59	48	41	27	18	17	42	101	166	206	210	209	230	267	310	348	368	370	366	366	368	368	360	340	307	260	212	198	210	218	191	135	81	49	28	3	36	52	45	38	35	32	24	17	12	9	8	8	8	11	8	3	2	6	3	4	5	7	4	4	4	7	7	5	5	6	5	5	7	11	11	7	4	1	1	4	5	4	5	7	6	4	3	2	3	6	6	3	1	0	0	0	3	3	4	4	3	7	2	4	2	4	4	4	3	3	0	0	1	3	2	2	4	3	0	1	3	5	2	4	5	1	5	6	5	1	0	4	3	4	1	4	0	0	4	4	0	3	4	2	1	1	1	0	0	1	2	0	2	2	3	4	3	4	4	1	4	5	4	5	7	9	10	9	7	7	6	7	7	10	13	12	8	5	3	0	3	4	2	4	7	7	5	5	7	8	8	7	5	4	1	1	4	4	4	4	4	4	4	4	4	4	4	3	1	0	1	3	5	9	11	7	10	5	2	2	4	4	2	3	4	4	3	1	0	1	4	3	0	1	3	4	3	2	3	4	4	4	2	2	3	1	0	0	0	0	1	3	3	2	3	4	4	3	3	3	4	3	3	4	0	3	4	3	1	0	0	0	0	0	0	0	0	0	1	2	1	0	0	0	0	0	0	3	4	1	0	0	1	4	4	3	3	4	0	2	6	7	5	4	3	3	2	0	1	2	1	0	1	3	4	3	3	1	3	3	3	1	3	2	2	4	4	2	
0	0	0	1	5	7	5	7	7	4	1	1	3	1	5	4	4	2	5	10	11	7	4	3	3	10	10	15	41	53	31	35	58	62	38	48	53	24	20	27	11	4	2	7	9	5	2	5	5	4	4	4	4	2	8	19	10	52	106	68	3	11	10	12	18	13	61	128	74	56	117	72	4	68	98	53	5	7	4	4	1	3	6	4	2	4	2	2	13	38	87	63	21	14	4	5	1	6	9	9	24	74	88	35	4	5	8	8	8	4	5	4	3	2	7	8	4	6	17	42	45	33	10	9	8	10	1	4	3	3	4	0	8	12	9	39	76	94	69	19	31	76	94	72	33	7	8	8	5	4	5	8	6	2	4	4	3	4	3	0	5	4	4	4	3	3	2	0	0	3	4	4	4	4	4	4	3	4	4	3	4	3	3	1	0	0	3	7	5	3	1	9	7	1	1	3	4	3	7	10	9	8	11	25	52	74	64	25	13	19	19	31	39	31	10	5	1	9	5	3	7	14	34	128	155	18	146	106	7	10	5	5	2	2	5	2	2	6	6	2	2	1	8	15	5	31	84	82	46	73	56	28	11	8	6	4	5	8	7	13	9	8	7	9	15	21	51	74	71	46	22	11	26	32	17	12	9	10	13	13	10	3	19	41	49	53	55	45	42	36	13	14	21	25	22	19	14	38	82	89	81	75	58	76	53	80	104	73	53	50	30	42	52	49	50	46	48	51	49	37	18	9	11	15	2	35	86	140	184	203	203	197	191	192	211	236	266	288	292	304	324	340	352	345	322	311	294	242	153	65	17	25	54	69	65	54	47	40	33	28	23	20	17	8	3	5	7	3	3	4	2	4	4	5	7	8	7	5	3	4	3	8	9	8	8	7	4	3	4	2	3	7	8	5	4	4	0	8	7	0	0	0	1	3	5	4	3	6	2	6	4	4	3	4	4	2	5	4	1	0	1	3	2	2	4	3	0	1	4	4	0	3	4	2	3	3	0	3	4	4	1	3	4	5	4	3	5	4	0	4	4	1	4	4	4	4	3	2	3	4	4	4	4	3	3	5	4	4	5	8	7	5	4	4	5	7	7	5	5	7	8	8	8	7	7	7	9	11	11	7	2	1	2	3	1	5	7	8	8	8	7	4	1	0	1	3	4	5	6	5	5	6	5	4	4	4	4	4	4	4	4	7	8	2	11	5	4	4	3	0	3	4	4	3	0	0	0	2	4	2	0	0	1	3	4	4	4	4	4	4	4	3	0	0	0	0	0	0	0	0	0	0	0	1	2	3	1	3	4	1	1	4	3	0	0	0	0	0	0	0	0	1	2	1	0	1	4	4	4	2	2	2	3	3	1	1	4	3	0	1	4	4	1	0	4	4	0	2	2	1	3	4	4	4	1	0	3	2	3	0	3	4	4	4	5	3	2	2	2	2	1	0	1	3	4	3	
4	3	1	0	2	4	1	7	7	5	4	4	2	2	1	5	3	0	4	7	5	7	8	4	7	10	7	3	28	71	83	29	40	71	79	76	42	23	32	19	6	6	2	5	1	4	4	5	7	8	8	7	4	1	4	13	21	11	76	97	32	17	4	18	18	11	57	124	81	29	102	89	14	61	97	59	1	9	4	5	4	5	5	2	3	5	0	0	5	39	84	52	14	15	5	4	5	11	12	13	57	94	68	16	2	5	5	5	9	8	7	6	6	9	31	48	52	50	72	90	73	79	26	16	11	10	1	2	4	3	2	5	5	20	52	79	90	70	17	41	84	96	69	22	7	10	3	5	6	3	5	6	5	3	3	4	2	3	4	1	2	4	3	1	3	3	2	4	4	5	4	5	4	1	4	4	3	4	5	6	4	1	0	0	0	0	1	5	7	5	3	6	8	3	0	0	3	6	3	1	2	4	22	66	116	140	138	106	36	28	46	39	53	70	48	5	4	7	10	5	4	18	19	53	149	99	85	134	50	10	6	0	3	4	8	5	2	4	1	5	3	4	7	6	11	12	42	70	69	62	32	8	5	4	2	1	1	10	10	1	4	4	8	6	6	8	6	17	29	31	31	33	27	14	13	11	7	7	9	12	15	17	13	8	4	10	19	26	25	20	12	3	10	8	4	7	17	10	31	54	52	34	37	63	62	91	78	29	5	14	18	14	20	24	24	18	15	11	8	12	20	30	36	41	46	40	27	17	11	11	4	16	22	15	24	56	104	145	159	162	160	161	201	257	276	282	300	332	340	310	262	206	143	81	30	4	17	17	8	15	30	42	49	43	27	15	11	10	5	5	5	7	7	5	4	4	4	4	4	4	2	5	7	5	7	7	5	0	4	4	3	7	8	7	6	1	4	6	4	4	3	1	3	4	5	8	7	4	1	1	6	7	4	5	4	3	2	3	2	0	2	2	1	3	2	1	2	2	5	2	3	5	5	1	2	1	3	4	5	5	3	4	7	4	1	3	6	3	0	4	4	3	4	2	3	3	3	0	2	2	2	1	3	4	4	2	4	7	7	8	5	3	1	0	1	3	4	3	2	3	3	0	4	1	2	7	12	17	22	24	23	19	13	7	4	8	5	4	4	2	3	4	4	4	3	1	0	3	4	4	4	4	4	4	4	2	3	5	6	4	1	7	11	6	10	6	1	3	5	7	6	2	4	4	1	3	3	2	4	4	4	4	4	4	3	0	3	3	1	0	3	4	3	1	0	0	0	0	0	0	0	0	0	1	4	4	3	5	5	3	1	4	4	0	0	0	0	0	0	1	3	4	4	4	1	3	4	1	4	1	3	5	3	2	2	1	4	2	3	4	4	0	3	3	2	4	4	2	2	4	4	4	2	1	1	1	4	1	4	0	4	4	0	2	4	2	0	0	3	3	4	1	3	2	3	1	
7	7	5	4	4	4	3	8	7	4	2	4	4	3	3	0	4	0	6	4	0	8	11	4	4	5	3	6	13	33	85	72	12	47	52	29	41	47	25	6	5	7	2	4	2	2	3	3	0	3	4	4	4	4	5	4	13	11	40	103	77	8	5	18	22	9	59	119	77	19	97	99	17	73	104	55	10	12	4	4	6	8	8	6	4	4	7	8	10	34	85	58	16	15	9	3	5	9	8	52	95	91	39	5	5	7	3	1	4	5	4	1	4	19	47	52	78	93	99	82	65	104	69	16	3	1	6	5	4	4	1	6	34	68	90	89	63	10	57	101	100	62	18	7	8	7	5	4	1	6	7	3	7	5	3	6	7	3	4	4	4	4	1	0	3	4	7	8	8	7	4	6	4	1	4	3	4	4	5	7	7	5	3	2	3	3	1	3	5	5	3	4	7	4	4	4	3	4	4	4	4	5	27	71	97	74	104	153	115	22	58	78	68	99	107	52	6	2	9	11	9	12	24	8	85	133	44	95	106	44	2	7	5	3	5	4	1	3	5	4	9	12	7	24	48	55	31	10	28	31	17	4	6	5	3	2	2	7	9	4	1	2	5	8	6	0	1	5	9	8	4	2	7	13	13	11	6	7	7	9	11	12	8	8	11	11	6	2	6	11	15	9	2	5	7	4	7	7	3	14	14	12	31	55	65	63	32	4	11	10	4	2	4	9	8	6	7	7	5	11	10	7	5	6	13	20	22	25	29	26	20	22	32	39	33	12	25	61	72	60	44	30	24	65	69	19	27	108	220	301	344	375	388	364	303	243	234	243	231	193	145	88	25	40	59	46	30	24	16	10	7	5	5	7	7	5	6	10	10	5	1	4	5	3	4	6	10	8	4	5	0	6	5	4	6	7	5	2	6	7	5	4	5	4	2	4	6	4	3	2	2	1	2	6	4	2	3	4	1	0	2	5	4	1	3	2	5	1	6	3	4	7	2	6	2	3	3	4	3	0	2	3	3	4	7	7	5	1	0	3	4	3	4	0	1	4	4	2	3	4	4	4	4	3	1	1	4	4	3	4	4	1	0	1	3	4	2	2	3	1	3	4	5	5	3	7	9	11	12	18	28	35	34	22	10	8	4	2	4	4	4	5	6	5	4	4	1	4	5	4	5	2	0	1	4	4	1	3	4	4	5	1	7	4	5	10	9	8	7	4	3	2	3	4	4	4	4	4	5	7	8	8	6	2	2	3	3	4	2	3	2	2	4	4	2	3	3	1	0	0	0	0	1	4	4	1	3	4	4	4	3	4	4	0	0	0	0	0	0	3	4	3	1	4	1	4	2	4	4	3	3	5	5	2	2	3	2	3	4	3	1	2	3	3	2	2	3	3	2	1	2	2	4	4	4	4	4	3	4	1	4	2	3	4	4	1	0	0	3	3	3	3	4	1	4	1	
4	5	5	6	4	1	4	8	8	3	3	3	1	3	3	2	4	2	5	5	1	8	12	4	1	4	2	5	20	5	62	90	42	7	28	65	69	37	9	2	7	8	6	2	0	3	5	6	5	3	0	1	1	2	2	5	5	18	9	76	105	53	6	15	20	9	54	115	80	24	101	98	18	80	116	52	20	17	3	3	5	8	8	9	10	7	1	7	25	44	76	62	22	13	9	2	3	6	29	86	101	59	14	10	2	5	7	5	0	2	3	4	8	14	63	66	44	56	48	26	32	87	106	72	25	7	7	8	6	4	5	33	70	83	76	53	5	65	108	98	50	8	7	3	3	4	5	10	11	8	7	2	5	8	8	8	8	7	4	6	2	4	4	4	5	6	5	4	4	2	3	4	4	4	5	5	7	4	2	4	5	7	5	2	4	4	4	0	4	6	4	2	5	7	8	8	8	6	1	3	2	2	22	79	128	102	2	113	161	103	45	113	89	79	130	107	36	4	4	3	8	10	14	18	17	87	101	19	77	91	46	4	7	8	9	4	3	4	4	10	15	2	41	86	103	98	75	38	15	11	3	1	5	7	4	2	6	7	10	8	9	9	7	8	5	4	8	10	7	4	5	26	60	71	64	34	7	9	5	3	7	12	12	11	12	11	7	7	11	15	18	15	10	7	7	0	4	1	6	9	8	2	14	28	30	20	4	7	5	4	4	4	5	5	3	4	5	7	8	10	8	7	4	4	2	5	10	9	7	5	4	5	7	10	15	19	10	13	32	31	17	17	5	53	81	45	46	46	50	85	136	207	285	341	374	381	378	368	377	391	383	349	277	164	42	32	54	55	47	33	21	11	5	4	5	8	12	14	13	10	4	4	4	1	1	5	11	15	10	2	2	5	4	3	4	9	9	6	6	5	4	3	5	3	4	3	4	4	3	1	3	4	3	4	4	3	2	3	3	1	2	0	2	0	3	2	4	2	4	4	5	7	1	8	1	4	3	3	3	3	3	5	1	6	4	4	3	1	0	1	4	3	3	0	3	4	1	0	0	2	2	1	3	4	4	4	4	1	0	1	4	4	4	3	1	1	2	6	3	4	5	7	3	2	7	8	8	8	8	10	17	15	32	32	14	8	5	3	2	5	5	4	4	4	5	7	7	4	6	2	4	4	3	1	1	4	3	3	4	2	4	6	5	6	4	7	5	4	2	2	2	2	5	6	4	1	1	3	4	4	4	4	4	4	4	5	4	4	1	2	3	4	4	5	5	6	5	3	1	3	3	2	5	7	5	4	2	2	4	4	3	3	4	1	0	0	0	0	0	4	4	1	4	4	2	4	2	4	1	3	4	4	3	3	4	2	2	3	0	3	3	0	4	2	4	4	2	4	1	3	3	5	4	2	0	2	0	4	3	3	3	2	4	3	1	0	0	0	1	4	3	3	5	4	5	3	
0	4	0	2	3	0	3	7	8	4	5	7	8	7	5	5	4	3	5	7	2	9	12	5	3	2	3	4	18	14	45	92	57	14	61	77	46	7	9	4	6	8	8	5	3	5	6	1	7	5	4	4	1	1	1	2	2	13	17	24	85	95	44	12	9	10	36	102	98	64	101	79	16	67	127	71	17	22	1	2	3	6	6	7	10	11	9	15	30	59	77	52	17	8	8	3	1	6	36	99	85	23	7	8	6	3	5	7	4	4	5	7	11	13	53	97	62	15	4	10	2	33	75	79	39	2	4	3	10	22	18	74	88	62	39	5	59	108	94	42	7	15	6	2	4	4	4	5	8	10	8	5	6	11	13	9	8	8	2	4	4	2	3	6	5	3	1	0	0	2	4	2	1	3	5	6	4	4	3	5	4	4	4	2	3	1	4	4	3	6	4	1	2	1	1	3	4	4	6	2	6	4	6	33	104	144	93	22	131	149	65	108	98	22	95	120	64	11	4	7	8	3	7	11	11	21	74	90	34	57	83	45	8	3	3	11	13	14	13	16	32	64	101	115	95	92	112	93	48	12	4	5	5	9	9	4	7	8	10	8	7	8	7	7	5	8	12	10	5	1	8	50	91	100	127	109	72	40	11	5	2	8	11	11	14	11	10	15	18	17	18	12	11	11	7	4	4	3	4	4	5	3	7	2	0	3	4	4	1	1	4	7	6	3	5	8	4	2	4	5	5	5	3	4	4	2	4	1	0	3	3	4	3	4	4	15	19	16	12	14	10	15	6	45	76	66	70	72	43	5	11	21	18	69	139	187	195	183	200	246	300	362	413	407	312	181	88	31	14	44	51	43	39	35	30	28	26	19	15	11	8	7	7	5	2	7	4	7	11	7	4	5	5	2	3	4	9	6	1	6	3	0	3	2	6	4	4	3	1	1	3	4	3	1	2	5	5	4	4	3	1	2	0	3	5	6	5	4	5	7	7	5	3	7	3	2	3	1	2	2	1	5	3	4	4	5	1	2	0	0	1	3	4	3	5	4	0	0	1	5	7	8	7	5	4	4	4	4	4	4	3	1	0	2	6	7	4	6	3	2	5	7	8	4	4	8	8	7	8	12	27	21	12	32	21	5	6	2	4	3	2	3	5	6	6	8	10	8	5	1	6	5	3	4	1	3	4	3	1	1	4	6	4	5	4	4	4	0	3	3	2	4	4	4	3	0	0	0	1	2	1	0	1	3	4	5	7	7	5	4	3	5	2	4	4	3	7	4	3	4	4	3	5	4	0	0	4	9	10	5	1	1	4	4	4	3	1	0	0	4	4	3	4	1	4	4	3	4	2	1	2	3	1	4	4	4	4	1	4	4	4	3	4	4	1	4	0	4	1	3	2	4	4	4	4	4	4	4	2	4	4	4	1	1	3	3	2	2	2	2	2	3	5	3	6	6	
3	4	3	0	4	0	1	5	9	7	5	4	4	3	2	5	8	8	7	7	1	11	13	4	4	3	2	4	16	12	40	90	55	36	79	59	18	7	8	5	3	5	8	8	8	10	10	10	10	5	4	5	5	3	2	2	2	2	15	12	41	104	86	17	2	11	10	64	97	81	73	48	15	40	115	99	35	16	4	1	1	5	10	7	4	9	17	8	48	72	56	25	10	12	7	5	3	13	31	105	105	34	7	11	6	3	5	1	8	9	7	5	10	21	22	93	91	29	3	2	16	62	94	78	37	5	4	5	21	25	41	109	83	32	12	27	90	99	45	8	21	11	7	9	11	12	10	6	4	4	4	4	7	10	11	9	9	8	2	2	1	3	5	4	4	1	0	0	0	1	4	2	3	3	2	2	1	6	0	3	5	5	2	5	5	4	4	5	3	7	7	4	4	4	4	4	4	2	5	5	5	3	11	15	35	122	149	71	53	127	101	83	82	20	88	105	57	24	9	6	12	8	4	4	7	7	17	61	84	36	48	71	35	9	13	21	22	24	36	65	99	117	105	73	41	32	81	121	98	32	2	3	1	7	11	5	5	8	9	10	8	4	5	2	4	9	10	2	4	7	3	58	109	64	88	131	129	106	60	8	18	12	6	4	8	10	13	14	11	14	18	11	4	2	2	5	7	4	3	1	4	1	8	1	5	7	7	4	1	3	5	7	6	3	11	18	21	12	4	5	5	4	0	0	4	4	4	4	5	4	1	0	0	4	0	9	10	10	13	14	8	13	8	24	50	63	66	47	20	5	18	41	64	53	28	13	12	16	22	14	29	105	211	334	408	399	360	307	225	129	65	24	22	43	54	56	54	48	39	27	22	18	15	12	3	5	8	4	8	5	4	5	7	1	4	0	5	5	6	4	2	3	0	3	5	3	0	0	0	2	2	2	2	0	3	2	3	0	3	4	2	3	4	4	4	4	4	4	4	4	3	1	3	5	5	5	7	7	5	0	3	3	6	4	1	5	2	1	0	0	0	3	4	4	6	4	2	4	7	8	5	4	4	4	4	4	4	4	5	7	8	7	6	7	7	7	7	4	3	2	1	2	4	5	4	7	7	4	3	2	21	26	5	23	26	13	4	2	4	2	3	4	4	4	3	1	3	4	3	2	5	7	3	3	3	4	7	8	8	7	5	4	4	4	3	3	4	1	3	3	5	3	1	4	4	0	0	0	3	2	4	2	2	3	5	6	5	3	3	5	3	7	3	3	3	2	6	4	5	5	4	5	7	7	4	4	7	5	6	4	2	2	0	3	5	6	5	2	3	4	3	4	4	1	4	3	1	4	3	1	2	0	0	3	4	5	4	3	4	2	4	4	3	4	4	4	1	4	2	1	3	3	1	0	1	3	3	1	2	1	2	1	0	3	4	4	6	2	6	5	6	5	2	1	4	5	
4	4	4	2	4	1	0	1	5	7	7	5	4	4	4	5	9	13	12	7	2	11	12	8	11	7	7	3	17	44	69	83	30	65	81	33	2	7	4	6	4	6	9	10	10	12	14	11	5	1	0	1	4	4	5	7	1	2	7	20	7	80	105	52	5	2	3	18	51	50	36	25	12	16	80	113	81	32	5	1	2	2	7	11	13	7	12	16	22	80	103	80	45	24	2	10	4	20	14	82	126	81	21	13	0	8	5	8	7	8	7	5	8	23	5	71	106	49	9	9	39	91	93	55	18	1	5	10	25	9	83	119	63	9	7	40	88	81	27	18	19	10	8	10	10	11	11	8	4	1	0	1	8	9	8	12	11	8	3	4	5	7	5	2	4	4	1	0	0	0	3	3	5	7	7	4	2	5	9	8	8	4	8	8	10	9	7	7	6	8	7	4	7	5	2	3	6	4	4	8	5	5	1	22	16	67	141	113	18	57	80	74	51	33	110	93	35	16	19	13	7	7	0	3	4	5	8	5	48	74	21	55	44	13	12	17	14	10	20	50	74	73	51	20	14	31	31	75	108	58	9	1	5	3	10	7	5	8	7	9	11	5	4	2	4	11	11	4	7	9	8	34	111	122	41	43	88	121	113	47	1	10	7	3	3	6	3	4	11	11	10	17	10	10	7	5	10	8	4	1	3	2	6	3	8	6	5	4	4	2	5	6	14	26	31	37	37	38	8	6	7	4	1	2	2	4	4	6	4	4	4	2	2	5	0	8	7	3	4	4	3	10	8	9	14	16	16	8	3	6	19	9	20	32	24	23	23	46	89	117	115	86	43	56	179	282	348	389	404	377	336	287	228	167	121	90	62	19	25	47	52	51	50	50	48	38	20	6	5	7	2	3	8	3	4	1	3	4	9	8	8	7	5	3	3	3	3	1	0	1	3	4	4	3	2	2	4	2	0	4	4	4	3	1	0	0	0	0	0	1	2	1	1	4	6	10	10	7	7	3	5	5	7	7	5	4	1	0	1	3	4	4	3	3	5	7	6	10	10	7	2	1	4	7	8	7	5	4	4	5	6	5	4	4	4	4	7	5	3	0	4	4	2	3	7	8	5	3	1	4	18	25	7	21	26	13	10	8	4	2	2	1	0	1	2	2	2	1	1	2	4	5	5	6	7	8	11	11	8	5	4	5	7	7	5	5	7	5	5	6	5	4	4	4	4	2	3	4	5	3	6	3	4	5	7	7	5	2	2	5	6	5	1	2	1	2	1	6	8	10	15	14	12	12	10	5	5	11	19	15	11	5	2	1	4	3	7	5	3	2	1	4	4	3	4	1	0	1	3	3	0	3	3	2	3	5	4	5	5	4	4	3	1	3	4	2	1	2	2	2	2	1	0	0	0	1	2	2	1	2	3	1	0	4	4	4	8	0	8	6	1	4	3	2	3	4	
5	7	7	5	5	2	3	4	5	7	8	7	6	7	8	8	8	7	5	3	5	8	8	10	8	7	11	12	52	88	98	64	21	88	61	5	14	8	5	5	6	4	5	7	8	9	10	8	4	4	3	1	1	2	2	5	7	2	3	17	17	35	93	93	38	15	11	1	13	18	14	14	9	10	38	81	85	45	9	2	4	4	5	8	10	10	2	15	13	28	75	101	94	56	9	11	2	19	16	34	104	109	56	27	17	13	4	13	5	4	4	4	5	18	16	54	108	61	7	7	46	91	71	45	25	5	5	19	10	59	119	97	33	4	14	29	75	86	35	13	17	11	8	7	4	1	3	6	3	0	0	3	11	7	7	13	11	8	4	5	5	4	1	0	1	4	3	1	2	1	1	2	5	14	26	27	15	2	5	6	10	9	8	8	7	7	7	5	4	4	6	3	8	8	5	5	2	5	7	1	6	6	4	20	18	40	113	110	40	14	16	31	22	68	123	68	14	39	65	57	25	5	4	3	3	6	10	14	13	54	31	43	39	6	6	12	14	15	29	68	100	82	31	4	22	63	97	93	84	54	14	7	5	1	9	5	5	8	7	8	10	4	1	5	7	13	21	26	26	18	15	3	54	117	111	51	12	80	123	117	93	70	62	67	58	32	7	8	15	8	9	26	31	15	8	8	4	5	4	2	3	5	3	5	10	4	4	2	1	4	8	20	46	70	77	61	43	52	20	4	7	5	3	0	1	3	4	5	3	1	4	4	3	7	0	7	5	8	5	0	1	5	8	4	5	1	4	1	3	5	15	21	21	20	12	17	7	58	93	100	127	134	138	128	76	1	69	146	243	313	354	381	398	398	388	373	341	276	180	94	42	15	7	20	26	41	56	50	30	17	8	2	7	5	3	1	3	4	7	4	1	3	5	5	7	7	5	4	4	3	1	2	2	3	3	3	3	1	4	5	6	5	4	4	4	4	4	4	4	4	2	4	1	2	6	7	4	6	7	5	7	7	4	5	4	4	4	5	7	8	7	4	1	2	6	8	7	8	5	4	4	5	7	8	7	5	4	4	3	4	3	5	3	1	3	2	3	2	0	2	3	3	4	5	7	5	3	2	2	4	20	23	0	23	17	10	16	12	7	3	1	3	4	4	5	7	5	4	5	6	7	7	6	7	8	10	8	7	7	2	5	7	8	7	5	4	5	5	5	7	7	6	7	7	7	6	7	8	8	7	5	2	2	4	4	7	9	3	6	9	10	9	7	5	3	2	4	2	3	17	38	37	39	27	24	20	9	10	3	29	35	24	11	7	8	2	7	7	7	7	4	3	4	4	4	0	0	0	4	3	4	4	4	4	4	4	2	4	4	3	3	1	0	0	1	4	1	11	17	15	3	4	2	2	2	3	1	5	3	6	2	4	3	5	5	4	7	0	7	5	6	5	4	5	0	2	
5	5	4	4	6	3	4	4	4	4	3	3	0	3	3	4	2	4	7	4	4	5	4	3	1	7	11	23	75	86	56	33	73	78	25	17	14	5	4	5	5	2	2	0	3	4	7	8	6	5	4	3	0	1	3	4	7	6	7	12	19	7	47	104	85	20	11	10	8	7	9	10	7	11	12	69	92	48	10	4	3	5	5	4	2	7	6	9	15	15	6	50	102	96	38	4	5	11	20	10	59	91	55	26	28	27	6	14	5	4	1	0	0	16	13	54	103	55	10	11	22	73	105	109	82	37	24	18	38	106	109	50	9	9	11	16	62	87	40	10	19	13	8	7	7	4	4	5	2	3	4	5	11	4	8	9	10	11	7	5	4	2	2	2	2	3	4	2	0	2	0	0	7	26	38	50	49	15	6	4	9	8	1	8	4	4	6	4	3	0	7	11	15	16	8	4	4	2	7	7	7	10	13	17	13	33	94	103	38	9	11	14	1	75	133	61	57	97	105	107	65	5	7	1	3	4	7	12	12	48	26	40	38	5	5	8	15	21	25	44	91	124	97	35	34	80	72	71	61	34	7	5	2	5	7	3	3	7	7	8	7	5	7	11	14	17	30	29	25	24	15	15	25	75	100	59	8	32	77	119	138	134	129	131	123	101	55	76	91	74	32	41	70	72	38	4	6	7	7	2	4	10	10	11	8	4	7	4	6	14	13	43	87	90	93	79	67	66	22	3	5	5	5	3	1	0	2	4	2	1	2	1	2	7	2	3	10	16	16	8	2	3	7	1	4	1	3	2	4	0	5	7	3	10	23	34	31	81	100	47	69	94	113	134	146	136	110	67	12	49	93	147	207	261	310	349	376	398	394	352	304	272	246	231	215	165	74	15	46	43	28	10	7	12	10	4	8	17	22	20	16	11	4	2	4	4	4	3	3	4	5	10	17	18	12	7	2	4	7	7	7	5	4	4	4	4	5	7	7	8	6	5	4	4	4	1	3	5	7	7	7	3	3	4	0	5	7	8	7	5	4	2	3	4	4	5	6	7	5	5	7	7	5	4	4	4	4	3	1	4	3	4	4	4	3	0	2	0	3	5	7	8	7	5	4	1	1	5	7	7	20	20	7	23	9	7	8	12	12	7	4	4	4	4	4	5	7	8	7	6	7	8	7	5	5	5	1	4	8	1	7	7	6	5	4	3	4	4	5	6	5	4	5	7	8	8	8	8	8	8	5	4	3	2	4	4	7	6	5	5	7	8	9	10	8	7	8	9	5	48	89	102	113	62	17	32	39	66	125	178	183	148	88	41	24	11	10	8	3	5	7	0	4	4	3	0	0	0	3	3	4	1	1	3	4	3	1	4	4	0	0	0	1	2	4	5	6	27	36	47	29	4	1	6	2	4	2	5	2	8	0	6	3	4	7	4	4	2	5	2	2	2	4	5	2	1	
3	4	1	4	5	2	1	0	0	0	3	4	1	4	2	0	2	6	6	1	4	7	5	1	1	5	12	20	83	79	24	82	83	41	12	14	7	4	6	5	2	2	4	4	1	1	5	8	7	4	3	4	3	2	4	4	5	7	7	7	11	23	8	68	107	73	17	13	12	10	8	5	2	7	24	76	88	37	5	8	7	2	5	8	10	6	2	5	5	20	29	12	57	109	83	21	5	4	10	12	41	74	48	22	28	33	7	13	7	6	7	4	1	14	10	58	100	47	7	4	9	27	48	71	99	87	45	33	93	115	64	10	5	10	17	38	77	81	30	13	20	12	7	7	11	8	6	4	2	4	5	8	10	2	7	5	8	11	10	7	2	3	2	5	1	2	3	1	2	1	0	0	6	30	46	32	71	56	12	8	5	10	3	7	7	3	5	4	6	6	7	27	34	45	34	7	2	2	7	13	11	7	14	15	10	20	80	104	43	7	10	19	9	50	126	101	65	94	41	101	102	25	9	5	6	0	5	6	10	47	36	45	60	37	20	7	5	8	6	4	16	67	112	85	17	81	74	49	29	10	4	7	9	5	0	6	6	3	7	8	5	5	13	12	10	15	24	20	8	19	10	8	28	80	95	48	6	7	24	46	72	90	87	82	101	130	105	123	129	142	82	50	60	81	75	29	11	7	23	32	32	27	21	9	7	14	11	5	4	12	3	57	111	84	52	66	102	88	20	7	4	3	4	2	1	3	2	2	4	4	4	4	3	4	2	5	24	29	32	24	6	2	7	5	5	4	3	4	5	6	4	2	10	14	26	57	93	111	91	34	17	29	40	54	83	114	127	122	100	67	38	26	32	20	25	54	116	196	286	349	370	380	388	395	395	389	340	229	99	10	53	46	26	17	14	16	24	28	28	29	32	33	27	16	6	5	5	4	5	11	10	4	3	4	10	14	10	8	7	4	4	3	0	0	0	0	2	3	2	10	7	7	7	2	1	1	2	4	3	2	0	2	1	2	2	7	4	3	1	0	3	4	7	7	4	2	3	7	8	8	7	4	1	0	2	6	8	8	8	6	2	1	4	8	10	8	5	4	5	7	8	7	5	3	1	0	4	11	11	9	13	17	9	19	4	7	2	7	14	13	8	5	4	3	1	2	6	8	6	3	4	7	7	5	4	3	0	3	7	3	8	7	4	5	4	4	5	7	7	5	4	1	1	3	5	6	7	7	8	9	6	7	7	4	1	0	4	3	1	3	5	6	5	5	7	7	7	20	4	90	153	156	207	174	144	167	196	238	283	290	270	250	187	111	66	34	2	14	8	6	4	5	2	1	3	4	3	1	1	2	1	0	0	0	0	1	2	4	4	4	3	1	3	3	7	8	5	42	53	60	68	18	2	7	0	4	1	4	1	7	2	4	4	3	3	2	1	3	5	4	4	4	4	4	2	2	
2	2	4	4	4	3	1	0	0	1	4	5	4	4	2	3	4	7	8	7	5	5	8	5	4	5	11	7	67	83	71	90	53	10	6	4	3	3	4	5	3	5	4	5	3	3	4	7	8	7	2	3	4	2	3	1	6	7	4	5	8	14	18	18	80	103	57	3	14	9	6	2	0	0	23	70	80	36	11	13	15	9	12	14	15	13	10	3	10	14	11	24	7	80	111	60	8	2	2	3	28	60	68	60	52	42	3	13	8	6	8	8	3	11	12	49	98	54	7	11	8	1	4	18	64	105	111	105	110	80	20	13	20	32	51	74	79	52	9	17	14	7	8	2	11	11	7	2	4	3	3	7	5	2	5	7	8	10	8	7	3	4	1	5	4	3	2	0	0	0	0	1	2	21	58	50	42	84	41	4	4	11	4	5	7	3	3	4	6	14	2	51	70	84	100	71	44	24	10	16	8	5	10	8	10	21	65	90	55	43	33	28	15	17	79	116	69	46	72	66	90	51	17	8	5	8	4	2	4	37	53	13	65	87	70	34	8	5	8	10	10	12	79	115	45	52	102	114	89	28	1	9	11	4	10	11	10	5	6	10	7	4	12	14	12	12	13	15	14	9	8	2	23	78	92	61	38	20	15	17	19	28	24	20	38	87	82	83	68	122	127	64	50	59	103	59	14	45	74	87	83	82	85	73	47	21	6	5	1	11	10	45	119	105	32	36	112	111	29	9	5	3	3	3	4	4	4	3	0	4	4	4	4	4	3	13	37	32	36	34	12	5	7	10	14	20	23	16	8	6	5	1	10	11	20	43	70	80	46	7	32	33	21	11	13	27	55	70	76	64	38	25	55	76	109	111	74	39	15	87	137	161	183	203	224	292	373	405	352	215	60	39	58	43	33	34	64	95	104	92	67	30	11	32	27	13	6	4	7	11	11	60	102	105	62	8	13	12	7	4	2	3	2	3	3	1	1	4	3	8	5	4	4	4	4	4	2	4	4	7	7	4	1	3	2	8	4	0	0	1	1	4	5	4	4	4	2	8	7	3	3	2	1	3	5	7	7	6	7	7	5	4	5	10	10	11	8	7	7	7	7	5	4	4	4	5	9	14	8	8	5	12	4	13	7	8	5	5	10	12	9	9	10	8	5	4	4	4	4	5	7	8	8	4	0	2	2	4	8	7	8	7	2	4	3	1	3	4	3	2	4	3	1	2	2	3	5	4	5	10	11	13	16	18	17	15	12	9	7	5	8	6	7	6	2	4	1	22	8	113	213	142	204	230	242	272	292	301	278	220	188	218	206	144	96	66	28	22	21	23	14	2	4	6	5	3	3	2	0	0	0	0	0	1	3	4	1	3	3	4	4	3	4	4	7	13	8	47	78	38	90	43	1	4	3	3	0	3	1	4	3	1	1	4	6	5	4	4	4	2	3	4	4	5	3	6	
2	1	4	4	3	4	4	2	3	4	5	7	4	2	4	4	4	4	7	9	5	2	5	5	3	0	6	2	33	55	61	56	18	1	1	0	1	4	6	2	8	7	3	7	3	4	6	5	6	7	3	0	1	3	2	5	4	3	4	4	7	1	15	14	32	97	94	29	8	4	3	3	3	4	19	68	81	38	1	2	11	10	12	10	7	11	12	10	11	8	3	16	18	34	102	81	18	5	4	0	14	39	61	66	79	49	4	15	4	2	5	8	4	7	15	35	97	67	8	3	4	4	7	7	17	60	93	95	68	34	4	22	36	56	73	69	41	17	12	14	6	7	13	10	10	11	5	3	4	1	4	7	4	1	6	7	7	8	8	7	3	4	3	4	5	5	4	1	0	0	0	3	2	4	44	78	22	64	57	8	1	8	5	4	5	2	6	8	4	18	8	75	100	79	123	145	131	90	31	12	5	8	8	4	5	27	49	55	53	60	64	65	41	13	19	69	96	56	72	79	32	51	27	10	9	8	5	7	3	17	52	56	39	62	97	74	13	6	7	4	6	16	38	109	105	38	43	89	122	67	7	3	10	7	8	4	6	5	5	12	7	7	15	22	22	18	6	5	10	8	15	15	14	65	101	81	55	49	33	24	20	19	21	12	10	38	39	19	32	41	106	90	66	66	122	114	49	80	97	88	77	58	72	94	103	92	66	27	7	9	17	18	109	127	55	12	90	128	64	1	11	5	3	4	2	3	5	2	3	7	6	5	4	5	5	13	41	20	27	34	12	2	10	29	46	58	61	50	25	7	7	0	7	5	21	59	86	76	69	90	99	102	85	47	30	27	50	68	57	38	33	22	40	51	32	89	113	125	120	77	25	8	8	19	13	58	134	246	367	410	329	168	29	29	34	115	219	289	318	318	301	253	159	45	25	24	4	4	0	27	89	171	217	235	206	102	18	13	5	3	2	1	6	4	4	3	1	4	6	5	4	3	4	4	5	7	4	5	11	14	11	9	8	9	7	8	4	2	3	4	3	8	5	3	5	6	2	12	8	4	5	0	5	7	7	5	4	4	4	6	9	9	8	9	5	8	6	11	13	10	7	7	7	8	8	8	9	10	5	7	7	8	2	8	6	5	4	5	7	11	8	9	11	13	12	9	7	4	3	6	7	6	8	7	4	2	6	4	6	9	7	4	0	3	4	4	4	3	1	0	3	4	5	7	8	8	6	3	6	15	21	22	26	35	41	39	32	22	13	9	15	20	27	24	7	8	14	17	6	104	239	160	78	145	167	186	183	162	125	86	94	166	199	149	80	47	29	28	36	41	49	50	45	32	15	7	7	4	1	0	0	1	2	4	4	5	4	1	0	0	3	4	4	5	2	4	9	42	86	12	87	64	5	3	6	5	4	4	4	2	4	3	2	5	7	7	6	6	5	3	2	2	4	4	2	7	
2	3	4	5	3	2	4	5	8	9	6	5	4	4	4	0	4	1	2	4	7	5	8	8	7	5	2	5	11	13	23	16	6	8	6	7	7	4	6	2	9	7	2	6	3	5	7	8	7	5	3	0	0	4	3	5	8	6	4	6	12	10	4	20	5	60	106	81	36	9	1	4	2	7	17	74	85	37	6	4	4	8	7	5	4	8	8	11	12	7	4	8	21	22	89	85	21	7	7	4	3	9	17	73	96	42	12	11	4	8	8	1	4	10	19	35	98	67	10	3	4	7	12	7	10	12	24	27	17	8	2	34	61	67	59	32	5	7	9	7	1	3	5	8	3	8	7	7	5	4	5	4	3	5	2	2	6	11	11	5	0	4	3	1	4	5	7	5	4	3	1	4	1	4	20	63	63	58	50	12	2	7	8	8	8	10	11	8	7	14	26	89	97	50	47	86	114	120	61	2	10	5	7	6	5	29	40	38	21	0	28	78	90	50	18	9	66	121	75	38	47	23	42	18	13	10	4	3	1	1	20	63	97	48	69	107	44	8	5	8	10	15	2	70	131	93	24	47	127	107	14	12	11	10	2	3	4	2	2	9	10	6	29	56	66	54	31	15	16	24	24	42	43	12	76	79	49	53	53	24	22	20	20	14	5	14	39	21	42	27	37	59	53	59	109	152	114	82	97	42	66	19	29	31	64	94	111	82	18	14	23	22	72	126	80	22	48	125	109	30	11	8	3	4	5	12	19	29	37	36	24	12	2	4	2	6	34	32	32	26	10	1	19	41	51	55	50	58	40	11	7	0	7	4	1	26	76	108	112	101	83	89	109	81	31	18	74	83	53	20	10	18	15	50	46	34	82	102	116	107	48	8	10	19	13	15	7	35	145	297	413	404	286	205	158	169	187	170	209	270	324	358	342	229	73	15	18	15	45	131	206	239	209	193	246	189	67	7	4	2	5	0	8	4	4	4	2	2	1	4	4	2	4	4	3	3	10	19	24	24	28	36	38	25	21	15	5	7	7	1	7	9	5	4	7	9	16	18	11	10	12	12	13	12	9	4	4	7	9	12	13	10	8	7	4	7	8	15	16	13	10	7	5	7	8	7	5	7	6	2	5	4	3	4	3	3	2	5	8	13	12	8	5	7	10	11	8	7	4	4	1	1	5	8	8	8	8	4	5	9	8	5	5	8	10	9	7	5	2	3	5	7	8	9	11	11	8	7	17	22	22	17	18	26	34	40	42	34	18	10	16	25	32	46	39	27	19	20	48	98	186	185	58	21	41	88	74	41	21	6	60	157	227	182	77	20	31	53	55	47	54	73	81	67	34	6	5	4	3	1	3	4	4	7	5	5	5	3	1	0	1	3	3	1	6	5	5	29	70	44	61	68	17	4	4	3	4	3	1	4	1	2	3	11	9	7	2	4	1	2	8	7	8	5	0	4	
6	7	4	7	5	4	5	6	8	7	8	8	7	4	1	3	5	5	7	7	7	4	5	9	7	3	4	11	8	7	9	7	10	9	9	12	14	11	4	1	5	7	7	3	1	1	0	3	4	2	2	3	1	3	4	3	3	6	10	18	13	3	7	5	18	8	68	109	91	41	5	7	8	6	32	87	81	26	8	8	7	7	4	3	3	5	7	8	7	6	7	9	15	8	70	86	35	5	4	3	8	13	21	83	93	33	13	10	8	8	5	6	0	12	14	63	100	55	7	2	6	1	9	10	10	8	0	7	6	4	25	65	81	58	26	0	8	7	7	7	6	7	7	8	4	7	4	4	4	4	5	3	0	5	4	4	5	10	11	5	4	4	1	0	1	3	5	7	5	4	4	5	5	6	3	29	49	45	29	5	7	7	8	7	4	4	4	4	14	3	54	95	69	37	55	66	86	112	68	5	9	3	4	7	4	20	46	58	61	60	72	17	68	75	33	18	16	101	142	67	26	26	69	101	88	61	31	3	8	5	10	19	84	107	25	84	91	39	5	4	10	14	20	21	111	128	63	19	116	130	35	17	4	10	5	1	2	2	2	6	6	10	48	80	64	60	56	33	16	43	48	49	89	57	51	105	74	61	55	24	15	15	17	19	10	14	38	57	5	43	6	24	18	12	34	92	116	68	76	14	62	46	30	10	12	33	83	112	44	26	46	79	61	74	88	57	2	87	127	79	28	8	4	4	7	14	19	37	60	66	58	38	12	4	3	3	19	18	15	15	7	3	21	43	44	33	33	55	43	13	4	2	7	5	5	11	11	33	43	29	10	7	53	94	68	49	97	61	18	17	15	8	7	37	64	63	49	39	81	114	92	62	54	55	44	33	35	44	30	43	190	335	385	388	395	448	466	404	320	198	56	161	309	346	232	76	20	33	148	237	235	168	47	73	155	183	108	15	8	7	8	4	7	2	4	3	1	3	4	5	3	11	10	8	8	15	26	20	5	32	38	27	24	65	96	87	64	22	9	14	24	21	11	4	2	13	21	16	11	13	17	14	6	5	6	7	6	10	20	25	24	21	17	16	16	16	14	12	6	8	10	7	5	7	8	8	7	4	4	4	3	6	6	2	3	3	5	9	9	12	14	8	2	1	4	5	5	5	6	5	5	7	8	10	13	18	18	13	10	9	11	12	12	12	11	9	7	8	8	12	14	13	11	9	8	8	11	17	22	14	5	3	11	17	11	3	21	34	26	20	11	23	16	39	94	135	149	153	170	163	104	119	124	92	82	116	99	72	64	42	24	136	237	220	131	101	101	97	70	37	9	29	30	68	46	3	7	7	8	8	7	4	1	5	4	5	5	4	3	0	0	1	3	4	4	7	10	17	48	60	50	44	21	18	13	8	14	20	18	12	10	14	15	19	5	16	12	13	12	16	19	15	14	8	2	5	
2	10	3	4	5	1	3	2	4	4	3	7	6	1	2	6	8	5	7	20	35	49	62	64	49	25	9	7	3	7	7	4	7	7	7	7	4	7	5	4	2	3	4	4	4	4	3	4	4	5	7	7	5	5	7	9	16	34	60	79	76	42	10	17	5	11	8	50	98	79	20	10	7	7	41	89	76	18	13	12	5	5	4	1	1	4	6	4	1	2	5	5	11	12	52	96	68	19	7	7	2	14	14	65	96	77	29	3	4	7	5	11	6	19	44	72	75	35	4	5	3	5	3	7	7	7	5	8	8	27	66	90	66	22	7	13	9	8	8	8	8	9	10	8	5	7	3	0	0	1	4	1	3	4	3	3	4	6	8	7	7	5	4	3	1	1	3	5	4	5	7	8	8	7	7	2	11	10	2	11	8	3	4	2	4	9	14	14	11	22	85	94	30	42	100	134	127	92	43	5	5	2	0	5	11	8	11	60	103	60	68	97	64	60	28	15	13	39	114	132	92	100	110	122	125	121	99	43	5	5	10	12	24	83	89	16	72	89	42	14	12	2	18	12	70	136	111	20	99	143	57	15	10	6	5	6	5	1	6	10	8	11	55	88	30	43	51	48	40	23	75	67	85	118	24	103	129	81	45	18	11	18	25	30	27	25	31	72	50	40	23	21	25	11	1	29	66	51	40	17	31	46	40	30	21	19	49	121	78	28	73	70	90	63	53	55	30	36	99	112	73	20	5	2	5	11	21	39	44	22	52	59	35	7	3	6	15	17	13	19	9	5	14	38	57	62	57	49	30	8	4	3	4	5	3	11	11	8	8	12	17	21	8	70	62	65	86	28	10	4	11	15	19	44	70	63	33	2	42	87	112	115	118	123	122	111	107	110	114	103	66	58	138	211	269	385	513	590	627	597	444	217	102	210	258	195	85	117	241	241	136	36	91	124	98	146	134	40	27	31	30	26	19	10	7	10	12	11	8	4	6	9	4	21	33	37	17	56	138	205	247	260	255	252	233	196	166	116	88	79	93	105	98	68	46	46	45	39	36	36	35	33	30	28	34	42	41	38	42	43	46	48	40	33	37	44	40	23	7	6	8	7	10	8	5	5	7	6	2	2	6	6	2	3	5	7	12	17	17	19	20	17	10	9	5	5	5	4	6	6	8	11	13	15	16	17	17	18	17	17	19	20	18	12	8	7	9	13	17	17	15	13	11	9	7	5	10	20	20	15	17	22	21	18	14	14	20	40	50	53	52	39	31	60	90	92	85	77	75	14	99	202	261	224	177	183	188	184	176	152	92	67	180	206	160	130	102	67	48	50	12	39	9	72	74	31	15	9	8	6	3	4	4	4	1	3	4	4	4	3	4	4	3	5	6	3	10	8	15	31	46	27	28	60	74	64	51	31	1	12	17	16	19	28	2	25	13	10	2	20	17	14	19	14	8	8	
4	7	5	2	6	2	4	8	12	15	16	15	12	5	3	13	9	11	41	65	80	86	81	67	59	33	5	4	4	5	5	4	6	1	3	3	6	5	2	4	4	4	4	4	4	4	4	5	7	7	5	5	5	8	10	11	29	63	90	94	104	104	49	5	15	8	33	61	77	85	32	8	3	3	29	86	100	48	11	11	2	4	4	1	3	4	4	4	2	4	3	4	11	21	18	84	97	46	5	12	8	6	7	26	76	112	96	45	16	12	10	17	25	32	39	37	46	43	18	12	10	4	3	3	4	7	6	11	31	65	89	69	21	8	12	8	3	4	7	8	8	7	5	2	3	6	4	2	3	4	4	2	4	4	3	4	4	4	5	3	4	4	4	4	4	4	4	5	5	7	8	7	7	7	10	7	7	8	11	6	6	5	4	2	7	7	9	11	10	61	103	66	24	88	94	78	60	33	11	5	5	5	7	9	12	18	26	26	84	117	51	35	59	42	23	14	12	8	40	90	110	102	74	46	60	94	132	108	34	13	12	5	6	24	76	95	31	70	100	49	8	18	14	15	26	107	144	77	65	151	87	7	10	2	4	7	10	7	7	9	7	15	44	73	43	43	10	60	102	99	75	87	47	124	113	28	146	135	43	16	20	25	30	35	36	28	24	51	64	39	21	16	30	32	23	23	34	24	16	11	5	11	14	19	24	26	39	114	115	28	76	80	21	54	55	38	23	4	45	91	100	45	8	7	1	7	15	41	67	53	20	43	48	23	9	6	23	31	19	32	17	4	0	8	20	21	15	17	13	4	4	3	2	4	0	7	7	7	6	7	10	8	38	86	59	64	68	21	12	5	4	2	13	49	90	99	70	27	7	34	61	73	77	85	101	109	110	112	121	126	133	131	112	89	51	46	136	229	361	534	621	565	460	316	142	130	167	196	241	166	42	47	104	90	83	145	160	67	13	20	22	10	15	23	12	5	16	25	26	23	28	42	52	53	36	13	95	195	269	301	326	349	346	309	244	199	169	85	31	22	52	33	68	91	65	48	53	54	38	9	12	48	83	84	57	43	39	19	46	76	77	71	82	96	94	67	23	21	40	35	24	22	23	17	8	5	7	9	9	6	5	7	7	5	7	11	21	28	26	19	18	17	12	9	8	8	7	8	7	6	11	12	13	16	19	20	22	29	37	40	41	42	40	35	28	24	23	21	19	16	12	10	9	13	18	20	22	29	36	43	39	26	18	22	14	16	44	40	13	27	39	31	17	81	156	236	298	325	346	369	395	387	390	386	367	380	407	413	406	394	354	268	203	165	93	41	23	30	52	49	26	72	88	115	129	78	24	7	3	3	6	2	4	6	4	0	3	2	3	4	3	5	5	2	5	2	8	12	5	10	29	31	80	108	168	202	201	180	126	64	31	64	115	121	104	102	106	112	110	109	107	93	50	14	10	18	
4	6	10	11	27	40	36	25	15	4	9	14	15	17	14	5	22	53	74	78	66	47	22	45	63	37	8	4	4	5	6	5	11	13	10	7	4	1	0	1	3	4	3	3	2	0	1	4	7	6	2	4	1	7	7	13	46	79	72	37	52	100	106	92	62	38	79	95	89	62	26	7	6	5	5	53	91	58	10	7	4	4	3	2	4	5	5	5	4	4	3	7	8	17	11	48	103	81	22	12	16	7	5	9	24	65	104	79	30	18	13	4	33	51	41	19	20	49	37	9	12	4	4	4	8	8	12	48	75	83	70	28	11	15	3	3	0	2	3	3	4	4	3	2	3	4	5	4	4	2	1	1	6	7	4	4	4	5	5	3	1	0	1	4	7	7	5	5	2	4	4	3	4	4	8	7	8	7	7	4	10	4	3	1	7	12	23	36	60	96	87	8	77	98	53	7	7	5	2	4	7	8	8	7	7	6	21	29	17	71	99	55	6	12	12	9	5	9	4	18	34	28	18	11	9	19	84	140	99	23	20	14	1	7	11	67	100	31	79	113	70	17	4	5	3	58	133	110	19	124	121	48	2	4	1	1	4	7	5	4	16	33	39	40	23	11	22	53	60	89	76	64	43	66	134	82	83	153	97	27	23	27	25	26	26	18	13	21	42	35	11	7	14	18	22	35	36	13	4	0	5	3	2	5	10	15	23	80	128	110	47	60	73	44	18	22	15	6	8	72	117	62	11	12	3	5	4	10	41	59	48	20	35	36	20	1	33	44	25	45	31	4	3	4	11	11	2	10	10	4	4	2	5	10	12	15	15	10	5	7	18	37	81	110	83	99	95	45	16	10	7	6	7	20	64	107	113	72	24	2	12	18	19	19	24	30	31	31	47	59	71	86	113	136	147	146	136	117	56	140	365	518	565	543	427	199	72	141	145	100	31	33	106	152	150	180	184	122	136	190	211	184	117	53	55	48	37	14	15	16	31	42	29	24	95	182	262	295	272	215	163	127	87	57	126	233	303	318	337	348	367	361	286	208	195	192	170	143	179	211	207	167	105	103	151	179	189	239	301	339	350	349	351	356	360	345	282	171	53	22	44	54	55	49	39	35	31	24	18	13	12	11	12	17	19	24	33	28	14	18	18	10	5	3	5	14	26	34	37	37	37	42	51	56	52	44	37	32	23	8	2	10	22	34	37	37	41	45	44	40	38	40	42	41	40	41	41	40	26	25	108	173	198	190	190	238	284	288	244	182	161	191	238	295	358	396	399	397	397	366	298	217	210	263	307	348	391	418	439	477	525	541	517	465	393	320	238	149	57	18	53	94	92	76	119	93	41	10	8	15	21	29	35	30	18	7	5	7	8	9	5	4	3	0	3	4	6	11	7	12	35	20	123	182	195	257	284	289	266	210	177	240	289	300	303	309	313	306	302	311	313	275	194	78	37	54	
17	14	22	39	61	78	90	90	85	76	60	44	29	8	12	38	73	86	75	56	22	31	61	74	58	23	2	7	7	7	10	5	4	7	8	8	8	7	5	3	1	0	3	4	1	1	3	4	4	4	4	4	1	5	5	14	53	76	47	10	24	31	70	109	123	95	93	69	46	25	12	3	7	7	40	77	83	47	9	4	1	1	2	1	7	5	4	4	1	2	5	6	4	11	20	10	81	106	53	2	17	10	7	7	17	10	78	100	54	7	30	67	82	81	67	57	50	48	38	3	11	4	5	11	10	13	56	89	83	55	30	8	12	13	1	4	1	1	4	4	4	4	2	4	7	7	7	3	1	3	2	5	3	3	4	4	3	5	7	5	4	4	4	4	4	5	6	8	3	3	1	2	5	2	7	8	7	3	3	4	7	5	7	2	2	26	68	97	104	91	28	63	102	67	14	10	6	2	4	3	2	2	5	3	7	2	21	22	31	38	59	61	32	9	7	3	4	5	5	5	7	9	13	12	11	15	19	111	150	83	4	18	9	7	16	9	65	99	36	71	124	101	51	18	10	50	118	87	42	47	104	100	31	10	10	7	4	3	6	4	22	52	43	29	33	37	36	32	50	10	31	35	32	7	75	107	45	90	130	101	49	14	1	11	19	15	8	12	28	41	20	6	12	13	7	32	45	21	10	8	7	2	4	4	7	7	2	25	73	111	110	69	23	43	55	39	9	3	4	63	118	74	16	8	1	8	1	5	11	26	39	35	10	35	34	27	59	72	53	70	55	7	8	2	8	13	14	12	10	7	2	2	10	19	27	32	29	19	19	44	55	49	62	72	19	74	95	47	8	6	4	0	9	16	3	42	95	103	56	10	12	12	6	4	15	26	30	25	18	8	9	8	21	44	61	79	95	116	138	111	17	141	245	329	423	443	309	202	211	236	196	108	39	65	116	162	169	143	179	235	251	266	243	169	125	100	86	63	101	128	144	160	198	262	315	337	318	253	161	48	96	254	408	514	565	563	523	450	396	375	389	433	458	438	417	405	409	400	395	380	384	406	413	414	410	399	390	380	349	321	322	337	348	347	354	381	416	411	323	203	111	54	16	10	32	47	46	45	47	46	41	37	38	44	48	53	52	35	30	29	14	12	16	21	30	46	60	64	55	34	4	24	25	17	34	72	108	133	159	188	203	195	166	139	122	100	68	30	7	11	7	8	11	22	62	88	96	110	150	235	326	359	368	372	361	344	314	309	330	326	318	318	306	271	221	161	100	58	46	32	5	18	13	59	99	111	119	142	181	244	338	428	470	457	430	426	418	370	267	135	62	78	48	50	108	87	46	21	29	43	53	58	55	49	34	11	5	7	5	8	7	4	1	0	1	3	1	7	10	9	32	15	119	259	227	165	194	233	278	296	298	323	303	289	303	317	320	312	307	312	313	316	321	232	172	187	
69	68	69	71	70	55	58	72	87	101	106	101	92	77	63	78	82	63	39	21	16	68	80	53	20	8	5	6	5	7	29	55	68	66	51	26	12	17	11	5	3	0	3	4	3	2	4	3	1	1	4	5	4	0	4	16	53	86	63	8	16	2	18	30	71	74	57	37	7	11	7	7	10	38	82	92	64	23	3	8	8	8	8	8	8	4	4	5	4	4	4	2	3	5	16	10	42	106	98	30	13	11	2	4	14	7	66	98	70	76	101	109	100	79	55	41	45	38	23	1	9	5	7	14	6	57	99	88	44	14	8	7	8	11	2	5	4	3	3	5	4	0	2	1	0	4	6	2	0	3	1	4	7	8	7	4	1	1	4	5	4	4	4	4	3	2	4	10	9	6	4	1	5	2	0	3	4	7	6	5	8	9	1	12	9	56	94	94	79	33	50	104	77	22	5	6	4	2	4	3	2	4	7	3	5	4	14	32	23	19	36	54	45	18	8	3	5	4	7	7	5	6	4	4	3	12	19	48	140	146	66	14	13	4	4	10	5	63	107	65	35	112	121	83	34	60	116	46	43	49	26	106	80	10	8	5	5	5	1	9	17	62	53	13	26	37	28	28	30	37	16	21	12	5	20	73	84	20	77	133	118	75	47	18	14	21	11	9	14	37	31	18	19	16	2	19	40	33	22	17	15	5	3	3	5	2	4	2	11	39	69	89	86	54	34	43	17	2	5	46	108	107	68	40	23	8	4	5	6	8	18	35	25	12	34	68	99	91	64	91	88	26	8	7	4	6	8	7	5	5	0	4	11	23	21	14	27	19	29	63	55	22	48	105	78	74	108	56	19	7	5	5	1	12	22	9	48	104	89	22	21	22	22	11	31	49	52	41	6	10	14	30	24	15	7	16	22	20	42	93	121	83	29	36	175	338	415	448	472	493	490	432	309	165	103	87	118	122	120	141	77	131	179	175	156	154	157	196	258	301	339	366	379	372	335	272	176	52	87	257	440	569	599	539	463	390	293	180	105	82	83	120	194	236	236	238	278	302	274	218	212	260	306	312	268	225	201	151	72	11	9	42	59	56	66	108	205	331	403	400	358	304	265	223	167	125	107	70	22	16	29	26	14	48	63	57	43	28	15	34	64	76	76	62	33	9	24	57	116	185	234	256	245	227	259	300	327	336	330	315	304	308	316	317	310	294	271	244	227	223	218	208	204	235	279	300	305	305	307	307	277	204	168	184	175	119	54	52	113	161	168	140	90	32	12	40	62	74	66	36	8	40	65	78	80	58	27	26	48	76	98	116	125	130	151	206	285	365	408	363	259	167	88	76	99	61	31	16	32	45	48	41	26	43	42	14	3	4	2	5	5	3	1	2	1	1	5	7	8	6	16	30	104	266	267	105	49	98	172	231	246	223	165	125	120	124	127	128	128	125	125	177	282	304	285	261	
77	80	76	66	45	15	3	4	15	34	57	72	83	89	81	71	49	16	0	13	50	91	68	17	5	10	4	4	4	21	52	78	100	113	111	96	49	3	14	9	5	3	2	3	4	3	3	0	0	0	1	4	4	4	6	5	34	88	96	31	15	15	13	10	14	18	16	16	1	8	4	4	36	81	95	59	18	9	5	4	4	5	8	9	5	0	4	6	4	1	1	3	4	5	11	15	5	69	120	73	1	16	4	5	12	5	47	79	99	112	95	63	35	20	12	8	11	16	12	6	8	7	10	13	29	94	99	44	8	3	5	7	4	8	5	9	8	7	4	1	5	2	2	3	4	5	5	1	0	2	3	3	5	7	7	4	3	0	2	4	2	0	2	2	3	3	4	2	4	4	5	5	1	3	4	3	7	11	2	13	10	12	12	16	19	84	106	55	20	49	92	85	29	7	11	8	8	8	7	5	4	3	7	4	4	3	5	24	38	43	51	67	61	22	6	7	5	3	3	7	5	3	3	3	3	8	26	12	68	147	127	41	10	5	7	5	10	5	60	112	98	22	80	133	110	48	104	42	43	39	57	52	91	43	7	7	4	3	6	8	7	44	76	61	38	46	31	35	35	29	30	15	6	11	18	32	69	73	21	65	97	58	46	41	6	20	18	4	5	17	25	26	28	23	7	10	26	28	18	15	19	11	3	4	2	2	2	1	3	4	9	28	51	62	49	33	15	3	5	17	67	99	77	43	27	17	8	7	5	1	6	21	32	25	19	59	69	39	18	68	101	69	11	10	5	2	2	2	1	5	4	3	10	22	25	24	28	18	32	62	17	57	61	97	112	61	86	39	35	38	31	13	5	6	8	18	6	76	110	65	27	10	16	7	37	50	25	56	29	22	29	26	34	19	12	20	26	21	12	34	91	100	51	39	91	102	162	260	328	383	462	548	566	480	349	213	95	24	73	110	24	63	96	136	171	211	244	277	286	271	268	263	235	160	49	57	168	309	455	568	598	510	332	142	32	47	58	51	43	40	42	39	22	5	6	5	22	37	30	17	43	47	39	40	53	70	75	84	102	110	111	126	139	135	120	96	56	56	136	213	282	320	341	349	342	330	325	309	271	226	192	194	245	295	320	321	307	275	216	141	74	37	34	84	159	229	286	332	372	389	375	368	371	348	317	280	244	218	188	150	125	135	165	191	205	224	258	292	312	313	312	319	321	307	274	238	225	211	184	136	76	56	65	58	56	61	64	59	41	27	19	29	47	59	55	39	17	15	50	84	105	107	96	80	77	86	79	72	71	59	37	24	32	32	18	9	32	109	239	360	409	379	278	132	57	41	23	5	29	39	8	17	29	42	39	14	3	4	5	10	13	12	8	5	4	4	5	0	4	2	8	33	97	218	250	145	63	34	63	106	112	90	57	32	20	16	15	19	23	24	25	59	135	177	174	141	
28	30	27	20	9	5	5	7	15	17	4	16	26	34	34	24	16	7	8	35	79	88	38	11	4	10	5	8	17	38	57	51	35	46	76	119	114	60	19	9	7	2	4	2	0	3	3	1	0	0	0	4	4	3	5	15	11	54	104	61	6	12	7	4	10	4	5	8	1	6	8	25	77	97	66	17	11	13	4	0	0	3	4	4	3	3	4	5	4	0	0	3	5	7	8	17	30	20	101	98	17	18	8	7	11	4	25	36	47	41	22	6	7	3	8	11	10	7	6	7	11	10	18	5	61	107	72	4	13	1	1	4	2	4	6	5	3	3	5	4	5	0	4	1	0	4	4	0	1	4	2	2	5	7	8	7	5	3	3	3	3	3	0	3	5	5	7	7	5	4	3	3	1	3	4	2	7	9	6	11	9	19	49	73	84	103	85	24	49	86	85	48	10	10	7	2	4	4	4	4	5	3	4	4	5	2	1	9	22	36	54	83	94	69	33	6	7	10	7	0	4	2	2	3	9	20	32	45	12	83	145	99	21	6	6	7	1	14	5	38	100	123	66	41	119	86	47	70	34	53	61	60	48	54	25	10	6	4	5	2	5	7	40	77	79	70	56	20	23	15	26	17	7	9	10	2	29	65	73	69	103	73	44	31	18	2	17	17	7	3	11	22	31	27	12	6	12	23	17	8	14	13	6	5	3	2	6	3	5	1	6	5	8	15	18	15	8	2	5	4	23	69	78	41	21	10	13	18	14	9	5	5	16	29	46	76	85	77	72	49	53	84	42	6	11	2	5	0	5	4	7	7	5	11	18	25	22	15	24	67	60	57	61	29	83	24	63	82	100	94	82	46	5	14	10	7	10	29	95	113	71	21	11	6	32	45	19	52	34	28	39	8	21	38	46	47	51	57	44	17	83	99	40	49	75	43	20	45	44	49	117	252	413	506	517	492	444	347	249	171	63	28	83	111	135	171	198	191	146	73	12	83	160	258	387	497	564	600	582	487	331	143	27	98	106	96	76	45	24	17	17	22	27	31	33	36	39	42	40	45	78	96	112	121	114	101	85	71	54	39	38	61	94	118	129	135	144	147	130	91	49	41	83	134	187	217	244	292	336	353	350	348	348	329	325	346	366	370	365	357	346	343	347	365	390	396	396	385	349	275	179	133	143	141	105	58	16	14	24	25	22	16	8	9	8	32	65	98	116	120	123	132	134	107	55	12	13	15	36	43	20	17	47	59	55	42	23	14	17	24	27	29	31	27	16	14	44	76	94	91	69	38	15	5	11	35	50	47	35	21	8	8	17	19	18	22	33	35	27	134	269	385	427	333	148	14	36	38	20	28	37	43	39	33	24	10	8	7	8	10	17	19	13	5	7	6	1	7	7	5	8	35	79	158	221	181	112	76	39	29	33	27	17	7	3	3	4	1	1	8	13	28	53	53	36	29	
3	3	2	4	6	5	4	3	3	13	11	10	14	11	7	2	8	9	13	62	93	63	16	20	4	9	7	3	27	60	55	29	36	29	6	59	111	116	73	25	3	4	5	1	4	4	3	4	2	1	1	4	5	3	7	10	24	22	83	90	39	1	8	6	7	9	7	5	5	13	13	55	97	73	20	10	16	10	5	4	3	2	4	2	4	4	4	5	5	1	0	5	6	6	0	24	49	68	87	90	23	14	10	3	9	2	11	8	3	4	5	1	4	9	12	9	5	1	3	4	12	16	14	33	95	94	39	9	11	4	4	5	7	4	0	3	7	7	5	4	4	2	4	4	4	5	5	2	4	2	4	7	9	11	12	11	8	5	4	7	11	11	8	4	4	2	1	1	3	3	2	2	3	5	3	1	3	7	8	1	12	46	67	88	100	81	24	50	92	92	58	23	7	4	7	3	1	0	3	3	5	3	1	2	1	2	1	2	7	12	24	55	92	114	100	56	16	18	16	7	2	3	6	3	14	21	7	25	38	12	103	139	81	14	5	6	2	4	15	19	14	77	125	100	3	87	46	45	44	64	46	63	34	29	35	18	9	8	7	6	8	8	9	31	85	109	80	24	14	5	17	21	13	5	7	7	7	32	58	79	96	63	33	14	12	17	7	19	13	4	1	15	27	27	21	9	5	20	23	11	9	10	7	5	7	1	8	4	7	9	5	0	4	5	3	3	3	1	4	6	16	75	96	50	17	5	7	7	11	11	7	6	4	3	20	50	82	93	94	87	55	53	55	12	12	1	5	2	4	4	1	0	2	3	4	9	7	7	8	32	43	14	49	45	96	79	74	88	93	75	104	75	12	14	15	12	5	17	46	98	116	83	29	34	41	12	29	25	31	66	51	24	33	69	85	96	94	80	70	32	77	70	45	47	40	43	40	38	38	56	57	19	72	184	286	378	448	490	507	474	384	270	192	168	162	153	152	174	218	282	378	475	546	586	600	578	528	437	289	133	31	39	82	49	37	74	61	29	17	17	15	13	10	5	6	13	17	24	38	55	84	79	39	38	36	25	14	8	4	1	3	11	23	40	64	86	100	102	99	97	92	87	84	65	37	18	15	24	73	117	147	145	113	64	31	42	69	104	157	223	295	350	372	358	309	236	179	138	86	26	72	94	76	52	41	48	55	50	37	23	12	9	13	21	22	21	22	29	38	42	41	39	38	40	43	43	33	24	41	38	40	37	17	22	23	19	12	10	10	15	17	17	13	5	34	66	89	86	61	33	7	11	15	15	12	5	6	3	5	10	5	4	2	10	14	7	7	10	18	1	55	154	297	405	371	227	75	41	52	21	13	18	19	17	10	7	4	1	8	14	8	7	12	10	10	7	4	8	3	4	8	35	58	116	202	208	145	95	46	9	3	2	1	3	7	13	17	20	22	18	14	29	48	56	55	49	
4	4	3	3	5	5	2	1	3	6	6	5	14	9	4	4	7	9	26	81	88	31	16	20	8	4	8	9	41	70	40	28	28	18	17	7	37	92	109	77	26	1	0	7	7	4	3	7	2	4	4	4	7	1	9	8	15	10	46	106	83	17	9	5	9	7	3	5	8	13	13	77	104	48	7	14	8	4	2	3	4	1	5	4	7	7	4	5	7	3	0	5	5	3	17	50	63	76	77	58	15	7	10	4	10	5	5	8	4	5	4	10	10	8	7	5	4	5	4	10	7	11	19	82	107	61	12	9	8	4	4	4	5	8	7	4	2	2	1	3	4	0	3	5	7	8	9	7	4	3	7	7	7	4	1	0	2	6	1	7	7	9	11	8	4	4	6	4	2	4	6	5	5	4	5	2	2	3	4	11	9	63	87	51	41	20	48	92	91	60	27	12	7	3	6	2	1	2	5	3	4	4	4	5	5	2	1	4	2	3	8	10	36	77	114	114	61	5	15	13	8	4	6	3	10	24	31	23	15	23	33	121	131	60	4	7	4	4	5	9	18	5	52	115	109	15	73	48	24	48	73	5	49	26	15	15	11	10	5	4	4	2	13	14	43	118	116	47	9	13	7	21	19	7	7	13	10	18	31	44	47	33	11	10	6	16	10	10	13	8	11	15	18	22	25	15	5	17	23	15	8	7	6	5	8	4	7	7	3	5	4	2	4	7	5	4	3	3	5	8	15	78	98	42	25	16	3	13	11	4	9	12	13	15	13	3	15	27	34	44	59	30	34	46	24	4	2	5	1	5	5	5	7	8	8	8	3	5	10	16	49	47	67	59	76	63	18	13	21	31	118	92	15	12	10	14	10	18	26	19	84	108	59	36	25	27	34	15	47	48	48	60	70	71	56	64	66	72	74	52	68	29	16	15	6	31	40	25	4	8	14	36	45	31	10	43	102	216	360	476	543	563	563	559	554	552	557	571	586	596	598	574	527	458	351	228	134	67	1	36	27	18	62	75	81	66	34	11	11	15	15	14	12	5	1	2	7	13	37	69	89	64	19	8	13	13	10	10	8	5	5	7	4	3	7	17	21	16	9	6	9	18	29	35	41	49	62	73	76	67	57	60	77	94	105	108	105	92	62	22	28	46	54	53	44	28	51	73	97	122	124	89	59	46	36	30	25	20	16	12	10	11	12	13	16	21	27	32	36	39	39	36	32	26	15	2	7	20	46	52	50	58	41	32	28	24	21	21	23	21	5	18	40	66	94	104	85	50	17	6	13	14	10	8	11	12	13	8	5	8	4	4	7	10	10	7	4	5	8	15	19	21	79	217	350	401	328	173	38	30	49	45	37	26	15	10	11	10	6	8	14	7	19	36	32	12	7	11	7	9	11	32	39	76	184	241	179	93	36	13	17	23	24	18	14	20	29	39	46	45	34	24	40	60	67	44	
4	2	4	3	6	1	4	2	1	5	4	3	12	12	13	10	5	7	38	68	68	55	42	21	4	10	14	5	33	75	81	46	21	7	5	14	14	28	85	110	75	19	7	8	2	3	4	6	2	6	4	3	7	2	10	11	4	28	16	87	105	31	6	4	3	6	3	7	3	14	34	89	97	31	13	10	2	7	7	5	4	0	7	4	5	6	2	3	7	5	5	4	4	26	63	77	66	50	43	24	4	0	10	9	8	12	5	10	7	4	2	9	9	9	5	4	2	5	2	11	8	17	67	107	81	24	2	7	4	0	0	0	1	4	6	5	3	1	0	1	4	3	0	3	4	5	8	8	7	7	5	6	4	2	4	4	4	5	1	8	4	2	7	9	5	2	2	6	4	9	8	9	2	4	3	3	2	5	8	14	2	66	101	58	7	38	89	89	42	8	4	9	2	8	8	4	4	3	7	5	2	2	4	4	6	8	5	5	3	9	13	12	20	6	57	115	125	88	34	3	13	8	1	4	2	5	14	19	13	21	13	67	131	98	27	4	2	3	7	4	7	19	14	34	99	100	24	51	90	108	138	101	7	41	29	9	9	10	4	1	2	1	5	20	4	83	134	85	13	12	9	14	19	12	10	12	10	14	20	17	23	29	23	15	7	10	9	6	9	17	15	10	12	19	20	17	14	16	14	14	14	10	7	5	8	8	5	6	4	5	2	1	3	5	7	7	5	8	3	11	4	65	98	74	60	41	22	17	17	11	7	5	10	10	7	8	9	6	8	6	19	36	43	71	73	35	15	19	18	5	2	3	4	8	12	12	10	5	11	18	72	66	52	37	39	71	49	74	90	65	84	98	38	15	11	16	35	57	88	90	67	75	53	20	38	46	29	22	48	55	34	45	55	33	10	1	21	59	65	65	58	30	21	16	12	9	2	10	9	10	16	11	13	25	42	55	57	28	46	135	254	364	430	458	470	473	470	467	459	428	359	260	161	88	28	24	50	52	42	20	16	8	27	39	34	20	12	5	1	4	7	12	12	7	3	4	1	13	52	78	69	37	16	13	15	16	15	16	15	13	12	12	10	3	7	12	8	2	2	7	12	14	10	2	4	2	7	14	20	27	36	37	32	32	36	38	36	29	23	38	74	108	121	129	132	128	128	132	132	118	84	42	20	16	17	18	18	20	23	24	24	24	23	22	24	26	23	17	13	12	11	8	4	2	6	5	4	13	40	70	74	58	36	24	21	19	16	12	2	20	59	89	104	104	93	63	27	4	9	13	12	10	8	8	10	11	11	10	10	8	4	4	5	1	18	43	64	76	80	74	58	42	20	31	128	279	401	404	300	162	49	17	47	57	52	37	12	26	58	66	45	38	73	88	92	48	5	10	11	14	16	31	31	68	180	253	192	82	28	25	36	44	43	36	22	19	30	35	42	52	52	30	18	56	79	54	
4	2	3	1	7	8	8	8	3	6	6	4	10	12	12	12	8	20	34	33	69	97	93	79	69	57	33	7	17	50	86	93	50	2	10	7	16	13	25	89	112	60	1	12	4	5	4	2	2	5	4	3	5	4	10	10	5	27	16	86	107	31	6	4	1	5	7	10	15	40	60	85	77	15	15	3	8	8	5	5	3	3	7	3	5	4	3	4	7	5	8	19	39	71	86	71	49	30	15	9	6	6	14	18	14	21	2	10	8	5	0	11	14	9	8	5	2	6	5	6	17	57	97	93	41	4	7	4	0	3	3	2	2	1	1	3	4	2	3	3	2	4	2	4	3	4	7	5	4	4	3	4	4	5	4	1	2	3	2	6	4	4	4	5	8	6	3	5	9	8	3	7	7	8	8	8	4	5	11	2	41	101	106	41	26	75	96	58	6	11	7	13	4	12	8	7	8	3	5	4	4	3	1	3	2	2	9	7	6	10	7	1	14	23	8	50	111	141	117	56	6	16	11	1	3	5	7	3	10	12	15	27	106	118	48	1	4	3	5	4	1	7	19	18	21	82	106	73	52	58	114	159	104	12	26	17	8	7	4	4	4	4	4	11	15	36	116	125	73	19	4	4	19	21	15	14	13	13	14	4	11	26	22	10	5	8	8	8	9	18	14	5	9	15	15	20	22	14	6	7	11	9	7	4	4	7	4	3	2	2	2	4	2	2	6	7	7	11	6	8	7	33	77	90	78	72	39	15	15	2	15	20	13	5	7	8	8	6	3	11	0	46	75	50	92	83	37	25	29	20	2	1	17	33	40	34	22	24	32	22	75	75	14	52	19	44	27	82	81	86	2	98	107	85	80	83	93	101	112	127	124	101	75	52	54	43	20	21	45	72	89	55	13	5	10	14	9	33	42	38	25	21	19	17	12	7	1	11	5	7	4	2	2	5	10	9	21	29	39	33	10	18	41	64	86	99	96	83	70	50	18	20	42	46	35	18	10	8	4	3	16	12	4	0	4	7	9	5	1	3	5	11	11	5	12	24	40	61	85	87	51	14	7	9	12	14	8	7	10	12	9	10	10	11	7	3	7	6	8	8	2	2	7	11	7	2	0	1	2	1	5	7	8	4	4	9	14	16	14	13	18	39	59	74	88	96	97	91	76	51	28	12	10	9	13	13	16	19	19	17	15	13	13	15	16	14	10	8	8	7	7	7	4	5	9	16	22	24	29	34	35	25	17	13	13	8	17	37	60	86	104	96	78	55	28	7	10	11	12	12	10	10	8	7	7	7	5	8	12	9	8	10	16	47	86	113	129	137	142	148	148	132	97	53	8	68	195	329	405	394	312	203	106	30	32	72	75	110	133	127	107	78	104	93	128	102	42	16	7	13	8	23	53	101	167	217	184	101	55	45	48	45	38	33	18	10	25	28	25	20	36	38	10	38	73	72	
5	7	4	5	6	7	4	7	7	7	7	2	3	4	5	7	12	29	29	27	50	66	80	89	102	116	104	57	14	18	52	77	61	17	7	11	2	15	14	38	108	105	38	5	8	7	5	3	1	4	4	1	4	2	8	8	14	7	54	105	90	19	10	4	3	4	12	12	42	69	70	65	45	10	10	2	8	4	5	5	4	4	5	1	4	7	8	7	9	7	10	37	72	86	64	31	15	8	4	7	10	7	26	37	30	38	9	9	8	7	5	13	17	4	7	0	2	3	8	5	44	82	92	55	11	4	6	4	1	3	2	6	3	4	1	0	3	3	4	4	2	4	6	4	1	4	6	4	2	0	0	1	4	7	5	4	0	4	5	0	6	6	1	4	7	7	6	7	7	2	5	4	24	32	21	10	3	7	15	46	96	108	50	38	90	98	70	23	4	5	3	10	8	11	8	7	12	5	4	1	4	4	3	4	5	6	8	7	4	9	12	10	3	8	18	16	22	79	135	130	66	8	23	17	9	4	1	6	6	5	10	10	82	137	83	8	9	1	2	4	1	2	1	10	15	6	63	116	133	104	15	107	161	106	32	8	2	1	5	4	0	3	4	2	10	2	60	121	128	76	10	13	26	42	39	24	14	12	14	4	15	27	33	14	8	11	10	8	7	14	16	8	4	9	18	26	25	15	6	5	6	8	10	5	3	3	3	4	5	6	4	1	3	2	4	3	7	12	7	5	8	6	30	55	82	98	65	72	83	67	30	16	25	14	17	18	11	14	10	5	9	40	89	63	55	93	44	8	17	26	12	13	40	70	95	105	95	93	98	94	74	67	21	57	70	65	57	90	46	62	67	62	110	118	117	111	95	72	57	63	72	66	48	30	25	21	20	28	34	61	110	70	5	12	5	5	6	11	13	6	3	11	10	7	7	4	2	8	9	7	1	3	4	6	9	4	9	2	5	5	22	38	47	48	43	37	36	38	40	41	43	38	28	14	1	10	13	14	16	15	9	10	4	4	7	8	5	3	2	3	1	11	30	49	71	90	101	106	101	73	31	7	2	4	5	11	8	6	8	11	8	7	5	11	16	17	14	9	8	11	11	13	15	11	7	7	8	8	8	6	2	7	5	10	6	15	13	10	16	19	20	4	6	11	20	29	31	22	13	8	5	5	7	7	9	6	7	8	7	5	5	8	11	11	8	5	5	7	8	7	8	8	11	13	17	23	28	29	26	19	16	14	8	2	21	50	78	93	96	88	63	28	3	5	9	13	12	8	8	8	10	10	8	7	4	3	2	7	10	7	5	15	56	106	125	112	92	78	72	87	120	149	158	133	88	47	6	88	212	331	394	387	335	268	174	50	87	152	138	118	120	82	75	40	96	127	96	65	39	25	15	37	95	132	121	138	184	159	101	65	47	27	28	33	18	4	19	29	39	31	8	30	28	16	39	35	
8	9	9	7	7	7	7	14	10	8	7	3	1	4	4	3	7	27	27	8	32	17	24	32	43	70	114	118	69	84	73	41	56	33	8	7	8	1	17	3	61	116	92	26	15	10	3	4	4	4	4	2	6	5	15	31	30	41	83	90	48	4	10	4	5	7	15	5	69	95	62	40	19	2	3	3	5	5	7	7	7	7	5	4	4	4	4	7	13	12	13	64	86	53	21	3	10	10	8	4	6	7	38	50	27	55	21	6	7	7	11	17	14	3	7	5	4	3	7	20	66	87	61	14	7	7	2	4	1	4	1	8	3	4	4	1	2	4	2	4	4	4	8	4	1	4	5	3	3	4	4	4	4	5	2	4	3	3	2	5	2	2	5	4	4	5	1	4	4	8	8	24	49	41	48	24	15	34	68	95	94	34	59	112	108	70	28	3	1	1	0	6	10	8	7	4	11	5	5	4	4	3	3	4	0	4	7	3	2	2	4	5	7	4	7	21	27	4	60	131	134	70	8	22	23	13	5	6	14	28	32	29	51	144	141	47	11	6	2	3	3	2	7	9	4	16	9	42	108	152	133	30	100	151	100	32	5	4	3	4	4	3	2	3	1	11	4	46	121	127	50	18	33	50	82	75	44	22	18	10	19	15	38	27	21	22	21	17	14	12	17	10	6	4	11	25	27	16	10	7	2	8	13	6	2	1	3	4	2	3	3	2	4	0	6	2	7	12	8	8	10	9	11	12	56	94	77	88	97	112	96	51	28	43	62	75	65	15	11	17	45	68	80	63	20	88	63	9	5	25	21	17	60	79	71	88	95	96	98	107	96	69	44	44	48	42	55	100	115	98	77	37	40	55	60	57	44	24	15	10	11	11	7	3	5	7	11	10	12	72	111	67	5	12	5	3	3	7	6	7	2	7	14	14	15	15	13	12	12	10	8	4	4	2	7	1	7	4	5	7	6	9	11	7	10	13	12	6	5	6	10	5	4	7	9	7	8	14	16	20	20	13	5	1	7	7	3	2	11	18	25	53	89	113	116	107	93	73	49	25	10	7	4	4	2	7	10	10	7	8	10	9	9	12	16	18	15	9	7	8	11	12	12	8	7	7	7	5	4	4	4	7	9	9	4	14	19	23	25	22	14	5	3	4	4	7	6	3	1	6	8	8	8	7	7	4	4	4	5	5	5	8	7	7	4	5	7	7	4	4	5	11	15	17	21	23	20	16	12	5	6	14	28	55	85	103	100	79	53	27	5	15	18	14	12	9	7	4	4	7	8	4	4	5	4	4	5	8	12	7	10	49	103	114	76	35	14	3	7	6	16	49	101	145	152	127	90	53	3	84	186	273	317	335	338	294	206	137	76	84	105	78	25	26	31	90	94	69	46	23	26	52	115	132	53	64	157	174	118	82	56	31	36	33	15	5	9	15	27	35	24	13	45	56	67	89	
4	5	7	7	7	4	20	22	18	19	11	3	3	3	5	2	1	20	38	27	50	40	7	0	14	7	53	110	110	104	58	16	54	51	7	5	2	7	3	14	9	77	123	83	20	7	8	8	8	7	4	3	11	11	14	21	12	74	99	59	11	10	5	2	6	11	4	42	100	100	43	17	9	4	3	1	4	4	4	4	4	4	3	1	0	0	0	5	13	17	11	76	90	32	7	7	8	11	16	8	1	4	38	58	11	55	26	2	8	14	15	13	7	1	5	8	6	5	7	29	77	80	36	7	8	7	4	4	1	3	2	6	4	0	4	3	2	0	2	3	4	4	6	4	4	4	1	6	7	5	5	6	8	7	4	4	3	3	2	3	5	4	4	4	5	7	3	6	2	12	8	45	63	36	82	24	55	87	102	86	24	58	100	83	39	6	5	2	1	4	7	8	8	7	5	4	8	7	8	7	4	1	1	4	4	4	2	4	7	8	7	7	6	4	8	10	15	22	7	61	128	139	101	47	3	17	15	17	35	62	82	93	39	87	166	102	9	11	5	2	5	3	6	2	4	4	11	17	13	77	139	139	47	79	123	75	16	7	4	5	6	3	4	4	7	11	21	11	65	136	116	20	58	62	91	132	117	85	57	26	7	8	18	30	26	22	24	23	20	14	13	10	5	12	17	23	24	14	13	10	3	6	11	8	7	6	5	2	0	0	1	3	5	5	3	4	4	7	7	8	10	7	6	4	21	58	62	60	46	82	109	113	88	51	72	67	107	69	14	39	69	70	37	35	54	54	56	67	65	67	73	65	72	85	48	19	28	29	24	30	40	38	24	14	10	7	12	37	62	64	40	13	5	4	4	4	11	8	8	6	5	7	4	1	2	6	6	10	47	91	96	45	15	27	23	18	17	15	11	7	2	5	8	8	9	12	15	15	10	8	12	10	10	9	10	7	8	11	11	12	12	13	13	8	2	2	4	5	5	5	10	14	15	12	10	6	9	12	6	4	2	18	45	64	65	53	45	55	67	67	56	75	98	91	74	51	33	19	6	2	4	7	3	2	4	7	9	9	5	4	2	7	10	11	9	8	7	7	5	7	8	7	5	5	7	8	7	5	5	7	8	10	14	13	8	10	17	18	14	12	10	7	8	10	7	4	5	5	7	7	5	5	7	7	5	4	4	4	5	7	7	5	2	5	8	11	11	8	7	4	4	8	8	7	8	4	16	32	45	55	66	78	88	97	96	76	45	16	2	9	12	10	8	9	9	6	4	4	1	8	13	5	2	3	7	7	5	7	16	6	37	96	114	67	10	14	17	17	20	20	21	15	12	58	108	143	148	132	109	75	19	67	141	182	225	313	392	347	182	39	47	68	38	27	29	43	70	76	52	7	23	48	110	117	11	30	99	141	77	70	78	68	44	27	27	29	26	23	18	21	33	43	66	100	145	208	
2	3	4	3	1	10	24	16	12	22	11	5	4	0	7	4	7	14	55	38	49	59	20	1	4	17	8	41	64	60	66	47	49	61	5	9	3	3	7	5	18	19	94	125	101	52	7	14	12	9	10	14	10	10	36	61	72	87	93	46	1	7	6	4	5	12	31	89	112	71	12	9	5	4	3	1	4	6	5	4	3	0	0	0	0	0	1	4	11	16	16	72	77	33	12	1	7	5	15	11	2	2	26	54	35	52	24	6	7	10	11	8	4	3	3	7	11	4	4	34	78	73	26	5	2	5	3	1	0	1	3	4	3	2	4	4	1	3	3	0	3	3	2	3	4	3	3	3	2	3	2	0	6	7	7	4	1	1	2	2	2	4	3	4	4	5	2	7	4	15	1	63	66	54	97	19	107	109	63	18	62	78	41	36	46	32	17	10	9	12	11	8	5	4	3	4	5	7	8	7	5	1	0	3	6	4	4	8	5	5	7	7	4	5	5	5	5	13	23	8	49	111	148	139	84	21	25	40	68	90	101	144	143	65	123	121	30	7	5	3	6	3	5	7	6	5	0	14	21	4	58	123	135	67	89	90	30	4	7	1	5	6	3	4	7	6	7	17	13	93	154	101	35	112	62	95	132	135	114	67	19	8	7	12	15	12	5	4	10	7	5	8	8	12	18	19	15	10	14	14	5	4	4	9	9	8	8	7	4	1	1	2	0	4	3	5	4	2	4	7	5	1	2	6	4	19	36	30	13	34	59	89	106	59	58	17	70	84	35	40	71	38	18	50	61	26	51	84	82	79	91	102	94	69	29	6	5	7	12	10	4	8	8	5	1	1	3	2	4	10	7	2	4	5	8	7	5	4	5	2	6	3	3	4	5	5	2	17	50	77	68	55	81	94	96	94	84	64	45	37	46	59	63	62	61	53	40	33	32	31	26	16	8	1	7	2	9	15	12	12	13	12	6	8	4	6	6	8	10	8	5	4	4	4	10	11	13	26	51	75	89	98	114	120	124	122	117	118	112	98	74	68	72	32	18	15	13	20	17	11	2	7	7	9	8	7	8	2	8	14	14	18	11	5	5	2	4	7	6	6	6	4	2	4	7	7	7	8	11	10	6	7	10	10	7	7	10	12	10	7	7	7	8	7	8	5	7	7	7	6	5	5	7	8	7	6	6	6	8	10	8	5	4	5	7	14	15	12	10	7	10	19	28	37	48	61	79	95	105	111	112	103	83	61	38	15	4	9	9	8	7	5	4	4	2	3	4	5	5	1	11	8	3	4	4	4	4	8	20	4	72	119	77	12	14	6	5	5	8	5	9	14	13	8	17	59	109	143	156	149	125	70	24	93	97	134	291	438	426	313	167	63	65	41	57	55	48	67	67	28	29	52	96	101	11	16	102	125	43	45	78	91	60	49	54	55	53	53	55	54	51	61	82	120	182	239	
5	4	4	4	4	12	21	10	9	16	14	8	2	2	7	5	13	13	65	56	34	71	39	7	5	1	8	5	9	8	60	58	45	51	6	6	8	8	11	7	14	14	28	88	123	116	71	23	6	12	4	13	36	67	92	109	116	99	67	29	4	4	5	6	4	8	66	110	82	22	10	11	7	6	5	5	6	5	4	3	1	1	3	4	3	1	3	5	10	12	20	68	67	28	11	10	11	13	14	12	3	2	13	38	16	36	16	8	3	7	4	3	4	4	4	9	15	16	13	45	75	62	22	2	2	2	2	1	0	1	4	4	3	1	3	4	1	2	0	2	0	0	1	3	4	4	5	5	3	3	1	2	2	3	4	3	1	3	4	4	1	7	1	5	8	10	4	4	7	13	7	73	70	59	98	83	128	81	5	58	67	29	65	83	68	35	11	7	10	11	8	5	3	0	0	4	1	5	7	8	10	8	8	8	10	8	7	7	3	2	4	2	0	4	7	5	7	10	17	26	17	18	70	120	141	113	42	40	98	102	50	86	147	137	99	92	37	6	4	5	5	3	4	5	7	7	4	5	12	18	15	39	94	103	85	73	29	6	2	4	2	2	1	4	2	4	8	8	19	28	125	158	41	112	105	16	62	96	130	114	75	60	45	35	37	31	5	8	4	3	4	8	11	15	17	10	7	10	13	13	7	4	5	7	7	4	3	5	7	4	4	3	3	4	7	2	3	0	3	4	1	0	2	2	2	2	7	9	7	14	12	17	61	71	47	4	55	65	26	22	51	65	21	56	24	67	69	43	55	48	50	56	50	29	7	2	1	1	2	9	11	4	7	7	4	3	1	1	3	4	7	7	6	6	4	0	2	0	3	1	3	6	8	7	4	2	4	10	41	79	100	112	118	114	116	120	114	101	87	87	103	115	119	117	114	111	108	107	104	100	95	88	81	72	65	60	57	52	46	42	29	13	14	18	15	8	3	4	4	4	5	1	8	24	48	72	87	97	109	119	126	122	105	80	78	91	97	89	75	76	75	56	37	21	14	17	35	40	42	44	39	32	42	50	48	35	32	29	13	24	9	23	18	3	7	2	4	7	5	5	6	5	5	8	10	8	7	8	12	15	15	12	10	9	8	6	8	8	11	11	10	9	7	5	9	14	14	9	8	8	11	12	12	12	10	5	2	4	6	6	9	16	24	39	60	78	83	73	62	59	65	76	86	92	96	100	100	91	80	72	61	43	22	8	10	8	8	8	7	7	7	6	2	1	3	2	4	5	7	8	5	7	6	4	4	2	2	8	22	7	89	117	43	15	12	6	8	8	11	10	8	5	2	6	11	8	15	56	98	132	155	157	102	28	70	67	119	275	422	478	409	216	60	43	48	49	12	46	91	84	69	73	75	86	15	27	87	154	136	107	106	105	74	57	51	55	70	96	118	116	82	55	95	137	178	189	
4	1	1	4	9	18	27	20	26	33	25	10	5	4	7	11	19	14	67	77	26	78	67	25	6	9	2	7	15	12	36	39	39	36	10	10	12	8	12	13	2	14	17	1	46	96	118	107	78	60	68	83	95	97	85	67	56	45	27	11	7	2	6	6	13	24	93	100	34	9	12	5	4	4	5	7	4	3	0	0	0	2	2	0	2	2	3	6	13	12	27	76	74	36	21	14	9	8	9	10	5	8	11	43	39	55	38	7	6	8	9	5	4	3	3	8	12	18	42	73	75	45	14	2	1	2	2	3	0	3	4	1	0	0	1	4	4	4	3	2	2	1	3	4	3	2	4	5	5	2	0	0	0	1	5	4	4	4	4	2	4	8	4	11	8	11	11	2	4	9	7	69	80	25	83	100	96	35	30	51	49	74	69	41	59	40	11	3	7	7	2	7	3	3	4	5	3	6	4	5	7	8	10	9	10	11	10	6	4	2	3	2	3	3	4	3	5	8	12	16	25	27	17	30	93	155	150	54	74	134	115	52	33	90	83	53	26	10	8	7	5	4	4	5	7	7	5	6	10	13	15	10	24	50	52	38	13	8	6	4	7	5	4	5	3	7	5	2	18	21	59	150	104	62	122	47	13	39	95	122	125	127	114	98	96	96	64	31	17	14	18	24	22	14	15	9	8	16	14	7	4	5	2	1	5	6	4	2	7	8	4	2	4	4	5	4	2	1	4	3	0	0	1	3	3	2	2	1	6	11	8	6	18	33	46	45	72	63	15	13	15	55	47	39	47	57	95	36	30	29	11	2	6	8	5	4	3	1	7	11	10	4	5	7	6	5	3	1	2	3	7	11	11	9	8	8	8	7	4	3	1	5	7	5	4	5	7	5	14	38	64	74	66	51	40	39	49	70	87	91	84	71	68	68	70	79	91	95	92	89	90	96	104	106	104	101	104	111	113	105	93	68	46	44	45	41	27	16	11	3	4	9	16	39	63	83	104	100	81	68	60	55	38	15	12	17	26	19	8	21	29	15	21	56	72	65	57	40	34	56	80	85	86	82	77	47	27	34	42	37	17	30	17	2	8	0	4	5	7	7	8	8	7	8	6	8	7	6	11	7	14	10	5	15	15	13	18	23	24	15	8	12	14	11	14	20	21	19	14	6	3	2	10	19	30	42	51	52	50	55	67	80	89	95	99	98	98	96	90	88	87	85	79	71	62	55	43	25	8	3	7	10	13	4	8	7	6	5	5	7	5	4	3	0	4	4	1	4	6	10	10	5	4	4	7	7	5	3	19	6	76	120	59	8	18	11	6	5	8	8	8	8	8	7	4	7	14	10	7	36	78	133	163	119	22	41	61	90	171	304	439	412	196	25	41	36	60	49	10	55	80	60	27	78	36	71	114	216	251	217	187	162	123	81	52	61	113	178	214	207	166	99	108	159	169	127	
5	3	2	2	6	12	34	41	20	24	32	19	5	1	1	4	13	4	63	95	38	70	89	42	3	7	8	4	5	8	18	15	21	20	10	10	7	5	15	12	2	5	11	21	17	21	66	103	117	109	94	81	72	56	31	10	2	3	4	3	7	0	5	9	21	45	118	85	3	19	12	5	2	4	3	3	2	2	3	2	2	5	7	8	7	4	0	5	17	14	37	93	79	31	17	12	8	5	7	8	7	10	16	73	82	85	89	14	18	3	7	5	3	1	4	11	3	37	83	92	60	23	5	4	1	4	3	4	0	4	4	0	0	1	2	0	3	4	4	5	6	5	5	5	4	3	0	3	4	4	2	2	3	5	8	4	7	3	3	5	9	11	9	17	13	2	12	13	11	11	2	53	92	34	43	59	41	6	24	51	65	37	33	73	68	33	10	2	8	7	4	7	0	5	7	8	7	5	3	4	4	2	0	2	8	13	12	5	2	2	1	2	3	3	4	4	4	7	4	5	13	19	24	19	10	68	145	149	55	64	136	140	80	8	36	27	12	2	7	8	6	3	4	7	5	4	5	4	4	2	1	0	0	6	8	5	5	8	10	4	5	8	9	4	7	8	3	8	12	31	7	101	134	10	119	82	8	21	48	76	89	92	92	89	100	123	122	96	68	38	18	18	13	10	11	13	12	13	9	2	0	3	2	3	6	8	1	3	4	10	7	6	1	1	4	8	6	4	4	1	0	1	3	3	1	1	2	3	2	4	12	15	12	5	12	37	97	91	25	10	13	28	63	5	48	38	86	56	5	26	16	21	25	19	10	4	4	5	7	8	6	4	3	7	5	8	4	4	3	4	4	5	8	11	11	10	10	8	5	5	4	7	5	5	7	8	10	10	3	11	15	11	8	10	11	13	4	18	41	46	30	10	1	3	5	11	16	18	17	16	17	22	32	40	47	52	60	73	80	82	95	99	74	51	41	42	37	25	15	7	4	10	14	45	89	83	30	11	26	43	36	28	29	29	28	33	41	49	58	65	65	66	81	94	101	98	77	46	31	51	67	78	70	54	68	60	34	37	50	42	44	33	12	1	8	4	7	7	10	8	6	7	6	3	17	27	40	54	62	56	41	48	63	70	64	59	68	82	87	79	60	32	18	13	13	9	5	5	15	39	56	66	81	96	102	103	104	107	106	100	97	93	87	77	60	39	32	40	43	42	36	27	17	8	1	7	11	16	20	23	22	14	8	5	5	8	9	6	5	7	5	5	5	4	4	4	3	6	9	10	10	8	4	4	2	5	5	2	8	12	37	109	110	42	13	21	14	9	8	4	4	5	7	8	10	9	4	8	14	12	4	40	101	151	142	85	31	14	14	60	227	418	400	165	28	37	29	73	77	46	32	30	66	117	112	76	127	88	132	170	189	215	221	187	132	106	164	224	229	228	228	193	160	159	149	85	
7	5	7	6	12	7	24	43	35	31	39	21	3	13	17	15	17	7	57	101	50	58	98	47	7	0	7	8	1	1	10	10	9	12	10	6	6	10	15	10	5	5	6	4	4	9	2	21	49	57	39	18	17	8	2	3	5	7	5	4	5	1	4	13	22	48	135	87	11	19	7	7	3	3	3	3	2	2	4	6	6	3	1	0	0	2	2	4	15	16	38	99	79	19	5	2	4	1	7	7	5	10	17	99	108	69	131	56	15	15	5	3	0	0	5	13	10	71	104	77	27	5	1	4	2	4	2	4	1	4	4	0	0	3	3	4	1	1	4	8	8	8	7	7	5	4	4	4	5	7	3	5	3	5	4	4	7	0	7	7	2	19	31	34	35	35	36	28	17	12	5	41	93	65	25	15	7	3	13	25	29	76	100	77	41	17	5	2	8	4	4	5	2	6	3	3	4	4	4	5	5	0	2	2	7	6	10	7	0	1	2	2	4	4	4	4	5	8	7	3	4	10	10	17	25	15	44	119	142	88	14	109	129	56	6	10	3	5	5	4	3	2	3	5	4	4	5	2	1	4	4	4	2	2	3	1	2	7	8	9	16	17	11	5	7	7	7	11	10	21	24	47	135	76	84	115	31	12	21	27	26	31	38	40	51	78	108	122	119	89	34	3	8	2	9	17	12	7	7	3	0	4	1	4	3	8	5	2	1	5	9	8	7	4	5	2	4	3	2	3	4	4	3	2	2	2	0	2	6	5	4	18	24	7	18	8	67	113	92	44	22	14	57	41	13	38	59	46	25	23	37	40	38	28	14	8	8	5	5	8	4	3	2	4	10	11	3	8	5	6	5	4	5	8	10	8	5	5	3	5	10	10	6	4	5	5	15	14	7	16	1	12	12	11	4	3	5	14	13	4	13	18	21	24	22	17	13	11	8	5	5	7	7	5	5	2	3	4	7	16	39	64	61	29	16	21	23	24	17	9	5	8	9	16	65	110	107	91	85	93	103	106	100	84	74	89	107	110	107	106	100	87	79	65	51	53	54	55	47	50	31	19	14	7	34	59	60	57	39	39	46	32	33	18	5	7	9	8	5	8	14	17	21	35	55	72	84	89	95	105	101	102	98	88	82	81	84	85	85	92	98	92	80	66	57	49	47	55	76	97	103	106	107	101	90	77	67	65	66	60	45	28	15	7	7	14	16	10	3	1	3	8	11	12	9	9	11	12	11	9	9	12	10	5	3	6	8	8	7	5	4	5	5	5	6	7	7	9	9	5	4	4	4	6	3	7	2	2	1	8	2	58	123	115	50	5	20	21	17	7	7	5	4	5	7	5	4	3	1	3	10	10	17	71	128	159	137	75	31	25	25	215	413	374	153	13	52	20	56	105	67	93	91	69	137	35	133	192	170	118	18	113	207	245	199	85	116	160	85	70	153	197	191	145	112	63	
5	7	12	4	10	13	25	19	22	32	26	9	15	21	18	18	20	10	53	96	48	49	91	50	12	7	2	10	4	5	8	11	4	5	13	13	1	11	15	18	14	8	8	12	12	4	6	11	4	15	18	5	11	8	4	9	9	9	8	2	4	3	4	12	26	34	134	103	7	23	2	5	7	7	5	4	4	4	0	7	6	5	7	8	7	4	1	3	10	16	23	92	91	29	6	10	17	21	21	12	5	16	8	103	135	20	139	100	4	17	5	3	2	3	8	15	28	101	102	41	5	9	5	5	1	4	1	4	4	4	3	0	1	4	2	4	4	3	5	8	5	7	5	5	4	5	6	6	7	5	3	5	4	6	4	9	8	5	8	12	45	80	99	100	97	94	79	60	42	25	16	66	101	68	15	4	8	10	14	36	90	113	69	20	4	5	3	8	8	2	5	4	2	4	7	7	5	4	5	7	8	4	4	4	7	1	10	10	4	1	0	2	4	5	4	1	4	6	5	4	4	3	7	10	11	21	20	22	94	149	121	30	126	99	20	10	7	9	5	5	5	4	3	6	3	3	5	5	3	2	5	1	4	4	4	5	3	4	7	8	12	8	8	10	7	2	5	7	7	9	28	6	97	122	21	105	80	23	10	13	10	14	21	24	25	32	51	80	121	146	114	53	16	13	10	13	11	5	7	7	7	7	4	3	2	5	7	3	2	3	4	7	7	5	0	5	5	3	4	5	6	7	7	7	4	2	2	1	3	5	10	4	21	27	20	10	15	59	83	72	44	17	48	62	46	34	44	66	74	40	40	50	35	48	33	14	8	3	5	8	4	1	6	8	11	6	8	12	8	8	8	7	4	3	1	6	6	5	5	8	13	11	7	0	3	5	17	10	14	10	13	15	12	15	14	18	29	43	53	51	49	56	61	62	54	38	20	12	8	3	8	11	13	13	8	4	2	2	3	5	10	34	51	52	46	41	31	21	14	7	8	13	17	14	13	49	77	73	60	68	92	106	106	104	99	99	96	93	84	68	53	40	32	21	0	5	11	26	31	24	10	14	13	11	3	24	40	42	38	56	32	43	52	36	24	33	44	55	58	61	68	75	78	79	82	80	70	54	47	64	74	69	51	37	37	40	34	24	18	36	64	81	82	81	88	98	104	106	101	87	65	52	40	23	12	6	1	4	4	2	2	10	15	16	15	13	12	10	6	4	5	8	9	5	1	1	5	7	6	2	2	7	9	6	5	5	2	1	2	1	0	3	4	5	7	7	7	8	7	7	5	2	3	5	3	5	1	4	2	2	11	5	62	126	128	87	38	6	25	17	14	14	13	13	14	12	9	8	10	14	13	7	5	4	38	96	150	156	115	72	52	29	219	395	378	203	24	69	104	181	177	214	246	143	79	132	150	261	306	274	220	145	23	112	179	109	144	252	268	191	73	45	97	100	77	46	
5	10	17	4	5	17	29	19	14	15	36	45	27	11	4	10	19	7	53	89	42	32	77	62	25	13	2	7	9	9	8	11	11	10	5	13	8	4	7	15	19	13	9	8	8	8	9	8	3	10	18	16	13	10	8	11	8	3	9	3	2	5	4	9	24	11	112	129	35	19	4	3	4	4	5	7	6	1	4	4	2	5	7	6	5	4	2	1	4	15	5	72	109	60	3	18	28	36	45	35	11	10	26	93	131	31	118	125	23	19	2	3	4	4	8	11	45	120	89	8	17	5	4	5	4	2	2	2	2	3	1	0	2	4	2	4	6	3	5	4	3	4	4	4	3	4	4	4	4	1	4	4	3	5	6	8	2	4	11	48	90	103	95	89	80	73	81	99	66	14	63	105	94	42	6	8	3	15	54	91	104	74	13	12	10	12	11	10	3	3	2	2	3	1	3	4	4	7	10	4	8	3	3	0	5	5	7	12	10	7	3	4	4	2	4	6	5	7	7	5	3	2	8	6	3	7	15	22	14	83	145	90	60	131	72	2	12	8	7	11	13	10	1	5	4	2	4	7	7	6	7	7	7	2	10	4	5	1	4	7	7	4	7	10	9	3	4	4	5	5	17	14	38	103	77	41	96	53	15	8	6	8	10	10	10	12	13	23	53	115	155	134	100	88	72	41	5	12	13	8	4	4	7	9	5	6	7	2	2	4	5	8	8	5	5	4	2	3	6	7	2	4	6	7	5	4	1	1	4	5	18	24	11	11	18	9	3	29	76	93	56	14	25	44	63	78	88	96	96	79	8	67	17	56	52	12	10	9	11	11	7	7	4	4	5	7	11	10	5	5	6	5	4	2	1	4	5	9	13	12	10	5	9	2	3	8	13	7	15	5	16	9	5	21	37	60	82	98	106	103	92	89	87	89	89	81	62	54	53	48	38	26	14	5	5	4	10	15	20	19	17	54	69	62	41	21	15	7	6	7	5	5	7	8	8	4	17	29	24	23	25	26	34	47	53	46	29	18	11	2	11	5	9	11	10	9	8	6	4	7	11	11	9	8	9	4	2	5	34	56	59	57	67	39	22	49	72	91	97	95	94	92	85	72	62	44	22	5	8	2	6	5	3	7	4	1	3	10	13	6	8	21	34	45	63	77	81	73	54	30	12	5	12	17	16	13	12	12	12	12	12	9	7	5	4	3	2	6	8	7	8	11	9	7	6	7	8	5	4	4	5	6	5	5	6	4	6	3	4	2	3	5	7	7	5	3	4	7	5	10	8	4	2	4	6	4	4	5	4	3	4	15	3	54	115	141	125	69	14	7	7	7	10	14	17	17	16	22	24	17	4	2	4	10	8	21	64	123	157	145	107	64	28	198	363	392	258	93	142	199	175	164	259	251	135	161	178	159	192	218	260	287	249	215	246	192	154	219	290	312	271	181	73	31	40	18	
9	17	28	15	16	17	27	13	27	47	66	71	57	18	13	10	17	4	52	81	41	12	58	70	43	19	5	1	6	7	6	8	11	12	10	5	5	3	5	5	11	13	9	5	7	2	5	5	5	8	14	13	12	12	11	7	2	5	5	2	4	15	16	17	24	16	70	139	81	5	11	0	1	2	4	4	4	6	4	1	0	4	6	0	3	4	6	1	4	14	17	36	107	102	34	21	47	35	35	52	25	10	63	110	103	19	102	126	35	19	4	3	2	2	8	6	52	123	80	8	15	2	2	3	5	3	4	4	3	0	0	0	1	4	4	2	5	5	6	3	4	2	3	2	4	3	2	2	1	0	4	4	2	6	7	5	5	11	29	76	91	63	27	19	8	4	50	101	94	97	120	108	56	13	5	8	17	53	87	91	66	22	8	9	5	7	8	7	5	5	1	3	4	1	0	1	4	8	9	3	7	2	5	6	7	9	2	7	7	8	9	5	0	4	9	13	11	5	4	4	1	3	7	6	2	5	3	16	29	4	79	130	53	87	127	55	8	18	10	4	10	13	3	8	7	4	2	4	7	6	5	7	7	3	10	8	4	1	2	5	2	4	8	8	7	3	2	5	6	4	5	14	8	56	97	32	68	65	15	7	8	7	4	6	6	8	8	10	16	22	86	119	128	136	138	128	91	48	36	45	50	40	22	14	19	19	16	13	11	6	7	8	9	7	10	13	9	7	5	6	2	1	4	6	8	8	5	3	5	15	31	46	55	41	6	14	13	35	83	91	34	28	23	1	21	36	41	35	57	98	46	63	68	44	54	15	4	8	5	6	4	10	8	4	4	8	7	4	4	3	3	5	6	5	4	5	7	8	8	7	4	3	8	5	5	10	11	13	10	7	12	17	21	25	45	71	79	77	79	80	72	60	49	49	67	86	89	89	95	104	105	100	92	77	59	48	41	29	22	30	57	85	79	48	20	7	6	2	1	4	4	4	2	4	1	2	4	7	8	7	11	10	9	6	4	8	8	12	15	14	10	1	5	4	8	11	12	12	11	8	4	3	0	0	7	5	6	7	13	32	44	47	83	55	31	66	69	58	56	51	43	33	25	19	18	7	10	10	12	14	12	9	8	10	11	12	10	6	5	9	14	13	7	9	14	10	7	4	1	1	5	10	12	11	9	7	6	7	8	8	8	8	8	7	7	7	5	5	7	9	13	13	10	11	12	11	8	4	2	4	7	4	4	6	6	4	8	3	4	6	4	4	4	4	4	4	4	7	2	8	8	3	4	8	10	8	4	1	6	3	4	7	18	10	23	73	121	129	95	61	52	58	60	53	46	52	77	90	96	91	72	60	48	31	8	9	9	31	80	128	147	124	70	12	143	315	413	333	182	124	114	34	106	183	147	148	175	103	46	60	125	210	248	231	209	137	71	65	119	204	274	278	194	82	36	48	
11	23	46	31	36	19	24	26	35	48	48	37	68	48	4	2	13	21	42	68	45	4	37	65	55	28	8	4	3	1	2	0	3	5	8	10	9	10	8	4	4	7	7	7	7	1	2	3	3	4	8	7	4	4	1	2	4	4	2	1	15	35	35	35	29	31	26	123	109	12	15	1	4	4	7	5	4	6	4	1	0	4	5	2	1	4	7	4	7	10	24	8	70	118	72	3	53	48	24	55	28	32	92	106	65	21	107	111	33	16	7	3	0	3	9	8	49	121	82	9	10	4	0	3	2	6	4	4	3	0	0	0	0	1	4	3	3	6	5	2	1	3	1	4	7	7	5	3	1	0	3	4	5	7	8	7	13	12	49	98	72	22	9	17	17	20	19	64	88	109	102	61	20	9	9	34	68	86	79	50	20	10	8	4	4	4	3	7	8	9	5	5	5	7	6	2	5	6	4	1	5	7	7	1	6	8	5	4	6	7	11	6	3	7	9	8	8	2	1	4	4	2	4	10	6	5	7	5	15	28	12	89	127	37	95	124	59	2	21	11	13	11	9	12	9	5	3	0	2	4	3	3	4	7	15	20	17	10	1	6	1	6	7	4	2	4	2	1	3	2	2	7	10	20	76	78	49	67	26	10	12	8	4	7	7	5	5	1	14	16	18	40	56	66	83	118	136	125	114	111	107	103	94	92	96	82	51	32	29	19	8	8	11	8	9	13	10	6	3	2	1	0	7	11	16	18	14	8	8	18	41	45	61	79	52	11	14	39	74	96	95	82	50	27	7	4	17	38	48	73	79	16	66	44	34	17	6	1	1	7	5	7	11	4	5	8	4	1	4	3	3	3	6	7	7	8	8	7	5	4	4	5	7	5	3	7	10	10	5	8	4	4	24	49	56	54	38	16	9	21	21	15	12	5	14	38	55	61	65	73	84	93	106	114	110	103	101	99	97	103	107	95	62	24	5	4	4	3	0	1	3	4	4	5	4	2	4	6	4	3	7	7	6	10	13	14	10	7	7	6	5	4	4	4	10	11	11	9	7	5	4	5	1	2	4	4	2	3	2	3	8	18	68	76	64	74	50	8	4	7	9	15	15	11	14	17	16	10	7	7	7	4	4	6	5	11	12	7	3	7	11	11	8	9	11	16	18	16	11	6	4	7	5	5	5	2	5	7	5	4	5	4	6	10	12	12	8	5	4	5	10	8	6	6	6	5	5	7	7	5	4	2	3	4	4	7	8	4	4	7	4	3	1	3	4	4	4	5	0	8	8	0	8	9	7	5	2	2	4	3	4	3	10	17	28	22	35	87	114	108	105	113	119	119	118	118	116	100	95	109	114	118	121	115	71	19	4	5	11	41	106	157	130	61	12	99	311	464	400	261	186	106	29	99	116	122	125	74	29	29	10	57	89	56	64	53	46	41	15	54	161	259	257	190	164	150	
10	15	57	55	21	39	11	43	36	33	27	12	62	56	24	15	13	21	28	54	47	10	28	60	64	38	13	8	4	4	4	4	4	2	5	10	11	8	5	4	4	4	8	8	5	4	2	4	4	4	5	5	2	4	1	3	3	4	5	6	33	62	45	56	42	32	14	115	117	19	15	3	4	2	5	5	2	2	5	4	1	4	4	0	0	3	5	5	3	6	17	20	36	100	92	38	28	45	29	31	36	69	93	89	38	51	123	97	21	15	8	2	2	3	9	10	42	115	85	8	10	7	3	4	3	4	3	3	1	0	0	0	0	0	1	3	3	5	4	0	0	2	5	5	1	3	4	4	4	3	0	4	7	5	5	7	17	18	53	111	67	7	8	11	14	9	5	20	36	48	32	9	0	2	36	79	92	73	42	18	4	15	7	4	3	4	3	7	4	8	7	8	9	12	15	13	1	9	11	9	7	8	4	5	7	5	6	2	11	11	10	4	4	8	7	3	7	3	0	1	3	4	3	9	8	7	6	7	9	15	21	15	94	121	31	102	139	74	28	21	22	12	11	11	4	4	3	1	2	4	2	0	3	7	10	12	17	17	7	7	7	4	8	4	0	1	4	7	7	5	4	2	5	2	33	70	55	50	24	6	14	7	3	4	4	4	2	1	1	6	6	4	3	12	7	26	67	94	101	91	84	94	109	117	117	115	98	72	64	52	17	7	10	4	2	4	6	4	3	4	4	2	8	20	17	1	12	24	21	13	40	52	15	65	98	79	23	25	55	84	100	93	87	56	12	11	27	51	56	48	61	36	19	23	15	13	10	2	6	9	7	7	13	8	7	4	3	1	5	2	4	5	4	5	5	7	8	7	5	5	7	8	7	5	8	11	10	7	10	16	12	12	39	68	63	34	17	20	14	8	6	3	4	4	6	1	10	16	12	9	15	24	36	55	66	72	80	88	89	85	74	48	18	1	6	4	2	4	1	1	3	4	4	5	7	7	5	4	4	4	5	7	3	4	6	11	8	4	5	4	3	4	4	5	7	4	4	7	8	8	9	11	8	5	5	7	6	3	4	7	10	8	29	53	58	49	21	7	10	12	14	14	11	10	12	14	12	8	5	7	8	11	11	8	8	10	10	12	9	11	9	7	7	11	13	10	7	5	5	7	4	5	4	4	7	2	7	4	1	4	4	2	4	5	7	10	10	8	5	4	8	7	3	4	3	3	4	5	10	10	5	2	2	0	4	6	7	5	2	5	4	4	4	5	4	0	3	4	2	7	8	3	9	1	7	7	4	1	1	2	1	3	5	9	18	23	17	8	45	66	71	69	68	77	87	82	60	31	21	41	60	73	92	129	137	98	43	2	9	7	25	111	158	101	45	20	103	326	470	463	363	199	27	56	55	43	55	60	63	70	71	67	82	67	88	111	126	122	100	74	68	147	205	216	225	198	
5	4	39	81	50	25	26	39	52	20	13	6	48	50	31	20	7	19	29	48	35	17	36	55	65	38	5	4	4	7	7	4	4	7	8	5	3	0	2	0	4	5	8	8	5	7	2	8	5	5	7	8	5	3	3	3	4	4	7	7	49	79	18	78	52	28	16	114	115	21	13	4	5	1	4	4	3	2	4	4	4	4	5	4	4	3	0	2	2	7	9	12	15	62	94	72	11	28	18	14	66	83	63	62	39	56	133	90	9	17	9	3	6	2	5	14	40	109	85	8	12	5	7	0	2	1	0	0	0	0	0	1	3	4	3	1	0	4	5	3	4	5	7	6	2	1	2	8	7	4	3	2	3	2	4	4	16	16	57	107	64	3	12	10	12	2	10	6	13	17	4	10	13	40	82	93	63	26	7	8	9	12	5	3	3	4	4	8	4	4	3	5	3	14	34	53	47	18	17	16	4	7	9	7	7	4	4	4	14	12	5	1	4	8	5	4	5	0	3	5	6	4	2	5	10	12	12	10	5	3	14	22	15	96	126	38	115	138	78	63	62	43	2	12	8	2	4	3	2	6	7	4	2	8	9	2	9	18	14	2	7	1	8	6	2	2	5	9	9	8	6	2	2	8	4	22	35	25	12	8	12	5	1	3	4	2	2	3	3	0	1	4	8	12	20	19	6	12	21	19	15	21	36	43	39	56	81	89	99	101	55	12	10	6	5	9	7	4	3	7	16	28	52	81	96	79	41	38	26	16	23	49	41	34	81	127	104	41	10	35	44	67	105	97	48	12	25	63	53	17	20	51	46	23	8	10	9	6	7	10	8	8	12	10	1	3	5	4	8	5	7	5	3	4	3	4	4	4	3	2	2	5	6	2	5	8	11	11	8	9	17	27	53	75	56	16	2	12	11	5	5	4	3	2	6	9	10	7	8	11	13	15	15	10	7	10	16	22	21	18	14	3	4	2	3	7	4	2	4	4	4	2	1	1	5	5	3	1	0	0	4	5	3	4	1	9	7	5	7	4	3	3	3	4	4	4	2	4	7	9	11	13	13	9	8	9	9	6	4	5	7	5	5	8	11	10	5	3	4	3	5	5	5	7	8	8	8	7	7	8	11	13	15	15	12	10	7	11	13	12	8	5	5	8	10	7	4	4	5	7	8	7	4	4	7	6	7	3	3	4	1	3	4	1	2	7	11	12	10	11	13	7	4	7	4	4	7	8	4	7	7	4	2	4	4	1	7	9	4	3	2	1	4	6	4	3	4	4	0	5	8	2	6	4	7	4	2	2	4	7	7	6	6	4	10	3	12	17	9	5	7	6	1	8	17	13	4	11	10	2	1	9	8	49	104	138	121	53	7	6	20	41	130	148	97	59	20	89	264	443	539	412	146	35	48	64	104	139	146	126	108	94	87	67	85	134	172	188	178	165	139	84	58	97	123	128	
7	5	8	63	85	11	40	14	54	41	31	15	31	38	25	32	19	31	51	48	12	32	50	49	53	34	4	3	2	1	6	8	7	8	5	1	3	2	3	2	2	5	7	7	7	7	4	7	2	3	5	9	10	6	2	0	0	0	6	7	47	88	35	81	49	26	14	114	116	23	13	3	7	4	4	3	4	1	4	5	6	1	4	4	4	4	4	3	4	8	4	8	5	24	77	96	43	12	16	33	59	36	20	42	38	42	129	101	16	17	13	5	8	4	2	6	36	105	86	9	16	3	10	6	6	4	1	0	0	1	3	5	7	7	5	4	2	4	6	4	4	3	3	2	5	5	4	11	6	5	4	0	2	3	6	3	15	7	62	96	54	7	12	12	13	12	12	21	18	5	8	20	46	86	97	65	24	8	9	9	9	7	3	1	2	1	2	5	2	1	1	7	7	30	71	83	100	74	16	32	42	38	24	7	5	1	1	3	12	12	5	2	4	10	5	5	5	2	5	7	8	8	8	8	8	8	7	5	4	2	2	14	21	24	117	137	19	93	88	75	85	95	52	10	11	9	8	5	5	8	10	8	3	7	9	3	7	15	15	5	7	2	8	10	3	5	7	5	3	4	4	3	2	3	10	8	7	12	5	6	9	2	3	3	1	2	3	2	3	0	0	4	7	2	1	7	12	11	8	9	10	9	10	12	14	14	18	43	81	124	106	65	36	10	8	8	6	2	7	13	25	57	96	113	122	135	117	75	40	31	34	34	32	63	41	82	133	123	77	33	6	33	86	111	98	66	16	55	88	49	30	53	73	60	31	12	7	7	7	7	5	5	11	11	2	1	4	3	11	7	4	1	4	4	4	3	3	5	5	5	6	2	6	11	27	42	41	35	46	69	77	72	73	71	36	10	8	6	10	7	5	5	7	7	5	6	11	14	12	10	12	15	17	17	12	6	4	7	4	4	8	6	4	2	3	4	8	3	3	3	1	2	0	5	3	4	1	0	0	0	4	4	3	2	2	7	10	8	5	4	6	10	11	8	4	3	5	5	7	8	8	9	10	5	7	8	8	8	7	6	7	5	3	1	3	8	9	2	5	6	3	4	7	5	6	5	3	4	4	5	8	12	15	16	14	8	5	7	10	9	7	7	3	3	1	5	5	7	8	9	11	10	6	5	9	13	10	3	4	4	1	5	5	3	2	5	8	12	14	12	8	4	7	8	5	3	8	10	5	5	5	3	5	5	3	4	4	9	8	4	1	0	3	5	4	4	5	5	4	4	6	4	2	1	4	4	7	8	10	11	11	8	5	2	7	8	0	8	11	8	9	11	12	14	11	11	14	5	8	5	7	11	15	7	20	79	137	116	31	20	15	7	62	132	154	129	94	60	26	201	475	580	404	179	110	123	157	187	194	173	145	122	90	59	71	110	127	158	171	161	139	109	77	62	65	72	
9	8	5	37	86	40	30	4	30	38	39	25	26	43	31	26	20	23	65	54	6	47	43	29	38	32	7	7	4	4	3	6	7	5	3	0	3	3	4	1	3	6	5	5	7	7	5	4	0	0	1	5	7	8	6	4	4	4	4	11	25	74	52	59	38	28	12	115	119	24	15	0	4	6	7	5	4	2	4	7	7	7	7	5	3	1	4	4	4	7	3	7	10	12	48	101	65	9	15	28	66	87	70	54	32	38	121	105	22	14	10	6	8	4	5	2	36	103	87	10	19	4	8	7	8	8	5	2	3	4	5	7	5	4	5	5	4	5	7	5	4	3	1	4	2	3	7	11	2	7	4	4	1	4	6	1	13	7	65	87	45	8	29	40	41	27	25	35	14	12	29	57	91	96	58	18	2	9	9	8	7	4	1	0	0	1	5	8	7	4	4	10	5	50	96	59	90	114	80	85	65	48	33	5	4	0	0	1	8	13	10	6	5	14	9	8	8	1	6	3	2	1	0	0	0	0	1	4	8	7	7	5	10	16	51	140	133	44	28	38	46	90	100	58	16	5	7	3	5	4	7	7	4	7	4	5	5	8	14	7	4	0	6	11	7	3	7	7	3	0	4	5	4	7	5	8	8	5	6	9	7	2	4	4	4	3	0	4	3	2	3	5	6	3	4	4	7	7	3	4	4	4	5	8	12	17	18	19	12	78	104	102	90	56	2	14	7	8	11	20	51	84	94	72	59	86	113	109	86	74	71	59	36	51	62	15	64	115	133	111	67	16	49	82	95	100	69	7	62	65	35	48	53	85	65	22	14	8	5	6	5	3	12	11	3	5	8	9	10	6	3	4	5	4	4	4	7	7	5	4	4	5	5	25	46	72	96	102	102	106	100	89	70	42	14	3	8	4	4	4	0	2	0	2	1	2	2	5	5	4	4	4	3	5	7	3	2	4	5	4	2	3	4	4	5	3	6	5	4	4	3	1	5	7	4	5	4	2	2	2	5	4	4	4	6	8	8	4	1	1	4	7	8	8	8	8	10	10	8	7	5	8	10	4	5	8	12	15	15	13	12	10	5	3	5	4	11	10	8	5	2	4	7	7	3	4	4	5	3	4	8	11	9	8	7	7	5	4	5	4	5	8	5	1	1	4	7	7	6	7	8	8	8	8	9	10	10	7	4	3	3	6	3	2	2	6	4	7	10	7	1	5	8	8	5	1	6	9	11	10	6	3	5	6	0	6	3	5	7	4	3	1	1	4	3	1	4	5	7	7	3	2	2	3	0	5	8	10	10	8	8	9	8	7	5	7	4	4	8	4	4	2	5	13	11	12	9	4	8	1	1	7	5	15	23	6	86	139	96	21	6	5	4	42	103	148	156	140	115	27	211	480	566	409	190	114	122	134	147	161	155	150	132	96	73	93	76	93	118	110	85	59	73	127	169	173	
53	5	4	27	66	48	36	21	24	38	50	26	25	45	31	12	11	14	59	63	7	53	55	32	36	29	7	11	10	2	7	5	7	6	1	3	3	1	2	0	3	5	7	7	7	7	5	3	1	0	0	3	3	5	7	5	5	8	9	7	4	37	38	32	26	27	12	106	117	34	15	6	7	8	8	8	6	2	1	5	5	5	7	7	5	4	3	4	4	5	2	5	5	18	24	90	80	14	17	26	50	80	113	102	41	65	134	95	14	15	6	2	4	2	4	12	55	102	75	6	19	3	5	2	2	5	7	4	5	6	5	5	3	2	4	5	6	5	7	5	4	4	6	4	6	5	7	8	2	8	5	7	4	3	7	0	12	12	68	81	32	40	67	60	34	30	46	26	15	46	72	92	87	50	8	10	9	5	5	4	4	3	1	3	4	5	9	11	9	10	7	11	0	62	99	52	35	91	99	70	30	56	34	2	5	3	2	3	4	8	10	10	11	16	8	7	12	3	7	7	7	5	4	5	8	11	9	2	8	12	6	8	10	16	9	56	121	120	64	37	39	25	58	68	30	5	8	4	7	1	8	5	3	4	2	4	3	2	8	8	5	4	6	12	15	14	9	7	4	2	5	6	3	5	8	2	8	11	8	7	4	4	3	1	3	4	4	5	1	5	3	7	6	0	1	3	4	4	4	3	3	4	6	10	11	12	12	24	20	22	49	65	90	97	33	15	16	9	10	8	68	114	82	25	2	8	32	61	75	72	63	50	43	41	50	26	3	37	89	131	137	85	6	38	60	99	103	82	49	22	31	35	16	85	100	31	4	6	3	2	7	3	10	8	6	7	9	12	7	2	6	6	8	7	7	4	7	5	2	0	1	5	3	25	53	56	43	65	72	59	39	31	21	6	5	7	4	4	2	4	4	4	4	4	2	0	4	4	3	3	1	4	4	4	6	4	4	4	4	4	3	2	4	4	5	7	5	1	4	3	3	5	4	4	1	5	7	2	5	2	5	5	4	6	4	4	7	4	0	0	3	4	0	3	5	7	11	10	7	7	5	8	12	11	10	12	13	15	15	12	10	11	11	8	8	8	12	16	12	6	4	5	5	7	3	4	7	6	1	7	9	6	3	3	2	5	7	4	3	0	1	5	7	5	7	8	7	5	1	3	3	5	7	7	5	4	8	10	4	1	4	5	7	7	5	7	8	7	7	10	8	10	11	8	1	2	2	4	7	6	3	2	4	5	6	4	2	4	3	5	5	3	1	4	3	0	2	7	10	8	5	3	3	4	5	9	7	5	5	5	5	8	8	11	12	12	8	5	8	4	1	2	3	10	11	14	9	8	10	4	1	7	5	12	17	21	28	103	138	100	42	10	13	19	2	55	116	151	163	143	40	179	427	521	375	144	75	69	57	99	103	103	113	111	82	99	100	93	114	131	121	59	52	107	123	125	
110	27	10	31	43	26	37	36	38	45	70	38	35	42	35	22	21	15	49	68	30	36	76	68	38	15	5	7	14	5	7	6	2	2	5	5	7	7	5	1	2	6	8	9	7	5	4	3	3	1	2	1	5	5	5	3	3	7	6	3	0	13	18	18	17	18	8	78	112	65	25	11	8	8	7	5	4	3	0	4	4	4	3	4	5	5	4	5	5	5	1	4	2	17	12	83	93	28	13	13	21	22	89	134	78	70	134	66	9	14	4	1	4	3	3	23	71	93	51	2	15	1	3	0	0	3	5	4	5	4	3	3	0	2	1	4	6	4	4	4	4	4	6	3	2	4	4	4	6	8	8	7	9	4	6	2	11	14	66	67	54	85	70	28	56	70	38	21	64	85	91	74	35	3	13	11	4	3	3	0	4	4	3	4	4	5	8	7	2	10	11	16	5	74	91	43	4	29	39	51	79	56	14	5	5	4	6	4	3	4	7	10	10	8	4	10	13	5	7	4	3	1	3	4	7	7	10	10	2	11	14	10	1	5	21	15	34	90	99	81	82	90	72	51	37	13	5	5	7	1	7	4	4	3	4	4	1	2	6	5	5	7	8	9	12	15	14	9	5	3	6	5	7	7	4	7	2	0	1	4	7	6	2	1	3	4	5	7	6	5	2	8	5	0	0	0	2	6	6	2	1	3	4	4	4	6	2	10	11	3	12	18	57	108	78	17	22	11	5	13	78	122	74	9	8	11	12	6	19	24	24	26	28	30	32	16	8	8	7	56	124	142	88	25	22	73	104	114	103	62	15	19	32	44	104	73	34	17	6	1	6	1	7	8	7	4	6	2	5	4	0	1	6	2	7	2	7	1	3	3	4	3	4	15	54	97	99	53	20	11	2	8	10	7	3	4	6	3	3	3	2	6	7	8	6	5	0	1	4	4	1	1	2	1	6	8	7	6	7	7	5	0	4	0	3	4	4	4	1	3	3	4	5	4	3	2	7	5	4	4	2	4	4	7	4	5	7	4	4	4	3	3	3	2	1	4	10	5	4	4	3	4	9	13	12	8	5	3	4	6	4	5	9	8	10	13	12	12	13	8	5	5	4	4	4	2	7	7	6	8	5	5	8	8	6	2	2	5	4	1	0	3	5	4	5	5	6	8	4	3	3	0	1	4	3	4	7	11	10	4	7	8	8	8	8	9	12	10	3	9	13	11	8	2	3	1	0	0	0	3	6	2	4	6	5	2	2	3	1	0	6	4	3	5	4	3	3	5	3	5	7	4	1	4	8	11	7	5	4	3	4	5	4	8	11	12	10	8	8	7	2	7	6	8	9	8	6	8	13	11	7	7	7	9	5	14	6	38	105	135	112	71	42	25	28	14	26	68	115	158	165	86	106	354	469	337	96	52	32	26	48	47	60	87	89	112	111	80	84	127	166	123	63	93	69	28	
139	74	6	44	37	8	11	11	20	27	72	53	42	42	41	27	28	34	55	77	61	4	84	97	32	3	6	1	11	6	5	6	2	1	6	8	4	5	7	4	4	4	5	9	9	7	2	3	2	3	3	3	2	2	5	4	3	7	2	3	0	5	6	5	13	10	4	46	93	73	25	8	2	3	2	3	4	2	3	5	5	3	5	3	5	4	5	5	5	8	5	4	4	18	7	77	97	39	13	12	23	17	37	115	100	43	136	76	7	11	7	7	4	5	4	27	73	89	44	7	10	1	2	3	3	0	4	5	5	2	1	4	6	4	2	4	4	4	2	2	4	3	2	4	4	3	2	6	8	7	7	3	8	5	1	2	9	10	52	62	73	49	17	74	90	46	31	86	94	80	57	24	3	11	8	4	2	4	1	0	3	4	4	4	3	5	7	4	1	4	8	18	26	93	87	31	4	21	75	107	73	19	6	4	0	4	6	4	3	2	3	4	2	3	8	11	8	3	3	6	7	4	4	2	4	4	3	10	7	2	9	18	12	7	8	19	18	22	57	59	50	54	64	50	33	14	7	9	4	2	4	4	5	2	4	4	3	2	7	4	4	8	10	8	6	8	10	7	3	5	3	2	4	5	8	4	3	7	8	8	7	5	4	2	5	6	7	5	4	4	5	9	5	3	3	1	2	2	2	2	0	0	1	2	3	2	7	9	5	1	4	8	35	100	121	55	8	19	11	28	98	115	55	5	10	7	7	7	7	5	8	17	18	14	14	10	8	10	17	13	44	113	138	106	48	14	51	66	87	101	72	58	62	42	51	64	50	37	16	4	7	4	5	5	6	4	4	6	5	2	2	2	5	6	10	7	12	11	16	14	6	11	13	10	18	54	106	97	39	4	7	8	7	5	4	5	7	8	8	6	7	8	7	7	5	8	5	5	8	4	4	2	4	5	4	4	4	4	5	3	7	3	4	4	3	3	2	4	4	4	1	1	4	3	2	1	4	5	7	4	1	1	5	8	4	7	4	6	9	10	9	7	7	6	5	3	11	4	6	4	1	0	1	4	6	4	2	4	4	4	4	5	8	11	13	13	9	8	11	10	8	7	4	0	4	2	4	5	4	5	1	3	4	9	13	12	7	3	4	6	5	4	5	1	5	4	5	9	10	7	4	1	0	1	3	7	6	10	15	9	6	8	8	8	8	10	12	11	10	10	13	12	7	1	4	1	3	4	3	2	5	7	2	2	2	4	4	0	1	3	5	3	4	7	5	6	7	8	10	10	9	4	1	4	8	7	2	4	6	5	5	5	4	5	7	5	5	8	9	11	10	10	6	7	4	1	1	3	7	11	11	9	4	7	1	7	14	8	29	83	117	128	111	74	44	20	12	18	21	78	150	184	138	43	297	432	312	83	38	33	12	36	43	56	65	82	63	18	8	53	131	157	103	54	54	46	
125	112	12	56	50	31	40	24	23	16	38	41	5	29	36	17	14	23	48	84	81	42	93	98	24	9	5	6	7	5	3	7	5	6	8	11	3	5	7	5	4	2	2	7	11	9	7	5	2	5	8	4	1	0	4	5	2	4	5	2	0	4	6	7	16	7	4	29	86	87	37	14	8	9	7	4	3	2	4	5	7	3	6	2	6	3	4	0	2	3	6	6	8	14	18	71	82	35	21	16	20	21	23	101	113	23	124	115	39	9	12	7	9	8	8	15	57	102	71	11	7	3	2	2	2	3	4	6	4	4	4	4	4	4	6	4	2	3	4	4	4	3	1	1	4	5	7	8	8	7	5	2	5	5	4	3	9	6	32	40	17	61	103	97	44	40	102	102	64	33	11	8	9	4	4	1	3	4	4	4	5	8	10	9	7	5	5	1	1	5	8	7	54	103	70	12	18	59	103	85	24	12	8	7	5	2	3	7	7	5	2	3	4	4	5	7	2	2	4	8	7	5	8	4	2	2	3	5	8	5	1	10	12	7	3	4	8	8	8	22	10	18	5	14	13	2	10	7	5	4	1	2	0	2	3	4	2	1	6	4	9	11	7	7	1	2	7	13	11	10	6	5	7	4	4	4	5	2	1	2	3	4	4	2	6	1	7	4	4	2	7	10	7	5	6	5	0	4	5	2	1	2	2	5	5	4	7	3	2	2	2	6	9	63	125	119	64	18	2	52	119	102	28	8	12	8	5	5	4	1	0	5	5	2	6	7	8	5	8	14	10	33	98	134	121	74	22	8	37	66	62	52	63	81	62	25	28	38	25	7	8	5	3	2	2	5	3	2	3	4	4	5	7	8	11	10	20	41	52	61	43	17	2	21	35	26	80	108	47	5	7	6	4	2	3	8	11	13	15	12	7	2	0	4	3	5	7	7	5	3	7	2	7	5	2	1	0	3	4	3	7	4	4	6	4	4	3	2	5	5	5	7	7	4	0	4	2	4	7	8	8	8	8	5	3	8	2	3	5	7	8	8	7	5	7	3	8	4	4	4	1	0	1	3	2	4	6	4	1	2	6	8	9	11	10	8	7	8	11	12	11	9	7	5	0	4	2	3	6	4	2	4	7	8	8	10	10	10	6	5	5	4	7	4	7	4	2	4	5	6	5	4	3	1	2	6	2	10	15	11	4	1	1	3	7	11	8	7	9	10	12	12	5	2	4	4	4	4	4	4	2	5	5	3	1	4	3	3	3	3	3	3	4	7	7	4	7	9	11	11	8	5	4	7	7	1	5	4	5	6	7	7	4	3	4	2	3	5	7	8	7	5	5	7	5	4	3	1	1	5	9	11	6	4	5	4	11	17	13	17	43	78	110	125	105	61	16	13	4	6	58	128	182	165	26	258	409	333	147	4	37	14	16	27	33	41	23	23	27	7	50	111	121	66	4	43	
91	131	45	58	80	47	59	39	40	57	47	41	29	45	56	22	6	12	27	73	79	48	78	78	15	14	2	4	2	4	1	7	6	2	10	10	4	8	5	2	4	4	4	0	7	8	10	7	3	7	3	7	4	4	4	5	3	3	4	4	1	3	5	6	16	6	3	31	102	102	32	12	0	1	5	1	3	4	1	4	5	2	5	0	5	2	0	5	6	4	2	5	11	6	46	83	61	15	9	14	14	17	14	88	117	40	75	126	88	15	17	6	6	5	13	7	28	87	86	23	3	2	4	6	5	7	6	4	2	6	4	3	5	8	8	4	3	1	1	4	7	8	7	5	5	7	7	5	4	4	3	2	4	4	3	4	11	9	9	33	83	107	77	20	49	103	99	52	12	7	8	7	4	1	5	4	5	7	8	8	8	9	11	10	6	3	3	0	3	7	5	14	63	85	36	36	67	90	84	36	4	6	9	11	7	3	4	3	5	7	5	4	3	1	4	7	2	4	4	6	4	5	10	5	4	3	8	2	7	4	4	1	8	11	10	5	3	8	11	7	5	8	14	11	8	8	11	3	2	4	3	2	2	1	1	2	2	2	1	7	11	5	3	7	2	2	8	16	8	4	3	5	5	7	7	4	5	4	7	7	5	7	5	4	5	7	9	4	6	4	11	11	7	5	2	6	2	3	2	3	2	0	1	7	2	10	4	2	4	4	5	11	19	13	65	124	133	94	41	65	128	86	5	13	7	5	5	5	4	6	10	11	7	2	4	5	5	2	8	7	16	21	20	76	117	129	98	47	17	30	30	27	46	64	68	40	14	37	27	8	9	7	1	3	3	1	6	8	8	7	5	4	4	4	7	7	24	60	49	57	83	72	61	75	74	68	74	98	40	5	4	1	5	5	6	7	5	5	8	8	5	3	2	4	4	2	2	3	1	3	7	3	6	4	1	0	0	4	4	4	5	3	4	5	3	4	3	4	4	4	5	6	3	2	4	4	3	7	4	4	5	6	4	1	4	8	3	4	6	2	1	1	2	2	5	4	5	3	1	4	4	3	2	4	5	2	7	5	4	4	3	2	3	4	2	2	4	4	4	4	4	4	5	7	3	2	4	7	7	5	4	5	10	8	3	4	5	11	11	0	8	10	9	5	8	7	8	7	5	3	0	2	3	2	1	5	4	8	12	11	8	8	7	5	7	11	6	2	3	4	6	8	7	4	1	1	3	4	3	3	3	5	5	4	3	5	1	4	4	5	7	8	7	5	6	3	2	4	3	1	2	1	3	5	6	2	4	6	10	3	5	7	5	3	3	2	2	4	3	4	4	4	4	5	5	4	4	3	0	1	5	8	7	4	5	4	5	7	4	4	5	7	27	82	120	124	85	24	10	7	4	24	84	156	168	44	204	381	368	195	30	69	38	7	17	18	6	5	14	24	11	31	80	93	60	8	
44	126	89	48	109	56	60	43	43	55	63	43	21	29	61	41	15	14	17	56	67	19	56	70	18	13	4	3	0	3	2	4	5	3	7	8	7	4	2	4	5	7	8	7	7	8	8	7	1	7	3	5	2	2	5	6	4	2	2	5	4	5	7	1	12	10	8	32	115	108	14	21	8	10	8	6	5	2	0	3	4	4	2	1	2	2	4	7	3	8	4	12	14	20	67	77	39	20	21	15	8	16	13	71	128	90	30	99	105	38	18	15	13	7	12	15	37	76	76	29	2	3	4	4	5	8	5	4	4	7	7	9	10	7	4	3	3	4	3	2	4	5	7	8	8	8	7	5	3	1	0	0	3	4	1	4	13	13	14	74	107	62	15	67	99	90	42	1	9	8	4	1	3	3	7	5	4	4	4	5	6	4	3	2	3	2	1	0	3	7	5	15	56	81	70	83	94	78	41	8	7	2	3	4	10	8	3	4	7	7	4	3	3	1	4	7	3	8	7	4	0	4	8	4	8	4	10	4	7	4	4	3	3	5	7	8	5	5	7	4	4	4	8	18	20	13	9	7	8	1	4	4	3	1	1	5	7	4	4	6	4	4	5	2	7	11	14	20	14	11	7	7	4	8	6	4	5	3	4	6	5	5	0	4	0	4	4	1	4	7	12	9	3	3	6	5	1	3	2	4	2	2	2	7	3	11	2	4	2	2	3	4	8	11	11	50	103	123	84	58	116	76	7	12	2	0	4	4	3	7	7	5	4	4	5	7	2	4	7	3	8	21	20	17	46	104	138	110	44	12	21	17	37	30	52	58	23	33	24	8	10	8	2	4	4	3	1	1	3	4	4	2	3	5	9	14	7	59	86	42	35	90	107	97	77	78	73	73	28	2	1	2	1	7	8	7	3	1	7	10	5	3	0	2	6	7	5	2	2	3	7	5	2	5	2	1	1	4	3	4	4	0	3	4	1	3	3	5	4	3	3	1	5	4	0	3	4	7	4	1	2	1	1	2	4	7	5	4	4	3	3	3	2	1	4	1	3	3	4	3	1	2	5	5	10	7	3	9	8	3	4	6	5	2	5	9	14	15	13	11	8	5	4	6	4	1	6	5	1	2	4	5	10	11	10	6	5	12	11	1	11	10	3	5	5	0	3	4	4	4	4	4	5	4	3	4	4	4	7	10	10	9	8	8	4	8	7	4	4	7	8	10	8	5	4	4	4	5	7	7	7	9	10	10	8	8	3	3	1	3	4	4	4	3	2	4	3	0	3	3	4	1	0	4	7	4	8	5	11	3	3	5	7	8	6	2	3	4	1	2	6	7	4	5	4	0	4	4	1	3	5	7	5	4	4	3	3	6	4	2	4	14	15	15	51	100	131	106	38	8	7	20	10	45	122	160	81	124	339	387	227	29	57	45	19	15	9	4	9	20	28	17	28	70	78	42	
1	90	116	21	115	60	42	41	34	31	31	31	13	18	48	59	51	35	5	51	79	36	57	74	23	7	5	5	4	4	3	1	4	3	4	7	4	2	4	4	4	4	5	5	4	7	6	5	2	4	4	4	6	4	7	7	7	5	4	7	7	6	8	4	8	9	13	20	110	120	29	21	7	6	5	3	3	2	0	1	3	4	3	2	3	3	6	7	6	10	4	17	13	36	84	71	30	22	12	2	5	15	20	31	111	118	33	80	103	53	15	31	18	27	6	31	58	72	62	27	4	8	4	5	5	3	2	0	2	4	3	4	3	1	1	4	2	2	3	1	4	1	1	3	4	4	4	4	4	3	0	0	1	4	4	5	15	15	26	92	97	19	45	67	67	40	8	9	5	7	7	7	6	6	5	3	0	0	1	4	3	3	5	4	1	0	0	0	1	5	7	5	35	70	80	74	59	29	5	3	4	5	7	4	11	11	3	7	8	8	11	11	8	5	5	8	10	11	8	7	5	4	7	10	7	4	8	7	5	3	3	4	4	4	2	4	5	1	5	6	1	6	10	18	23	22	9	9	15	9	7	8	5	4	3	7	5	4	7	5	4	7	3	8	10	5	9	13	8	12	11	11	9	10	5	5	6	3	7	3	6	3	5	8	7	7	7	5	4	5	6	7	8	7	3	2	3	3	5	7	7	8	7	4	4	7	10	11	8	4	0	5	8	4	20	14	31	85	97	71	87	62	10	8	2	3	4	3	4	8	4	1	5	8	8	4	5	10	3	5	5	5	15	14	11	29	90	134	106	31	16	19	26	17	25	58	47	34	22	10	8	7	0	2	6	5	3	4	3	1	4	5	2	4	11	20	21	18	73	97	68	33	51	51	47	57	55	41	15	0	3	5	10	13	10	5	1	3	8	8	4	5	5	2	2	6	9	2	1	0	4	3	4	9	7	5	4	2	1	2	4	1	4	5	3	5	6	4	1	2	1	2	3	7	10	8	4	5	5	4	4	4	4	3	4	5	5	4	4	4	4	4	1	0	4	4	5	5	5	8	11	10	7	8	11	15	10	2	5	6	7	2	6	2	7	10	12	14	13	11	9	7	3	3	7	4	4	7	5	3	0	3	5	8	10	10	12	14	8	3	11	8	8	10	8	5	4	4	4	2	2	4	5	4	4	6	10	10	4	3	7	5	4	6	2	5	8	8	4	2	5	7	7	4	1	3	4	4	5	7	7	10	11	10	11	11	7	5	4	4	3	1	1	3	4	4	4	3	5	4	3	2	0	4	8	3	5	5	8	4	0	1	3	4	4	4	4	3	1	4	4	3	3	6	3	3	5	5	4	4	5	7	5	7	7	5	5	8	10	7	7	2	7	7	2	25	85	140	118	38	15	13	15	19	16	84	149	113	85	320	412	292	86	39	63	48	28	16	17	16	19	21	13	50	83	66	
20	40	115	45	92	95	15	30	17	22	8	18	8	19	38	53	62	69	38	40	90	42	62	80	23	8	5	7	8	7	4	1	5	4	1	4	7	4	0	4	6	4	3	5	3	7	7	4	2	1	3	3	6	3	4	4	5	7	4	4	6	1	6	6	8	2	12	4	82	135	72	14	9	3	1	3	5	4	3	1	1	2	2	3	3	3	4	7	10	7	2	13	16	58	92	67	24	13	8	4	5	13	24	11	70	124	47	62	105	80	8	46	26	42	32	29	66	69	55	21	8	13	10	11	7	4	6	5	3	3	0	1	2	1	0	4	4	3	4	2	4	4	1	0	1	2	1	0	3	4	1	0	0	1	4	7	15	15	28	95	95	14	49	62	54	26	4	5	2	5	10	12	11	8	4	1	1	2	4	4	2	6	1	2	1	2	1	0	1	4	7	6	10	26	37	27	18	8	3	2	1	3	5	4	9	12	3	5	8	11	11	8	8	7	9	12	14	11	6	4	6	3	5	6	4	4	5	7	4	1	2	2	0	0	2	2	5	7	7	3	2	2	15	24	11	25	5	7	8	13	12	7	5	6	3	7	5	3	8	4	3	3	7	13	1	15	20	16	8	5	7	11	11	8	5	6	5	5	7	7	7	7	11	7	5	5	1	6	10	1	4	10	11	7	8	7	7	5	4	4	3	0	0	1	3	3	9	8	10	8	5	2	4	2	10	20	14	30	63	67	58	38	13	5	0	4	3	1	3	7	5	8	11	11	7	4	11	8	8	8	3	5	3	5	16	22	9	84	134	103	32	11	6	22	10	25	38	32	20	11	7	5	1	1	4	7	7	4	3	1	4	2	9	12	23	31	55	61	39	41	81	84	52	18	7	20	20	11	4	6	7	10	11	7	1	3	3	3	8	4	6	7	5	5	4	5	9	0	2	0	5	1	7	11	8	8	4	2	2	2	4	4	3	7	4	4	4	3	2	3	4	4	5	7	4	5	2	4	7	4	2	2	0	2	4	4	3	3	4	4	2	2	4	4	4	5	0	2	3	7	8	11	11	10	6	12	17	10	5	6	7	8	4	1	7	10	9	2	4	4	4	4	7	7	8	9	4	4	7	5	3	2	4	7	9	12	15	10	2	4	8	5	5	5	4	4	4	7	7	5	3	3	5	4	5	7	8	8	8	7	4	6	4	4	4	4	4	5	8	5	4	6	7	7	8	8	7	5	5	5	7	9	8	2	7	9	8	8	8	8	8	8	8	8	8	7	4	2	4	7	7	5	3	3	8	5	3	4	5	3	0	1	2	1	4	6	3	2	2	4	0	4	5	5	0	5	7	8	3	2	4	4	4	6	5	5	6	7	9	13	11	7	7	6	7	15	10	82	142	113	27	29	24	2	17	12	59	126	116	36	270	411	342	157	14	55	60	36	20	16	14	12	11	40	73	71	
18	1	88	95	29	101	46	14	15	18	55	67	49	28	11	31	28	62	80	36	78	44	62	81	21	13	2	3	2	7	6	4	8	4	3	4	7	4	2	7	6	7	1	6	0	6	8	4	1	2	2	2	2	3	3	1	1	4	4	3	7	5	0	7	8	7	5	19	41	122	114	33	10	6	8	8	10	4	2	2	3	2	3	0	0	3	3	5	7	5	12	7	34	76	80	43	8	8	7	10	10	13	16	18	45	125	82	48	107	109	33	57	51	48	53	44	60	63	55	18	10	13	9	7	10	9	0	4	1	3	4	4	4	3	1	4	4	3	4	1	1	4	3	1	2	1	2	0	2	4	2	1	3	3	4	8	13	12	33	85	84	27	47	61	54	24	3	5	1	2	4	4	7	7	3	2	4	3	7	5	3	7	5	2	3	2	3	1	5	7	5	7	7	2	8	7	5	10	1	4	3	1	3	4	7	11	4	1	3	3	3	5	5	7	7	6	7	7	4	5	5	3	3	2	4	3	1	4	3	1	5	7	8	8	7	5	5	9	11	10	8	5	15	30	15	32	23	11	10	17	31	25	16	7	4	10	11	5	11	7	2	4	11	8	4	15	37	41	22	0	6	1	8	7	8	4	6	8	8	10	7	10	18	16	4	8	5	5	10	2	5	3	4	8	15	9	8	9	5	2	9	11	9	6	1	4	6	2	5	5	4	7	6	1	1	4	10	5	12	18	17	15	12	10	7	5	4	3	0	5	7	10	8	5	1	9	12	4	8	11	4	4	10	8	3	20	25	13	83	132	110	53	38	46	50	21	8	17	14	12	11	9	7	4	3	5	5	3	1	3	3	5	10	16	48	65	87	115	119	90	48	50	52	35	13	1	2	2	6	8	8	9	4	2	5	7	8	6	5	3	4	4	5	4	2	4	7	2	0	3	7	2	9	11	1	6	4	4	1	4	1	4	0	7	5	2	3	2	2	4	5	6	4	1	5	5	1	3	7	7	5	4	4	3	4	4	1	4	5	2	3	3	4	6	4	2	1	2	4	6	7	5	8	4	2	4	11	15	12	5	5	10	8	4	4	8	11	11	14	13	10	8	11	8	8	11	8	7	8	5	4	4	4	5	9	13	11	5	6	4	5	4	4	4	3	4	4	5	6	8	5	5	6	2	1	2	2	5	10	12	7	3	4	5	7	7	4	0	5	7	5	3	11	15	14	10	7	6	7	7	10	8	2	3	4	4	4	7	9	11	12	12	11	9	7	4	2	2	2	3	5	7	7	4	7	7	2	2	4	1	1	4	4	4	2	4	6	5	2	2	4	4	3	4	2	7	4	8	7	4	2	0	4	4	4	5	6	7	5	8	10	10	11	10	8	13	25	5	83	141	109	24	37	37	15	2	0	38	111	145	38	197	381	388	270	122	12	59	52	32	18	13	13	24	46	69	
7	19	46	113	38	83	84	18	27	49	80	90	94	83	34	28	2	15	58	43	41	50	47	79	24	13	7	3	2	8	5	7	9	5	7	6	5	4	0	7	6	7	1	5	1	4	8	5	4	4	4	2	3	2	2	2	3	4	5	0	3	4	6	8	4	4	2	22	10	81	127	62	5	5	7	8	13	8	3	1	3	2	3	1	3	4	3	3	2	6	21	9	56	83	52	12	32	26	9	12	12	11	12	13	43	124	91	15	85	111	46	62	64	27	41	56	78	69	45	11	7	10	11	7	9	9	3	4	4	4	4	4	4	4	4	3	4	1	4	4	1	4	5	4	2	3	1	0	2	4	1	4	4	4	4	7	11	14	41	63	54	72	88	76	48	14	5	0	5	5	8	5	5	9	3	0	2	5	7	5	0	3	4	4	3	0	5	4	7	5	3	3	7	11	10	7	2	11	5	1	3	4	5	7	7	8	4	1	2	3	4	3	3	4	4	1	4	1	4	7	4	2	0	5	3	1	1	3	4	5	8	5	4	4	4	3	2	5	8	11	12	10	8	32	35	49	73	42	4	36	45	61	59	14	20	25	33	17	14	17	5	4	5	7	22	78	122	137	116	66	18	5	7	6	10	3	4	5	8	8	4	17	43	62	49	18	3	3	7	2	1	5	7	5	18	15	4	5	7	8	5	4	4	4	5	4	2	2	4	4	3	6	7	5	3	3	2	6	8	7	7	8	8	10	11	9	11	11	8	5	5	8	8	8	6	7	10	7	4	7	8	5	2	5	7	4	16	19	14	77	127	117	95	97	104	82	30	5	9	12	13	9	7	6	4	5	4	0	0	3	3	7	8	16	71	93	73	77	86	97	94	72	49	31	12	5	7	7	5	4	4	4	3	4	3	4	7	9	4	1	1	4	7	4	0	4	4	2	2	2	5	5	7	14	11	8	7	4	3	4	0	4	3	5	8	7	5	4	4	3	3	0	2	3	4	1	0	2	6	8	8	7	5	4	4	3	0	4	7	3	5	5	5	0	1	3	4	5	6	4	7	8	0	4	2	1	4	8	11	10	10	4	10	7	2	5	8	11	14	12	11	8	7	3	3	7	5	3	4	4	2	2	3	4	5	4	2	9	7	0	4	7	7	5	5	6	4	4	3	8	8	9	8	6	5	4	4	5	3	7	6	2	6	8	8	8	8	7	3	1	6	7	5	7	8	8	9	10	9	8	9	4	4	4	3	0	3	4	5	7	7	5	4	3	3	4	3	4	5	4	5	7	8	7	7	7	2	2	3	1	4	4	2	3	2	2	4	4	3	4	6	4	1	6	6	6	3	5	8	8	8	8	7	5	4	7	8	11	8	8	7	8	8	11	12	11	17	28	7	89	149	118	31	33	41	23	5	6	27	104	160	85	113	308	407	383	256	86	31	55	38	24	18	11	11	23	
1	23	10	99	88	45	108	56	20	76	86	32	48	83	62	21	5	23	49	49	34	56	31	67	29	9	8	6	5	8	5	7	10	4	8	10	5	3	2	2	3	4	4	7	6	6	9	8	4	2	7	8	9	10	3	6	4	3	2	3	4	3	7	10	2	3	2	16	17	52	121	76	5	7	0	4	12	8	1	3	6	9	8	5	4	3	4	3	0	7	25	11	63	96	46	13	10	27	24	9	9	8	7	8	41	111	85	62	85	88	45	48	67	26	14	43	62	44	23	6	5	5	10	8	3	8	2	5	5	3	1	0	0	2	4	1	4	1	1	4	3	4	7	3	3	4	2	1	1	4	4	4	1	4	4	4	8	14	31	36	52	73	65	40	17	3	5	4	5	2	5	7	4	5	5	6	7	7	4	2	2	1	1	4	3	1	7	4	4	4	2	4	7	7	5	3	2	8	8	8	8	10	11	11	7	3	4	4	3	5	5	3	0	1	4	3	3	0	4	9	5	5	5	2	6	8	7	5	4	4	5	2	0	0	0	0	0	1	2	3	7	11	5	27	58	43	73	109	64	30	73	57	110	81	43	57	82	86	36	9	14	5	13	17	63	120	119	121	141	136	86	21	11	9	4	8	5	2	7	0	9	30	58	85	114	89	34	7	11	2	2	4	11	6	12	14	12	8	5	7	10	7	5	10	7	1	2	1	4	3	7	4	10	8	3	4	0	1	4	3	7	5	3	5	9	9	11	12	13	12	13	15	15	12	10	2	7	8	7	3	4	9	8	7	5	2	3	10	13	7	55	87	86	89	105	130	86	18	10	12	11	10	7	7	7	7	4	3	1	2	0	6	8	15	81	109	55	11	17	25	40	43	30	14	5	3	4	2	1	0	1	4	6	4	0	6	6	4	7	3	0	4	7	4	4	5	4	3	0	4	8	8	7	11	12	11	8	5	5	5	1	4	5	4	7	7	4	3	2	2	3	2	2	4	3	0	0	2	0	3	3	4	4	4	3	1	0	4	9	4	6	8	5	2	3	4	3	3	3	4	7	5	2	2	3	3	1	2	8	13	11	3	8	7	4	5	7	8	9	6	7	6	1	3	4	5	2	3	2	2	4	3	0	3	5	8	10	9	2	8	11	12	10	6	4	4	3	3	2	4	4	9	10	7	7	7	10	10	10	11	8	5	5	6	5	5	8	10	8	5	10	7	3	2	1	4	8	10	9	7	5	3	7	3	4	7	6	2	3	4	4	3	1	2	4	4	5	7	5	4	5	4	4	4	7	5	2	2	1	3	4	0	2	1	3	4	4	3	4	7	4	4	6	4	5	1	4	3	5	4	7	7	6	6	5	5	5	7	10	8	5	5	5	8	12	7	6	18	26	10	94	155	130	42	24	37	26	10	7	12	85	152	132	19	182	354	435	358	173	15	48	43	19	9	7	7	
7	19	14	69	114	21	96	94	11	64	97	96	71	41	36	27	2	38	63	63	45	55	19	54	27	9	5	6	7	11	8	7	7	4	4	10	7	2	4	7	7	5	5	10	5	5	7	8	5	1	7	15	10	18	12	7	10	7	5	7	9	9	8	8	2	4	6	10	10	58	116	69	3	5	1	4	12	8	3	5	7	8	7	8	7	3	6	10	8	12	26	7	62	98	56	22	38	38	24	4	1	7	3	4	29	87	66	53	66	52	36	19	53	31	25	50	83	61	14	8	7	1	3	7	6	7	1	7	5	4	3	1	3	4	5	1	4	3	0	4	4	4	8	1	5	5	3	3	0	1	2	1	1	4	3	2	6	8	16	24	33	27	10	2	0	4	4	4	4	0	1	4	2	3	4	4	3	1	0	0	0	1	3	5	6	5	9	4	1	4	4	4	1	0	0	1	4	8	8	8	8	10	8	7	7	2	4	7	3	4	7	4	1	4	5	6	4	2	5	10	8	6	5	5	7	9	10	8	4	5	7	5	1	0	1	3	3	2	4	4	7	10	15	1	49	89	51	57	118	71	76	73	80	119	64	74	90	139	133	81	42	19	21	12	89	141	76	16	60	113	134	84	24	5	8	3	4	4	7	6	14	35	87	78	76	135	105	16	20	4	3	1	7	11	10	4	10	10	4	4	10	12	11	12	6	7	2	3	3	3	6	1	10	9	2	5	2	4	4	3	8	4	0	2	5	2	4	4	7	6	7	8	11	11	11	8	3	4	1	2	1	5	5	4	4	3	1	2	8	15	10	20	24	27	37	108	131	76	24	7	5	11	7	3	7	7	4	7	7	5	2	7	8	10	75	116	65	7	13	10	11	10	7	6	5	2	4	4	1	0	0	3	4	4	3	5	7	3	6	4	1	3	5	4	3	4	4	4	3	2	6	5	2	5	4	1	3	4	5	7	3	4	6	3	3	5	6	7	7	6	2	1	4	2	3	6	4	2	3	4	4	3	1	0	0	1	3	4	8	4	11	11	5	4	3	1	0	2	5	5	4	1	0	0	0	1	3	4	6	9	11	5	4	5	4	5	7	7	5	2	3	5	3	0	2	4	0	3	3	4	4	2	3	4	4	5	7	3	7	14	11	8	5	3	0	3	4	2	1	2	4	5	3	5	8	12	15	16	15	12	9	7	5	4	4	4	4	7	8	9	11	8	7	5	4	4	4	5	6	4	1	3	7	4	7	5	4	4	2	2	3	0	5	8	10	8	5	4	1	0	3	3	4	1	3	2	1	0	0	3	4	4	3	3	1	3	3	1	4	8	4	4	7	4	4	2	4	3	3	0	1	3	4	5	7	3	4	2	2	2	3	3	2	1	7	4	5	8	24	29	8	84	148	130	56	12	17	13	4	12	2	59	137	174	103	89	280	407	394	245	65	35	38	13	9	11	
8	12	20	32	103	81	43	106	52	19	56	82	95	87	63	39	23	52	74	49	26	57	17	60	31	20	7	11	2	8	4	3	2	3	3	5	8	5	4	4	5	8	3	13	8	5	7	7	7	4	7	18	15	14	23	7	13	12	9	10	7	5	7	8	5	4	5	11	8	84	117	53	11	5	3	4	12	8	3	5	5	7	7	7	4	6	9	5	10	17	23	7	58	95	66	22	29	27	11	9	4	10	2	7	35	83	56	46	60	34	21	8	38	13	12	25	71	85	57	26	7	7	12	13	14	12	7	10	5	5	2	5	6	7	7	3	3	4	2	4	2	5	7	1	7	4	3	4	0	0	0	1	4	4	0	4	5	4	2	6	9	5	5	1	2	5	4	3	4	2	3	4	3	1	3	4	4	4	4	4	4	5	8	9	6	7	11	5	0	2	4	3	3	3	1	3	4	5	7	8	6	3	4	7	7	3	3	7	5	4	6	4	4	4	2	2	3	5	7	9	7	1	5	9	8	4	7	13	7	0	3	6	4	3	4	4	4	6	5	7	11	1	11	17	2	59	110	77	37	111	91	80	29	89	78	65	67	79	141	155	132	93	68	46	58	138	103	36	17	40	108	131	106	62	19	5	10	8	10	11	21	7	76	140	77	92	156	66	18	13	5	0	3	6	6	5	3	8	8	7	6	11	13	8	4	9	3	2	2	1	3	3	6	8	3	6	5	4	1	4	7	4	4	4	5	1	4	3	3	0	4	3	5	8	8	9	7	5	4	2	1	3	4	3	4	4	3	3	4	6	10	9	5	10	13	41	110	129	100	68	34	4	8	8	9	5	5	7	9	10	4	7	7	8	58	123	96	22	11	5	7	12	10	5	7	4	1	4	4	3	1	4	5	4	5	4	4	2	2	4	3	1	4	3	1	4	3	3	4	2	5	8	5	7	7	6	5	3	2	7	5	4	4	4	2	3	9	11	5	4	3	3	3	4	8	7	7	4	4	5	7	7	5	4	4	4	3	0	6	13	16	8	1	2	2	3	5	7	8	5	1	0	0	1	4	7	9	9	5	4	10	8	3	5	2	4	5	6	5	5	6	8	5	2	4	7	4	2	2	3	5	4	5	5	3	2	6	8	10	10	1	6	6	4	4	4	4	4	4	4	7	5	3	4	7	9	12	15	15	12	9	8	7	6	7	7	5	7	8	10	10	8	8	7	5	3	1	2	1	3	4	4	7	6	4	3	0	4	6	5	1	2	6	4	5	8	6	5	4	4	3	1	2	2	5	5	4	4	3	0	3	3	3	4	0	0	0	1	5	7	2	4	3	5	3	2	2	1	0	3	5	6	4	2	4	4	3	3	1	4	4	1	1	2	4	4	7	8	14	25	26	8	73	133	130	84	49	28	8	1	15	24	37	143	184	91	41	181	346	416	294	75	46	37	12	11	
7	5	15	2	61	99	34	70	69	26	5	11	24	43	50	40	33	51	94	114	98	91	61	90	51	14	7	12	3	8	1	0	0	0	0	1	5	7	6	2	4	11	4	14	14	2	8	7	3	5	7	17	23	7	27	13	5	8	5	5	3	4	5	7	4	5	4	11	25	107	109	28	20	6	4	4	10	8	7	11	14	13	11	8	5	4	10	4	10	14	20	11	45	98	78	31	11	9	11	11	1	10	6	12	58	100	58	69	82	36	21	22	51	24	28	9	32	60	81	89	71	36	12	17	15	10	23	40	37	25	5	9	2	7	7	4	0	4	4	4	2	8	7	4	7	4	4	3	0	0	0	3	4	1	3	4	4	2	3	1	5	6	4	3	0	6	4	2	4	1	4	3	2	4	4	4	4	4	4	4	4	7	11	10	9	7	11	7	5	6	4	2	5	6	5	4	3	2	1	2	3	6	8	8	6	2	1	5	9	7	0	5	4	1	1	4	4	5	8	8	5	3	2	11	12	4	6	12	11	7	6	7	7	4	3	1	4	8	7	5	13	7	4	5	16	5	48	113	109	26	53	56	25	42	64	46	47	23	38	87	118	126	119	115	88	87	86	27	9	3	41	96	132	137	112	68	21	15	18	2	18	29	22	130	149	15	153	123	14	22	7	3	8	4	2	7	7	12	10	3	4	4	3	2	4	6	4	4	7	8	8	7	4	3	6	8	5	1	0	4	6	1	3	5	8	5	3	2	2	1	3	4	4	7	5	5	4	1	0	2	0	2	4	4	4	3	4	4	3	0	3	2	6	7	13	9	35	89	120	127	109	65	21	8	17	13	10	6	8	10	6	5	5	17	30	110	119	44	2	8	8	7	1	6	7	4	0	2	1	2	2	5	7	4	5	3	1	0	0	3	4	1	3	4	4	4	1	2	4	2	2	5	2	5	7	3	5	4	2	5	5	2	2	4	5	0	8	13	10	7	5	4	0	6	5	2	5	3	4	5	5	7	8	5	4	3	2	5	8	11	8	4	5	0	4	3	4	5	2	2	4	4	5	7	10	10	9	9	10	9	11	10	2	7	1	4	5	4	4	5	4	8	7	2	4	5	8	4	4	5	2	10	2	8	5	5	8	10	6	4	5	4	5	3	4	4	3	1	4	7	8	7	10	8	7	7	8	10	8	5	4	4	4	5	7	7	5	5	6	5	5	5	3	3	2	0	0	1	3	2	4	4	5	4	3	0	2	3	1	6	4	4	8	10	6	4	2	1	4	7	8	7	5	3	0	3	3	4	4	3	0	0	4	3	3	4	3	4	6	4	3	4	1	0	5	4	4	3	3	5	7	5	4	1	1	3	4	3	2	4	1	0	0	1	4	7	8	8	7	14	17	19	8	52	104	117	100	69	37	8	10	25	20	74	165	144	77	8	121	324	432	277	34	49	25	12	
41	10	11	11	21	74	75	43	46	31	21	19	17	11	6	8	11	17	36	68	77	69	55	100	99	85	63	39	8	7	1	0	0	0	1	3	4	4	4	3	3	10	7	11	15	4	8	7	4	4	5	11	19	11	20	14	4	8	8	7	7	2	2	6	5	2	4	13	30	114	103	14	23	6	4	4	7	10	12	11	8	5	2	4	7	7	5	1	5	10	20	22	31	104	90	34	11	10	16	9	2	5	11	7	71	106	32	57	70	70	47	24	73	18	34	13	14	15	41	74	106	108	61	41	44	62	95	106	95	76	30	6	5	7	5	4	3	1	1	2	5	9	3	6	5	3	3	1	0	0	0	4	4	0	4	4	3	2	4	3	3	1	2	3	3	5	2	4	4	3	5	3	5	7	4	1	0	0	0	0	1	6	12	4	12	10	9	5	10	12	11	7	7	5	7	6	2	2	0	1	6	3	1	4	2	4	3	4	8	10	7	1	4	3	4	4	1	4	8	9	5	4	1	13	15	4	6	7	10	5	5	7	4	2	4	4	4	7	7	2	8	4	6	8	1	15	15	38	121	146	89	30	16	18	29	30	16	25	32	18	24	68	95	107	106	87	68	25	3	5	5	18	58	100	134	146	110	33	26	28	8	34	16	98	163	56	103	153	82	2	17	8	9	4	3	2	10	12	4	2	5	7	5	5	2	5	5	7	18	19	12	6	5	6	4	3	3	3	4	5	8	2	4	4	8	8	8	8	8	7	4	1	2	5	4	5	5	4	4	5	5	4	4	4	4	1	3	3	1	1	5	5	8	10	8	5	5	14	46	84	117	127	106	59	10	16	13	5	5	8	6	2	5	24	9	93	125	56	6	5	10	8	7	8	7	4	2	5	7	6	1	6	4	4	5	5	6	4	1	1	4	3	2	6	7	4	2	4	5	3	1	4	2	3	7	3	3	3	4	4	4	4	4	4	6	2	4	8	10	8	6	6	6	8	8	4	3	0	3	5	4	2	5	4	3	1	4	7	6	5	2	3	5	3	2	4	8	11	12	11	10	11	12	11	8	4	1	4	6	9	11	7	6	8	2	5	8	5	3	1	4	6	7	2	3	2	7	11	10	4	5	10	3	12	7	4	3	2	1	2	3	1	4	1	0	3	4	4	4	7	8	11	13	11	8	5	5	4	7	4	1	2	1	3	4	4	3	1	2	1	3	4	5	7	4	1	0	0	4	4	0	1	4	2	4	5	2	3	2	5	6	3	4	8	7	6	6	5	7	7	7	7	7	4	2	1	0	1	4	3	0	0	4	2	3	4	6	8	8	8	6	2	2	5	5	3	3	4	4	6	4	2	4	4	4	3	1	0	3	4	4	4	4	4	4	5	7	4	4	7	9	12	17	13	21	61	86	95	82	36	4	15	17	23	101	151	137	96	51	113	364	434	220	2	51	22	
45	15	11	11	3	28	52	43	27	13	13	14	18	16	4	4	7	13	12	4	10	15	16	57	86	112	116	99	41	2	5	0	0	1	4	3	3	2	4	4	2	8	13	10	11	4	4	10	7	3	6	11	11	8	11	8	5	6	11	5	12	10	5	5	4	4	8	15	18	104	110	26	19	7	2	4	6	6	5	3	7	7	2	7	7	7	4	2	4	8	21	28	42	115	89	29	6	9	17	8	3	1	11	5	61	105	39	31	36	78	97	43	83	28	38	11	6	3	17	25	29	105	131	129	131	136	132	105	93	107	64	10	4	5	3	3	4	4	4	4	5	5	4	5	3	1	2	2	3	4	3	4	4	4	4	3	2	5	5	4	5	7	6	2	2	3	3	4	1	4	7	4	5	5	4	3	0	0	0	1	4	7	14	7	9	11	9	1	12	16	24	23	8	0	2	4	3	1	3	4	7	7	7	7	4	5	4	10	5	9	13	5	7	4	3	0	3	5	9	12	7	3	5	17	15	3	5	6	9	3	5	4	1	2	1	3	3	5	4	5	5	1	4	7	11	5	16	25	25	110	154	102	24	10	14	16	12	5	22	31	24	0	26	43	49	46	36	11	6	2	8	14	9	8	44	106	156	128	39	24	24	20	24	65	149	104	21	123	142	68	7	19	6	2	4	6	9	4	2	3	3	5	10	8	3	6	17	59	88	96	78	45	16	11	10	6	5	4	4	7	10	3	8	7	9	10	9	9	13	17	17	14	10	7	6	7	7	8	9	11	10	10	5	4	3	0	0	1	3	4	8	8	10	7	3	3	3	5	7	10	43	96	141	139	79	13	25	18	13	4	9	12	13	27	7	92	128	60	6	7	7	4	5	7	7	4	7	10	8	7	5	5	4	5	5	4	4	5	3	0	4	5	4	4	3	3	4	4	4	1	4	7	7	4	4	3	3	0	3	2	3	4	3	4	3	6	6	1	4	2	4	4	5	7	10	9	6	3	5	6	2	5	4	1	2	2	4	8	6	4	1	2	3	3	3	6	10	12	11	9	8	9	10	8	4	2	3	7	5	5	5	1	7	8	2	7	10	5	4	5	6	4	4	2	1	3	4	7	6	5	4	7	6	11	4	4	3	4	3	2	2	2	4	3	0	1	3	4	4	4	4	7	7	4	5	3	3	4	8	4	3	2	3	4	4	4	5	2	1	1	4	7	7	4	3	2	0	1	4	4	3	3	5	2	3	4	4	1	1	4	3	5	4	2	4	3	1	7	11	7	4	7	8	4	0	0	0	3	3	2	3	1	4	2	5	7	8	12	12	8	5	2	5	7	7	5	5	7	7	5	4	3	4	5	7	7	4	0	1	3	5	7	7	4	2	4	2	2	4	2	5	7	10	15	17	8	26	73	103	107	81	38	12	11	34	91	150	163	134	53	160	412	404	139	50	50	
44	9	5	9	10	11	16	17	14	9	6	6	21	23	10	12	11	27	37	30	13	4	14	24	8	27	55	111	76	7	12	1	0	3	4	2	4	1	3	4	4	6	11	13	8	2	3	4	7	3	4	11	11	11	12	8	4	4	12	6	9	23	30	24	8	5	9	14	7	86	122	48	12	8	2	2	4	4	4	7	7	4	5	10	5	4	3	0	3	1	20	18	71	120	67	12	6	8	13	7	7	8	4	8	51	97	40	22	23	42	78	67	89	38	48	17	2	7	20	45	56	28	83	103	99	90	66	36	53	109	95	34	4	5	3	0	3	4	3	2	4	1	2	1	2	3	0	5	4	4	4	4	3	4	3	1	2	3	2	1	3	2	4	2	1	6	7	5	3	6	9	4	2	4	4	3	0	0	0	2	4	2	11	10	4	9	11	0	14	20	22	31	25	2	3	4	4	0	3	4	7	7	5	8	3	5	3	11	6	4	10	7	5	1	1	3	5	7	12	15	8	1	10	17	9	1	4	11	11	5	7	5	0	3	4	4	3	2	3	7	5	3	7	7	5	9	3	21	34	18	115	152	103	34	8	16	18	9	2	7	16	18	11	9	12	7	7	3	6	3	2	3	6	12	15	12	92	159	140	54	13	7	20	21	117	141	68	42	140	133	27	27	8	4	1	7	9	5	6	4	2	4	7	8	7	5	59	113	122	122	111	76	19	5	8	8	7	5	3	9	9	4	8	7	8	10	10	12	17	19	19	16	14	8	5	5	6	6	8	11	13	15	10	7	5	4	4	4	4	2	7	7	3	4	2	1	1	1	5	10	9	19	57	132	136	51	31	48	49	55	33	8	9	17	16	95	121	56	4	9	6	1	5	8	5	4	10	10	2	5	5	5	2	4	3	2	4	3	4	4	5	7	4	1	2	3	5	9	10	8	8	9	10	9	6	2	0	3	2	4	4	7	6	5	3	4	4	3	4	1	4	0	3	2	3	7	5	4	6	5	6	7	7	8	7	5	4	7	7	3	4	7	7	5	4	4	2	4	4	2	1	3	3	3	4	5	3	7	9	5	2	0	5	7	5	8	7	4	7	8	4	3	1	0	1	4	3	0	3	7	4	5	6	8	4	6	1	2	1	4	4	1	3	4	1	1	3	3	3	4	2	3	4	6	4	2	3	5	8	4	5	0	4	4	4	4	7	2	4	2	3	1	2	2	5	3	1	3	4	4	4	4	7	4	2	4	5	3	1	4	0	2	5	4	1	1	3	8	10	4	4	7	8	4	0	0	1	4	1	3	2	3	3	4	9	9	6	7	8	7	6	4	9	7	5	4	4	4	4	5	8	7	5	1	3	5	7	3	1	0	3	4	4	4	5	5	3	4	1	0	2	5	5	4	13	19	16	17	56	97	124	106	39	9	18	19	41	124	165	155	53	221	450	330	42	79	
38	19	2	5	4	5	6	5	6	7	12	11	16	34	10	23	37	52	57	58	31	14	44	70	92	109	71	93	88	15	13	5	2	4	4	4	5	1	1	3	4	5	5	6	4	2	4	3	7	4	2	6	7	10	9	9	10	8	12	10	12	32	51	66	41	2	15	11	18	63	126	66	5	8	3	4	4	5	3	5	7	4	4	8	5	3	4	0	3	7	21	7	82	100	41	4	6	10	9	1	4	10	9	4	61	100	50	24	15	36	34	51	63	35	58	23	1	8	27	14	61	74	24	10	9	14	3	7	21	79	104	53	11	5	1	4	4	3	1	3	4	2	3	4	4	4	5	5	3	1	4	3	0	0	0	0	1	4	2	3	5	7	8	4	6	5	7	7	5	11	13	7	4	2	3	1	0	1	3	4	5	3	7	11	7	7	11	1	12	26	23	17	34	7	4	5	5	3	5	3	3	4	7	10	2	6	1	8	8	8	8	4	2	1	3	4	9	3	14	15	7	5	12	13	5	4	3	15	10	2	5	7	3	0	4	7	2	4	10	9	7	5	7	8	6	4	5	7	29	30	27	108	146	117	56	4	23	15	10	4	7	14	14	11	7	1	4	4	7	2	1	0	0	1	8	18	6	82	156	149	67	2	15	4	58	117	107	32	87	156	81	15	18	2	4	5	9	8	8	7	4	3	4	5	6	19	90	118	73	55	104	98	26	4	5	3	8	8	5	10	7	5	8	7	4	5	7	10	9	5	8	10	9	8	7	4	4	4	7	7	9	17	14	9	8	7	6	6	3	4	7	9	7	4	6	3	4	1	5	7	13	32	22	74	135	113	62	91	94	111	109	81	61	65	79	104	100	42	4	7	2	6	7	7	0	7	8	7	5	2	5	5	2	4	1	2	0	1	3	4	5	5	1	0	2	7	11	12	13	7	4	3	5	5	4	5	6	5	4	7	4	3	0	0	6	4	3	4	2	2	3	3	4	4	4	4	3	3	5	7	8	7	5	4	4	4	3	4	7	5	9	10	10	7	2	2	6	7	5	4	4	2	4	3	3	6	4	5	9	7	4	3	2	5	6	4	2	4	4	9	1	3	0	1	5	7	4	2	4	8	7	5	4	5	5	7	7	2	1	2	3	2	1	4	4	4	4	4	3	3	1	3	4	4	4	4	4	5	7	1	5	2	2	4	3	3	7	6	7	5	7	5	4	4	5	0	2	3	4	5	4	1	5	8	4	4	4	4	3	5	1	3	3	5	6	5	4	6	5	7	7	5	7	4	1	3	4	5	5	7	4	4	4	6	8	5	0	5	7	6	5	6	7	1	2	0	0	0	1	7	8	4	7	3	4	1	7	7	4	1	4	3	1	4	7	4	7	4	0	1	4	4	3	2	7	12	17	14	10	14	74	124	107	73	84	101	100	44	68	130	150	43	313	440	216	20	
25	21	7	5	4	5	5	2	1	7	15	24	6	31	27	50	66	62	48	78	53	45	72	84	87	110	110	78	67	17	8	8	5	4	3	1	6	3	0	0	3	4	0	3	4	3	2	1	5	5	4	4	5	3	2	4	3	7	16	10	11	52	58	78	85	18	17	7	22	52	127	75	3	10	1	5	6	1	3	5	8	5	3	5	6	1	4	3	0	10	18	18	78	93	47	5	11	17	13	7	4	5	13	26	87	101	38	16	21	34	30	48	31	42	66	25	5	5	21	24	33	71	46	21	17	21	7	31	55	74	90	57	14	4	6	5	4	4	3	3	4	3	1	1	4	0	4	3	1	3	4	1	1	3	3	1	1	4	1	3	4	6	5	4	8	7	3	2	7	15	14	4	7	3	1	3	4	4	5	6	8	8	4	9	10	7	9	5	10	24	32	17	30	10	2	7	7	4	7	7	5	4	7	8	5	5	2	5	8	11	10	7	7	7	7	2	7	5	10	12	14	15	13	8	4	5	4	15	11	8	8	8	2	0	4	7	4	11	9	4	3	4	7	8	7	3	7	5	13	30	35	14	82	139	138	80	13	16	14	8	4	8	8	7	3	3	3	4	7	2	0	3	4	3	2	7	18	3	69	144	146	83	24	34	80	97	82	49	26	130	137	48	11	12	10	8	10	10	8	8	7	2	7	9	12	21	104	129	56	36	103	100	33	6	4	10	8	7	7	9	5	7	7	5	3	3	2	4	8	11	15	12	4	4	7	3	1	2	5	7	5	12	15	8	5	4	4	4	5	6	4	6	4	8	11	6	5	2	7	6	2	11	19	20	80	127	110	106	89	78	105	112	112	114	107	89	60	23	7	5	2	7	8	8	11	11	5	2	4	4	5	2	4	3	1	2	5	5	3	2	4	3	0	1	4	5	2	4	7	3	2	1	4	3	2	6	8	7	5	7	7	7	6	6	7	5	4	5	2	0	2	4	3	2	6	6	2	1	3	5	8	9	5	2	3	4	4	5	8	7	8	8	6	7	4	4	4	1	0	1	4	4	2	3	4	5	3	5	8	4	3	4	2	2	2	2	3	6	3	10	4	3	1	5	9	7	5	1	3	4	7	5	4	5	7	4	7	4	4	4	3	1	0	1	4	6	4	3	1	1	3	4	4	3	2	3	4	5	8	6	1	2	2	4	1	2	7	9	4	1	2	4	7	7	3	1	1	1	4	6	4	4	2	4	7	6	3	7	3	6	4	5	3	4	7	8	7	3	2	4	4	3	5	4	3	4	3	4	4	5	4	4	5	5	3	4	5	8	4	2	4	3	2	2	0	2	1	0	2	7	6	3	7	4	2	3	1	6	6	2	4	2	3	4	2	3	6	4	4	4	4	1	0	1	3	3	7	11	14	20	16	70	112	112	105	94	102	110	83	19	96	135	101	359	370	265	
26	21	5	8	4	8	8	6	4	17	22	31	23	18	54	78	70	45	29	76	71	65	77	65	42	37	66	53	38	11	2	5	5	1	4	3	4	4	3	1	5	5	4	3	1	3	5	7	9	11	12	12	9	6	5	7	8	5	23	15	7	58	80	47	112	42	15	7	25	50	131	82	6	15	8	6	2	2	0	1	5	7	8	7	7	4	4	4	4	12	18	11	67	99	64	8	24	22	18	16	1	5	5	51	108	82	9	20	10	23	34	32	10	40	65	33	8	8	8	16	34	50	33	11	9	22	5	54	89	101	76	37	12	5	3	1	0	4	5	4	6	5	2	4	2	2	2	3	1	4	4	0	2	2	2	1	4	4	2	4	3	0	3	3	8	8	7	7	8	14	12	3	6	4	4	4	4	3	4	3	8	10	7	3	7	7	8	7	5	15	26	22	20	8	2	6	5	0	4	7	5	3	4	5	7	7	5	6	10	10	6	4	6	9	11	9	5	2	5	12	18	18	12	5	4	7	4	13	12	15	14	9	4	1	3	5	6	7	4	5	5	2	5	7	7	2	7	9	11	5	23	34	7	62	127	148	107	38	8	21	11	1	4	5	5	5	2	4	4	6	7	5	1	1	2	1	7	19	8	53	127	151	114	93	109	98	63	27	8	62	138	118	37	10	10	6	7	5	4	11	7	2	6	2	16	10	78	151	105	17	86	101	49	11	8	10	3	8	7	6	3	4	2	4	6	2	5	2	6	8	11	7	4	1	8	4	0	1	4	6	6	4	11	7	4	5	6	4	5	7	8	11	11	12	12	9	9	6	8	1	5	5	2	4	17	62	79	63	43	3	34	51	58	60	49	29	17	15	10	5	4	7	8	9	12	10	6	4	2	1	1	5	5	3	3	4	7	8	7	5	4	1	0	3	4	2	4	9	7	1	2	1	3	3	4	4	4	4	4	5	4	4	4	5	8	8	8	8	8	5	4	3	1	3	2	4	4	4	4	4	7	5	8	7	5	6	4	1	3	2	4	7	6	8	7	4	0	3	4	3	0	4	4	3	4	4	3	7	7	1	0	1	4	3	3	4	3	7	2	7	5	2	3	6	6	2	4	3	2	2	3	4	3	5	5	2	5	6	4	1	0	0	1	2	3	5	3	4	4	4	4	4	4	4	4	4	4	5	7	7	4	5	7	5	4	5	7	7	7	4	2	4	6	5	4	4	4	3	3	5	3	4	4	0	7	7	3	4	2	3	5	5	4	5	7	7	5	4	4	4	4	4	5	5	4	3	1	4	3	3	4	5	7	3	3	6	7	5	1	0	2	1	2	1	2	0	2	0	1	5	7	0	5	5	2	4	4	4	4	3	3	2	3	2	2	4	2	3	4	2	1	1	1	3	2	5	8	4	6	9	9	10	45	61	53	32	28	58	79	76	48	109	96	127	309	393	
43	29	9	13	1	11	11	3	11	27	21	25	34	33	60	67	25	19	21	38	56	42	63	40	15	4	20	24	16	5	2	3	7	5	4	4	4	7	7	5	7	8	8	10	9	8	7	7	7	8	9	9	8	10	7	4	9	3	25	21	11	45	87	16	118	61	14	7	27	42	134	99	5	21	9	11	5	4	3	1	1	3	4	3	3	0	1	4	8	14	19	5	58	108	77	7	38	29	26	29	8	23	44	76	94	50	29	19	4	5	9	5	4	24	56	48	12	7	2	8	27	32	17	16	15	23	13	62	113	70	37	15	8	3	0	0	1	4	6	4	4	7	1	4	2	1	2	4	2	4	3	0	1	3	3	2	4	0	3	4	3	0	3	3	8	4	3	7	7	9	9	4	3	7	6	2	0	0	3	3	8	8	6	2	1	1	6	6	1	7	15	16	11	5	4	2	4	5	7	7	5	4	5	8	11	12	12	11	8	4	5	1	5	4	7	5	5	7	7	5	4	4	6	4	5	9	1	10	8	7	4	2	4	4	2	3	3	2	4	7	4	6	3	13	15	10	12	9	6	16	15	16	26	11	33	102	150	128	56	6	25	19	7	2	5	8	5	4	7	8	8	10	5	2	2	3	2	5	17	8	43	108	131	109	82	51	20	7	9	4	76	140	92	12	8	6	4	2	7	11	4	4	8	8	7	27	22	121	150	60	57	113	73	15	8	4	8	10	5	2	2	1	1	4	8	3	5	3	3	5	8	5	4	1	8	4	1	4	2	2	7	3	8	5	4	4	4	4	4	6	8	9	7	7	5	5	9	7	5	3	6	1	6	2	11	4	18	13	12	15	15	16	6	6	10	7	10	12	11	5	4	5	5	4	5	3	5	5	4	4	4	4	3	2	4	8	7	4	5	4	1	0	0	4	4	1	4	9	8	7	4	2	3	5	6	4	2	2	0	4	4	1	0	2	6	5	4	7	10	7	1	3	4	5	5	9	8	7	5	3	4	2	7	10	6	1	5	5	5	3	4	9	12	9	5	0	4	4	4	4	4	4	6	4	5	7	7	4	4	4	3	1	4	3	4	3	4	5	2	2	4	3	4	5	5	8	4	2	3	2	2	3	0	3	4	2	2	4	4	1	1	3	3	1	1	4	2	3	4	3	1	0	0	1	2	1	0	0	3	5	7	9	9	6	5	8	7	8	10	7	7	7	3	4	1	2	4	4	3	3	1	3	4	2	5	7	4	0	1	2	4	2	3	4	4	2	2	5	9	8	5	4	5	5	4	4	4	5	4	5	7	7	5	3	7	2	0	2	0	1	3	7	8	7	1	2	1	0	0	3	7	4	3	7	4	1	2	0	3	3	1	1	4	2	4	3	1	2	2	4	3	3	3	4	6	9	4	2	2	2	7	10	2	5	5	2	9	13	28	91	81	8	66	48	58	151	
56	35	11	18	7	14	13	1	15	31	15	17	18	49	93	47	65	90	99	41	37	20	60	25	6	5	3	10	8	4	3	6	7	4	4	5	3	3	5	7	7	6	1	4	7	7	4	3	0	2	1	4	8	8	8	9	7	3	21	31	17	29	70	14	110	73	8	6	27	22	122	127	22	24	3	11	2	4	4	3	0	0	0	0	1	2	2	4	8	17	22	7	54	110	84	7	52	47	43	57	46	47	55	67	45	31	36	19	9	5	11	17	20	13	32	48	29	6	5	6	22	41	53	53	42	31	23	46	131	104	14	13	7	5	4	4	4	4	4	4	5	8	4	5	3	0	4	3	3	4	1	0	0	0	0	3	4	4	4	3	1	0	2	7	9	4	7	7	7	5	7	7	4	4	4	4	3	2	4	7	9	5	2	4	5	6	8	7	4	3	4	4	4	0	4	4	5	8	11	11	9	8	7	6	8	8	7	4	2	5	7	4	6	4	8	7	5	4	2	4	7	7	10	10	10	14	7	4	4	4	5	2	1	4	4	3	1	0	2	3	2	4	4	17	18	20	56	72	79	54	22	13	11	19	25	4	70	137	136	79	20	15	21	12	4	7	9	4	6	6	7	12	9	1	7	6	5	4	8	16	11	22	48	54	37	17	11	7	4	20	19	122	125	30	14	11	12	7	7	9	2	3	4	11	4	25	26	53	143	132	23	111	102	24	20	10	4	3	3	2	1	0	3	4	9	7	5	3	1	3	7	7	7	5	8	5	2	4	2	3	7	3	4	4	3	1	2	2	3	4	5	5	4	5	4	4	7	5	1	3	4	6	5	4	8	12	8	4	1	5	11	12	7	9	8	2	5	9	11	4	1	2	5	5	1	4	4	5	5	7	6	2	1	4	7	7	2	1	5	4	1	0	1	4	3	2	2	7	10	8	5	5	7	8	7	5	6	2	3	1	4	3	0	1	5	8	5	3	4	6	5	3	3	5	3	8	5	4	3	1	5	9	8	8	4	2	5	5	3	4	4	4	4	3	0	5	7	5	4	5	7	8	8	5	5	6	5	2	3	4	4	4	4	3	2	2	4	3	1	2	5	4	4	4	2	2	6	2	6	6	4	3	2	3	1	3	4	0	4	4	4	4	2	3	2	4	4	4	4	4	3	1	1	2	1	0	0	0	1	3	4	5	3	2	4	5	1	7	7	8	10	8	5	7	2	2	1	1	3	4	4	4	3	0	4	4	4	4	4	5	4	3	1	1	4	0	4	8	8	8	5	1	4	3	5	7	6	4	4	4	4	3	0	5	7	0	4	4	4	5	10	12	12	12	8	4	4	4	4	3	5	6	2	8	4	0	1	4	4	4	4	4	4	0	4	0	4	3	5	3	4	5	4	2	7	7	7	6	2	0	2	8	12	10	4	2	8	17	58	85	43	68	44	40	115	127	
52	34	24	24	12	19	15	5	13	32	18	19	7	26	105	86	107	99	108	76	25	13	61	31	17	14	8	10	11	9	7	8	5	7	6	1	4	4	0	4	5	0	6	6	3	2	3	1	3	4	3	2	7	7	7	8	7	6	16	39	30	11	55	39	79	92	13	7	22	5	91	140	55	19	7	10	4	5	5	7	5	4	4	3	1	0	3	4	4	15	23	13	48	99	86	14	68	66	51	69	71	54	33	31	11	18	27	28	9	5	14	21	25	26	10	31	43	28	12	5	27	62	83	81	79	50	27	14	105	128	46	7	8	5	4	4	2	2	5	7	8	11	9	12	10	6	5	1	1	3	4	4	4	3	1	1	3	3	1	0	0	1	2	6	5	6	10	7	4	4	5	7	4	0	2	5	5	6	4	4	4	2	2	2	4	4	8	10	11	8	4	2	4	4	6	8	8	7	5	4	4	4	4	0	6	1	6	11	10	8	5	4	5	7	11	10	11	12	10	6	4	4	8	8	5	13	11	4	6	7	4	4	1	1	3	4	3	0	1	4	6	3	7	13	20	70	113	107	123	129	107	66	21	10	19	32	20	48	115	135	114	61	7	24	24	12	5	6	7	5	3	15	9	5	10	4	10	6	4	7	12	13	10	8	11	4	4	8	5	19	7	94	141	61	11	14	7	8	7	7	4	6	6	6	7	13	30	7	80	149	96	58	123	69	5	12	4	2	6	2	3	0	4	3	5	7	3	0	2	3	2	4	6	7	8	8	5	5	5	4	4	2	1	3	4	3	0	1	3	4	4	3	3	6	3	2	4	5	5	2	2	5	6	5	4	6	9	9	7	4	6	7	5	3	2	5	4	7	13	7	4	3	6	7	5	7	5	7	7	5	4	4	4	3	0	2	2	2	7	1	4	4	5	7	4	0	4	3	5	9	12	15	16	14	9	8	9	7	5	4	5	7	4	1	2	5	4	1	2	5	5	9	9	7	6	9	9	4	3	3	7	7	6	3	3	3	2	5	4	2	3	5	6	5	4	8	8	8	8	8	9	11	10	6	3	3	5	4	3	1	2	5	3	0	2	4	2	2	4	2	4	8	2	7	7	4	6	4	2	4	6	4	1	5	3	2	4	4	3	8	7	1	4	3	3	1	4	5	4	4	4	2	4	4	4	3	1	0	0	0	0	4	1	3	4	2	2	5	4	1	2	1	3	7	7	3	2	1	3	2	0	2	2	5	5	1	4	7	7	5	3	4	4	3	5	3	2	5	1	5	7	4	5	5	8	5	4	0	4	4	3	1	3	8	7	4	3	1	3	8	8	5	3	10	9	8	8	7	5	4	5	5	3	7	4	2	4	5	5	7	8	8	6	4	4	4	4	3	5	4	8	8	6	2	4	6	8	8	8	8	8	10	13	13	8	3	8	42	73	36	51	76	83	58	66	127	
46	29	13	14	7	19	20	15	9	32	28	18	21	22	67	83	95	69	100	102	31	14	56	36	14	24	15	7	8	7	10	8	7	7	5	3	2	4	2	2	0	5	4	5	8	5	4	1	2	2	2	1	5	5	2	4	6	5	12	42	31	31	57	85	23	114	59	8	10	13	61	135	84	7	17	4	7	5	5	7	8	8	8	7	5	4	3	1	7	13	16	17	70	91	66	8	74	68	17	21	25	31	15	18	22	12	30	32	10	5	12	14	12	12	18	9	38	44	27	9	40	48	38	60	92	73	41	14	73	130	68	4	7	8	5	2	4	4	4	5	8	11	10	14	14	11	8	4	4	4	5	7	7	5	4	3	1	1	2	1	1	4	6	11	14	12	8	3	2	4	5	5	3	0	2	0	6	8	4	1	3	4	5	4	5	7	6	11	11	10	5	2	5	5	4	4	4	3	1	0	0	1	4	1	5	2	8	14	7	4	1	4	4	6	11	8	6	7	4	1	0	2	7	7	5	9	8	5	3	7	4	3	2	0	0	4	4	0	0	3	4	8	18	6	54	107	111	74	71	93	118	110	46	6	7	13	27	18	28	81	130	140	97	31	10	17	8	8	11	12	7	14	7	6	7	2	9	7	6	2	1	2	2	2	7	5	3	2	4	18	21	59	140	106	17	18	1	7	7	5	4	4	7	4	6	5	19	22	12	96	137	41	99	128	59	4	15	3	8	1	4	1	3	4	3	4	7	6	5	1	1	4	4	7	7	7	6	5	5	7	7	4	1	2	6	8	6	3	5	7	6	2	2	7	10	7	4	7	4	3	4	4	5	6	4	2	4	7	7	5	2	7	6	4	2	5	7	7	10	8	6	5	5	9	12	7	2	0	2	3	2	5	3	2	3	4	7	7	11	10	9	8	7	5	4	5	6	8	8	10	15	17	13	8	8	7	11	13	9	6	8	11	12	9	9	10	9	7	5	5	8	12	15	14	10	10	12	8	5	5	7	2	2	2	3	3	3	6	8	5	4	4	4	5	6	8	7	4	4	5	8	10	8	5	4	4	2	3	4	4	4	7	5	6	3	3	6	5	6	8	13	23	28	18	17	16	9	0	7	10	7	0	5	5	3	3	5	5	2	10	7	1	4	0	4	5	6	3	4	3	4	1	4	2	3	4	4	4	4	4	3	2	2	2	3	3	1	3	5	5	9	9	6	1	5	8	6	4	5	3	3	1	3	5	1	5	4	3	1	1	4	8	4	4	7	4	0	4	2	4	4	3	5	6	7	3	5	3	3	3	3	2	4	10	3	6	1	0	5	6	1	6	7	5	4	4	4	4	4	4	4	3	3	5	7	8	7	5	5	7	8	8	7	7	7	6	1	4	3	3	7	5	4	4	3	6	9	10	8	5	4	4	5	11	13	5	19	51	41	36	83	40	101	92	27	26	
50	40	21	24	3	12	26	33	22	27	31	20	28	39	26	50	78	42	131	124	48	55	57	55	16	23	17	13	9	4	7	7	4	4	6	2	5	7	4	0	2	4	4	0	5	6	5	4	0	3	3	1	4	8	6	8	2	1	10	41	29	43	39	112	68	106	118	23	3	13	37	120	116	28	20	7	5	4	1	2	2	1	3	5	7	4	2	7	11	15	12	33	87	80	42	11	69	72	24	39	37	10	27	9	12	11	29	37	18	3	8	15	21	11	17	19	18	46	42	23	32	51	24	33	69	82	66	51	65	110	69	18	21	18	15	6	4	1	1	5	9	9	8	6	8	11	8	1	3	2	4	4	4	4	2	3	1	2	1	2	3	5	7	10	11	8	3	2	3	7	7	4	1	0	1	2	5	7	4	3	1	2	7	9	3	10	6	4	5	8	7	1	7	4	1	1	2	1	0	0	0	3	4	2	5	3	8	15	6	2	3	5	4	4	11	12	7	8	7	5	4	4	7	7	7	5	4	4	2	5	8	9	5	1	0	3	4	4	3	3	3	14	27	18	86	102	68	33	10	16	79	113	59	4	9	5	9	18	14	4	41	105	149	134	79	22	11	14	6	5	8	10	5	4	8	6	2	5	3	3	4	4	4	4	5	3	4	5	3	17	28	14	107	137	56	12	7	3	3	1	3	4	7	3	8	4	10	18	21	27	119	126	13	123	112	23	22	8	9	5	5	5	1	6	9	10	10	6	8	7	6	7	5	7	7	5	5	2	1	3	5	6	5	2	5	9	10	6	9	7	5	4	3	2	5	7	3	6	3	5	7	7	7	6	5	3	5	5	2	7	3	6	5	5	0	6	4	1	4	10	10	5	7	11	16	15	5	2	0	4	2	3	5	4	4	8	7	2	5	6	5	4	3	1	2	8	14	13	8	8	10	7	7	7	8	2	1	4	7	5	5	8	12	15	16	15	12	9	9	11	11	10	11	11	8	7	8	7	8	7	5	2	3	5	4	5	8	5	7	3	0	0	1	5	7	7	4	0	1	4	5	3	3	6	6	4	1	0	1	3	3	5	6	5	5	6	1	4	6	4	24	35	62	92	94	71	40	13	8	6	3	5	4	1	3	3	7	2	6	9	4	5	7	5	5	4	7	3	3	4	4	2	4	3	4	5	6	5	5	7	7	4	5	5	3	4	5	7	9	10	2	4	4	4	4	5	4	4	8	8	8	4	3	2	3	5	2	4	4	4	4	4	4	8	8	4	4	2	2	4	1	0	1	2	4	2	6	4	4	4	5	3	4	8	9	8	6	6	4	4	6	5	5	2	2	3	1	1	3	4	3	1	1	4	8	9	6	3	4	5	7	7	7	7	5	4	5	5	1	4	7	3	4	4	2	6	5	8	9	5	4	2	1	8	12	7	16	45	45	59	50	41	117	88	18	11	
61	54	13	29	12	18	27	55	42	12	27	23	35	47	4	23	74	38	158	135	58	89	52	81	30	5	27	43	32	9	3	4	7	10	5	4	8	4	3	2	0	2	5	5	0	2	2	4	4	2	1	0	4	12	11	14	13	5	5	36	29	46	34	108	126	55	146	73	12	12	10	88	141	84	9	14	2	3	2	3	4	4	4	3	3	6	11	8	5	19	22	51	92	67	30	27	69	80	20	40	39	37	21	30	17	7	27	49	29	5	4	5	14	17	11	17	0	26	41	38	21	32	24	11	36	68	70	66	75	79	48	13	13	9	14	8	3	3	5	9	11	8	5	2	11	11	8	4	4	5	7	2	4	4	2	3	3	2	4	3	5	7	7	5	5	7	5	3	4	8	7	3	1	2	1	0	3	5	7	7	5	1	1	7	6	8	7	0	4	8	7	2	6	4	1	3	3	4	1	0	0	4	3	4	5	0	7	12	10	2	3	6	4	4	10	14	12	12	9	7	5	4	5	7	8	7	4	3	4	2	6	8	8	5	2	1	2	4	4	2	4	19	30	16	102	113	56	16	24	62	106	112	54	10	13	5	3	9	11	17	20	8	72	132	149	112	45	10	22	14	4	5	3	1	2	8	2	6	2	2	4	6	8	7	5	2	4	7	2	12	24	15	57	137	99	11	12	2	0	0	1	4	7	7	10	4	5	5	21	11	71	142	73	88	147	52	30	15	12	9	1	6	7	7	8	7	4	2	4	7	4	4	2	7	5	3	4	3	1	3	4	5	8	4	5	1	7	7	9	4	4	4	5	7	6	2	4	1	3	5	7	7	7	4	7	6	1	6	3	7	10	7	4	6	4	7	9	5	4	3	4	3	8	13	9	18	16	8	5	5	1	3	5	10	11	8	4	3	6	8	7	5	4	4	5	11	11	9	6	7	4	4	8	7	7	4	6	6	1	2	4	5	8	11	11	9	7	7	11	15	15	12	9	8	9	8	7	5	7	6	2	3	2	4	4	7	5	2	7	7	6	7	8	8	4	0	2	2	5	5	0	6	7	5	5	4	2	1	3	3	1	3	8	5	7	11	10	11	12	9	18	65	85	112	112	89	63	24	5	2	7	5	1	0	1	2	5	1	7	8	7	10	8	8	8	4	5	3	1	2	5	6	5	4	4	4	4	3	3	4	7	9	2	5	7	8	8	7	11	15	11	6	4	5	4	2	4	3	7	5	8	8	5	2	4	4	2	3	3	7	8	8	6	4	6	4	6	6	4	2	0	1	2	1	4	0	6	1	3	3	3	0	3	4	7	8	8	8	6	3	2	3	5	4	4	4	4	2	2	3	3	2	3	4	4	4	3	0	3	6	3	2	3	4	4	4	7	7	4	4	4	2	2	5	2	8	8	2	9	8	5	4	3	4	10	8	3	24	36	2	63	106	113	68	10	14	
63	58	9	22	18	35	22	65	64	29	5	13	41	50	9	15	66	13	156	139	70	87	62	106	48	31	55	55	65	28	4	5	8	9	2	5	8	7	2	3	4	5	2	5	7	5	3	3	7	2	3	0	4	14	12	4	12	23	25	23	20	40	31	92	138	11	117	100	29	12	18	32	122	123	36	14	6	4	2	3	4	0	4	6	3	11	24	40	61	75	82	91	90	58	37	19	68	90	16	43	25	45	4	21	22	40	44	75	56	9	4	2	4	7	2	8	10	3	21	34	34	24	13	5	15	44	46	20	37	48	29	4	6	8	9	7	5	7	8	11	9	5	3	6	12	9	8	3	3	4	6	4	4	3	1	3	3	3	7	2	7	8	8	4	4	8	5	3	4	8	6	1	2	1	2	1	1	3	3	4	6	2	2	2	3	5	6	2	4	7	7	3	2	4	4	5	4	5	4	3	4	4	0	4	3	0	6	9	8	7	8	8	5	4	5	10	11	11	9	7	5	5	6	5	4	3	3	2	5	4	4	1	5	7	6	3	3	0	1	4	13	23	19	34	114	111	39	32	69	97	107	78	24	10	12	7	4	7	4	4	10	21	14	29	97	147	141	83	17	21	23	12	5	5	6	7	1	7	3	5	6	5	10	10	8	7	7	9	2	8	17	27	17	115	130	39	13	7	0	0	1	5	5	7	11	8	8	6	9	18	46	136	110	58	165	91	22	19	11	8	6	7	12	8	4	1	0	0	0	4	3	4	3	6	4	3	5	4	3	4	3	2	5	6	3	1	2	4	4	4	5	3	0	4	5	5	2	4	5	7	5	5	3	4	7	3	6	8	8	9	13	12	9	8	7	7	11	5	1	3	4	2	8	12	6	8	14	10	6	7	6	5	6	10	11	9	8	9	11	12	12	12	12	12	11	11	8	6	9	8	3	9	10	7	7	7	4	5	5	1	4	6	4	4	3	2	4	4	7	8	11	11	8	7	11	14	11	6	6	5	4	4	2	4	1	4	2	2	7	11	12	12	11	7	2	2	3	7	8	4	6	5	8	10	9	7	4	4	5	6	5	3	7	9	4	8	10	8	6	17	10	84	127	67	65	116	89	24	11	7	5	3	1	3	4	3	3	3	5	8	10	8	5	5	7	3	4	1	3	2	1	2	2	1	0	1	5	5	5	6	5	11	8	11	10	7	4	3	5	11	12	9	6	1	4	3	3	3	7	4	3	8	9	5	4	1	3	4	10	11	11	8	4	1	7	7	5	7	9	5	4	4	4	4	4	1	6	1	4	3	0	2	1	1	5	7	7	5	5	8	5	3	6	3	3	4	5	0	1	4	4	6	4	3	1	4	4	0	1	5	7	7	5	2	2	4	7	5	1	3	6	5	1	6	4	5	10	5	5	7	4	5	4	1	5	7	8	9	15	53	99	116	87	39	11	47	
51	63	24	7	20	50	27	51	71	69	54	19	40	55	14	15	62	13	138	120	57	60	87	115	44	48	99	49	92	57	7	8	9	20	22	33	43	28	14	13	19	17	19	11	17	17	15	12	10	5	5	2	4	12	10	6	21	48	56	38	18	37	28	75	117	44	75	104	42	7	24	11	81	133	63	10	12	2	4	2	4	3	3	4	14	38	74	105	109	100	98	95	74	39	25	9	82	103	36	53	22	27	33	19	37	73	65	93	101	34	7	5	6	8	5	5	10	7	2	10	18	17	9	3	3	30	50	31	52	66	39	8	6	4	4	5	6	7	7	8	5	2	2	8	12	9	8	2	3	2	2	3	3	1	0	1	3	5	8	3	7	8	8	4	4	8	4	0	1	7	8	2	4	4	2	4	1	1	4	4	4	4	2	3	3	5	6	0	3	5	8	5	1	4	7	7	3	7	7	4	4	3	3	5	4	3	7	8	5	3	4	3	2	2	1	4	6	5	4	5	7	4	3	2	0	3	4	3	7	4	1	3	4	7	8	1	4	3	2	8	15	11	38	98	129	66	41	97	111	99	70	28	5	11	10	4	4	5	1	1	3	5	18	25	4	63	135	160	116	43	9	26	19	12	7	1	3	5	2	6	7	1	7	8	5	7	10	13	7	4	14	32	15	88	145	66	13	14	2	2	4	5	3	3	7	5	4	4	2	13	31	122	130	11	145	145	51	9	4	7	8	7	13	7	4	1	0	1	3	5	5	3	2	4	7	7	7	4	7	4	1	0	1	4	7	8	8	7	4	7	5	3	4	4	5	7	2	8	9	8	6	0	6	7	4	4	8	7	7	7	4	7	4	7	8	7	12	7	2	4	5	3	8	9	5	2	6	7	5	8	10	9	7	5	5	7	8	7	5	4	5	7	9	11	12	12	8	6	8	10	9	15	9	5	7	5	1	2	5	7	7	4	3	1	0	0	1	2	4	5	4	2	4	5	7	12	12	7	5	5	7	7	5	5	3	3	2	3	4	5	6	5	4	4	5	7	8	11	7	4	7	6	6	4	4	4	4	7	6	2	6	8	7	7	3	3	7	6	2	18	17	67	144	99	39	131	107	20	20	8	4	1	3	4	5	6	4	3	2	1	3	2	2	4	7	4	3	1	2	3	7	7	5	2	4	8	13	11	11	10	0	7	5	6	4	2	1	4	0	5	8	7	7	5	1	1	2	0	5	7	4	3	10	9	6	4	6	9	10	5	5	8	8	3	7	9	7	4	8	7	5	3	2	3	3	3	5	4	5	4	3	0	0	3	7	5	4	4	2	5	7	3	4	4	6	3	3	6	5	5	4	6	4	1	0	4	4	0	0	2	6	7	5	4	3	4	7	4	4	6	4	8	3	4	3	7	7	5	2	5	5	7	6	1	3	6	10	17	6	72	123	75	34	19	21	86	
27	63	47	14	21	60	39	23	37	49	72	53	34	57	12	6	59	19	127	121	45	53	88	110	33	69	136	67	116	92	17	26	25	25	66	86	77	69	32	13	38	21	32	28	11	10	5	3	11	11	11	7	5	11	8	7	48	65	55	51	39	56	53	49	97	51	50	107	51	4	14	21	58	133	84	11	21	5	3	3	4	4	4	7	20	64	86	89	72	49	35	27	6	17	30	41	92	94	19	36	34	17	39	42	64	77	60	68	128	81	25	19	16	6	1	3	9	5	4	4	3	4	6	4	4	17	58	62	41	92	85	33	3	3	4	4	4	7	7	5	3	3	2	9	12	10	7	2	3	2	0	1	3	3	1	3	4	5	8	4	7	7	7	3	4	6	4	1	0	5	10	6	3	7	4	3	1	4	4	1	1	4	6	4	4	7	7	3	1	1	5	7	4	4	7	8	1	8	9	4	0	0	4	7	4	3	8	7	4	3	0	3	4	3	0	0	1	3	4	3	4	5	4	1	0	3	4	4	7	4	1	4	3	4	8	4	1	2	8	15	2	49	103	127	78	31	106	111	83	53	24	1	7	7	10	7	9	7	1	0	2	0	3	17	31	26	25	105	155	147	92	22	17	21	12	4	1	4	3	3	7	5	4	6	4	4	7	12	14	7	6	31	28	66	151	89	12	23	2	5	5	5	6	3	2	6	7	7	8	13	8	86	150	88	56	152	127	38	9	5	8	7	10	5	6	7	5	5	7	8	7	5	7	8	7	8	8	7	7	4	3	0	0	3	5	10	12	11	9	11	10	7	4	1	8	7	7	11	8	5	4	5	3	2	1	6	6	2	4	5	2	5	0	7	6	3	12	8	1	3	7	1	9	9	4	2	4	4	4	7	8	8	7	5	5	7	8	6	2	0	0	0	3	5	7	7	3	2	5	3	9	18	12	4	4	4	2	5	11	12	9	7	5	4	4	4	3	1	2	8	13	10	3	3	6	10	6	5	5	4	4	4	4	4	3	3	1	4	4	1	3	4	3	1	6	7	5	7	1	6	5	5	8	7	8	7	5	7	4	2	2	3	3	2	4	5	3	1	2	14	20	27	115	147	52	96	144	64	16	14	5	3	4	3	2	1	2	1	3	3	4	4	4	3	4	4	3	2	3	4	4	4	7	5	8	10	9	5	10	12	4	3	3	4	7	7	5	5	3	4	5	3	5	8	8	9	10	8	4	3	5	3	4	10	11	9	9	12	10	5	2	5	8	4	6	11	7	4	6	3	2	0	0	0	1	4	3	3	4	2	4	4	3	3	8	5	3	5	4	4	5	3	2	2	1	5	4	4	5	7	3	2	6	4	3	5	4	0	0	2	2	2	2	4	4	3	5	6	8	8	5	6	0	2	3	4	2	4	2	3	4	7	10	1	6	2	7	16	17	45	135	123	48	26	22	89	
8	47	68	41	18	68	53	7	12	10	57	63	23	64	10	8	63	46	120	146	18	50	72	100	27	111	160	80	140	132	27	17	18	11	115	123	82	119	43	14	45	23	38	35	25	63	71	56	28	10	15	10	10	15	14	14	64	75	39	52	44	58	80	8	94	68	41	114	62	15	10	18	41	127	101	14	18	13	2	7	7	5	4	11	13	79	108	54	18	26	12	25	46	47	42	53	84	65	6	31	41	37	36	40	55	48	42	21	108	114	45	22	18	12	3	1	8	4	1	3	5	6	7	3	5	3	42	87	56	44	98	56	7	5	5	3	3	7	7	6	5	4	2	11	11	8	5	9	7	1	2	4	4	4	3	4	4	4	7	3	7	7	5	0	5	2	2	4	1	4	9	7	2	4	7	3	2	4	0	2	1	3	7	7	6	4	7	4	3	1	3	5	7	7	5	7	2	7	9	5	4	4	4	7	4	4	8	4	6	8	7	4	3	3	2	1	3	4	4	4	5	5	1	0	1	4	7	6	3	4	4	4	1	1	5	7	7	7	18	13	41	99	112	61	31	103	100	48	11	5	9	8	5	4	10	7	9	11	5	4	5	6	4	4	12	30	38	8	62	129	160	121	39	19	26	14	5	8	8	3	5	5	3	1	6	7	7	8	11	12	6	21	34	40	143	116	8	29	12	1	5	3	2	4	1	12	10	12	14	15	15	31	124	160	73	75	156	99	9	13	5	7	8	8	8	10	8	5	4	7	6	2	3	2	3	6	7	7	4	5	4	0	0	3	6	3	1	3	5	9	10	10	8	7	9	1	10	10	7	5	2	5	7	5	0	5	7	4	4	3	0	4	0	7	5	8	13	5	4	4	8	4	12	11	6	7	7	1	5	7	7	5	5	7	7	5	4	4	3	0	0	1	4	6	4	1	5	5	8	8	8	16	14	3	4	7	9	13	15	13	9	9	10	8	5	4	4	4	3	5	3	9	10	3	13	10	3	2	4	3	0	0	4	4	0	0	0	4	5	3	4	2	2	6	5	6	4	4	2	5	4	3	5	7	8	8	7	7	4	3	4	4	4	3	0	5	7	4	1	10	16	11	50	136	136	7	136	103	12	19	5	5	3	2	2	1	2	1	3	2	0	2	1	1	4	7	8	7	6	8	9	4	4	4	5	4	5	7	11	12	4	3	4	1	3	3	4	6	3	4	4	0	1	4	7	8	10	13	12	7	1	4	5	2	4	5	8	10	7	7	4	4	7	5	7	11	5	7	7	3	1	0	1	2	4	4	0	2	3	2	6	8	8	6	6	7	3	5	5	5	5	3	3	4	6	5	3	0	2	5	7	2	9	8	2	7	4	0	0	1	4	6	5	4	3	1	3	4	7	7	7	7	6	5	2	4	3	2	4	3	3	4	12	4	7	1	6	8	21	10	77	130	118	90	41	55	
24	24	75	72	12	64	70	8	18	7	67	105	67	103	19	11	68	60	87	155	64	32	66	91	16	125	139	35	126	153	83	66	58	21	140	154	77	162	62	16	46	26	36	29	70	119	105	106	64	2	14	5	4	10	24	35	84	95	47	65	38	33	92	34	95	92	34	120	89	17	24	11	23	103	126	77	24	12	10	6	10	9	7	12	2	69	124	70	15	30	18	37	54	45	31	44	63	35	8	22	46	65	49	45	30	22	40	34	53	115	58	2	18	18	3	0	9	4	1	0	3	4	2	1	2	5	20	62	78	48	83	59	7	4	7	4	4	8	7	4	4	2	6	12	9	3	7	10	10	7	2	7	5	2	4	5	4	5	5	3	7	5	2	2	5	1	4	7	5	3	7	5	5	3	3	4	4	2	2	0	2	1	4	7	8	7	8	5	4	3	2	1	3	4	3	4	3	5	6	4	6	5	3	4	4	4	7	2	3	4	7	8	4	1	1	2	2	4	3	1	3	4	4	4	4	5	6	5	2	3	6	4	1	0	1	3	4	16	20	20	92	115	54	42	103	97	46	11	31	28	19	6	4	2	8	7	4	7	7	7	5	4	4	3	3	6	20	32	26	12	92	155	120	33	18	26	12	4	9	7	4	2	3	4	4	4	7	7	7	10	13	5	29	7	106	146	70	12	21	7	10	8	3	2	7	13	8	7	10	7	17	26	45	145	160	38	119	147	62	8	5	4	9	9	4	5	6	1	3	7	5	2	4	1	5	2	3	6	5	7	4	0	0	1	5	5	4	3	1	5	7	5	5	8	11	10	11	5	4	7	3	6	9	11	9	7	7	5	3	3	4	4	2	5	5	8	7	3	8	5	8	6	9	9	8	14	19	9	12	7	4	2	2	2	2	2	0	4	4	0	1	4	4	5	4	0	4	7	4	2	7	13	11	3	4	6	10	15	15	10	8	8	7	5	4	3	2	4	5	8	9	7	10	4	15	8	4	4	4	4	0	1	4	3	1	3	3	3	7	4	7	7	6	8	7	5	5	2	1	4	5	4	4	4	4	5	6	5	4	6	10	9	7	5	4	3	3	2	5	4	10	25	15	74	150	66	104	109	17	17	1	7	2	4	5	7	7	5	5	8	10	8	5	4	5	7	7	5	4	5	8	4	4	5	5	5	7	9	12	11	5	5	5	4	4	4	7	7	4	5	5	4	4	3	1	4	4	7	11	10	5	1	7	8	4	2	5	8	7	5	2	4	7	7	8	8	3	8	8	1	3	5	7	7	8	5	4	4	3	4	4	4	5	6	5	7	2	4	4	4	7	4	4	3	3	3	1	1	4	4	11	7	9	14	8	7	3	0	1	3	4	4	4	3	1	0	0	4	5	3	4	5	5	8	4	2	4	3	2	5	4	0	8	8	3	2	5	2	10	17	12	66	106	114	110	53	
35	11	60	88	46	57	77	18	21	11	77	130	24	129	34	17	64	70	40	117	69	34	69	99	31	121	121	31	77	122	90	84	93	57	138	186	56	190	104	15	57	32	34	20	100	139	90	152	99	5	14	5	3	15	27	45	114	131	55	76	34	24	99	53	94	106	22	110	128	61	4	9	8	45	106	121	79	17	13	5	4	7	8	14	13	46	121	95	13	22	31	63	60	41	43	38	47	18	4	20	63	93	45	51	23	17	43	60	22	113	83	29	15	14	3	1	9	4	2	1	5	5	4	4	3	5	21	31	43	55	63	43	6	1	6	4	4	7	8	4	0	2	7	11	8	4	5	2	7	11	7	5	6	1	3	5	3	7	4	2	6	3	3	3	2	4	5	5	7	3	4	4	4	3	2	3	7	7	3	1	1	0	0	0	1	2	4	4	2	4	4	3	4	4	3	2	3	5	4	2	3	4	1	2	6	6	4	3	4	4	2	4	6	5	4	1	3	6	7	5	3	6	7	5	4	5	4	5	5	5	3	3	4	4	4	3	8	18	19	77	115	67	41	106	96	46	3	31	33	23	22	7	7	5	7	8	6	1	3	4	4	1	4	4	4	5	2	10	26	38	12	92	145	122	59	5	17	13	10	8	4	1	2	2	7	6	3	5	7	9	13	11	10	19	42	129	130	77	70	73	76	62	29	12	12	12	8	4	2	2	7	29	19	68	164	133	25	145	125	36	11	10	9	5	1	6	6	1	2	5	3	4	4	3	7	2	6	2	7	8	4	0	0	1	4	3	4	4	0	1	6	7	3	5	9	13	12	9	7	8	8	7	9	12	12	8	4	1	5	5	5	5	3	4	3	4	4	4	5	1	5	2	4	12	26	27	35	21	11	5	7	1	1	3	4	4	1	4	4	0	3	4	1	3	4	3	1	7	9	6	9	12	7	2	1	5	10	14	12	8	5	4	4	5	6	5	4	1	2	5	7	5	4	8	12	7	3	4	4	3	0	3	4	1	3	5	6	4	7	4	3	4	7	7	3	2	3	2	2	2	6	7	5	4	5	6	5	3	2	7	9	7	5	5	6	5	3	1	2	2	8	21	35	35	122	74	89	95	13	12	2	6	1	6	10	8	8	8	8	8	9	11	8	5	7	7	7	6	6	7	8	4	4	5	7	7	5	7	11	8	6	7	7	4	4	3	5	8	5	7	5	4	4	4	2	3	6	3	4	9	10	7	4	8	5	6	13	21	22	16	8	2	3	4	7	7	3	8	7	5	8	11	11	9	11	8	7	5	3	3	3	3	4	2	4	5	1	2	6	8	11	7	2	4	2	2	1	1	4	6	9	9	1	9	10	7	1	3	4	4	3	1	0	0	0	0	1	4	5	2	3	2	1	3	7	5	4	3	2	3	2	3	4	8	4	1	2	1	3	4	11	10	35	80	155	110	
34	23	35	70	52	59	67	5	21	6	69	145	31	129	36	28	54	74	15	86	64	16	51	114	74	105	98	22	43	82	35	37	97	90	125	209	21	197	151	15	78	41	40	17	117	164	75	194	152	20	15	7	6	16	23	36	141	163	38	70	29	28	110	61	97	108	18	64	130	133	74	19	10	1	35	96	115	64	7	7	2	3	7	13	19	19	98	126	66	8	22	69	80	14	41	33	31	13	13	16	78	112	37	30	39	30	19	62	8	117	105	31	28	3	5	3	5	5	5	4	7	4	1	1	3	4	18	20	21	27	29	22	8	2	2	6	7	5	7	4	1	3	7	10	11	5	3	6	3	7	11	9	8	4	2	4	3	7	4	1	5	6	4	1	0	4	4	4	5	2	1	4	4	1	4	5	8	10	10	5	3	1	0	0	0	1	1	3	2	5	7	2	3	4	4	4	1	4	2	4	3	4	4	4	4	4	1	4	1	3	4	2	2	4	7	0	7	4	5	7	5	7	8	7	4	2	1	2	5	8	10	8	5	4	4	4	9	15	55	99	62	41	107	97	43	5	17	33	12	27	26	6	3	4	5	5	3	3	3	4	5	4	5	5	4	3	0	3	5	21	26	17	81	139	144	95	33	8	21	18	7	2	5	4	3	6	5	2	2	5	9	17	10	13	7	57	112	125	127	124	127	128	86	22	8	8	4	1	0	1	4	17	35	5	109	175	82	86	157	101	16	19	18	8	2	7	8	7	4	4	3	4	0	4	7	0	8	1	7	8	5	5	6	5	4	1	3	4	1	1	5	9	8	9	12	15	14	11	11	12	11	8	8	9	11	8	5	4	4	4	4	1	2	1	3	2	4	0	4	2	4	6	0	27	51	36	40	23	5	11	8	5	7	7	6	7	5	2	4	4	5	5	4	2	2	4	6	2	3	2	10	14	9	7	1	8	12	13	8	4	4	3	2	2	4	7	7	3	4	1	2	5	7	8	8	5	3	4	3	2	3	4	3	1	5	8	8	10	10	7	6	6	5	2	2	4	3	2	4	5	3	4	8	11	11	8	5	4	5	10	8	4	5	6	5	4	3	1	5	7	7	7	26	21	92	55	78	72	5	9	4	2	3	5	11	6	3	4	7	6	3	5	7	1	7	5	5	7	8	9	10	4	1	1	3	4	3	7	12	7	5	5	7	3	0	0	4	10	4	6	5	2	1	1	4	0	5	5	3	6	14	14	5	5	5	5	11	10	12	13	12	9	6	4	5	5	3	8	8	8	11	10	8	7	10	11	12	11	8	4	1	3	3	4	7	5	1	2	6	8	12	12	5	2	5	1	3	5	10	10	4	5	6	4	1	3	5	4	3	1	0	0	0	0	0	1	4	5	8	5	4	3	1	1	4	7	4	2	3	5	0	4	3	5	6	2	1	4	5	5	5	18	27	33	147	150	
25	22	20	44	37	39	42	7	15	15	56	144	18	131	42	44	32	71	15	67	76	3	24	75	79	75	78	16	35	84	26	40	91	120	107	217	28	198	187	17	105	50	63	40	134	209	75	190	213	64	21	18	30	54	68	34	160	170	15	68	14	22	124	76	102	114	26	9	55	122	130	65	1	2	7	38	107	103	31	7	5	3	7	13	16	11	49	117	105	35	34	58	70	36	11	15	17	12	19	7	88	110	34	25	34	33	18	55	20	106	135	37	27	11	7	2	4	7	8	7	5	0	5	6	4	1	11	22	20	12	8	12	15	11	5	5	7	7	5	4	4	3	6	5	8	9	3	0	2	3	9	10	7	6	7	1	4	3	4	1	2	2	2	2	0	4	5	4	7	4	2	5	5	4	4	3	3	4	8	4	4	3	1	3	4	4	4	3	2	7	7	1	0	0	1	4	1	4	2	3	4	3	6	3	3	4	2	4	4	3	0	4	4	4	6	2	7	4	3	5	4	7	7	8	5	2	4	2	3	6	10	10	5	1	0	3	7	18	54	59	44	97	84	34	3	7	15	23	15	30	17	6	7	6	7	7	4	4	4	4	5	2	4	4	2	7	11	12	11	2	12	17	7	53	117	144	122	68	12	27	22	7	4	7	5	0	3	4	4	4	3	10	15	5	10	4	41	74	64	32	29	84	121	60	13	17	2	0	0	3	7	12	31	40	42	160	148	3	125	150	95	22	18	21	7	1	7	10	10	7	3	1	3	4	4	2	7	3	5	8	7	8	8	6	3	3	2	3	3	3	3	7	8	12	14	12	9	9	11	11	8	5	5	8	12	15	13	14	16	13	10	10	8	5	4	2	4	4	4	3	1	8	4	51	68	30	54	38	20	15	10	8	9	10	8	7	7	2	4	7	7	5	4	4	4	4	6	3	4	2	5	13	11	10	5	5	14	14	5	5	7	4	4	3	4	8	8	3	4	4	4	5	13	7	4	5	4	4	2	4	4	3	0	4	7	8	7	11	14	12	9	8	6	4	3	2	2	4	4	5	7	2	4	7	8	10	8	8	7	8	5	3	6	7	8	8	2	6	5	2	2	4	17	13	65	46	59	44	4	7	4	6	5	4	7	7	4	2	2	3	2	4	8	3	7	8	4	1	1	8	12	7	6	5	4	5	5	9	16	4	3	4	7	4	1	0	3	8	7	5	6	2	3	0	3	2	2	4	8	5	11	18	12	5	5	5	12	8	10	7	4	11	14	13	12	10	4	4	4	5	8	5	4	4	4	7	8	8	10	7	6	7	5	1	6	6	2	3	4	5	4	10	11	4	4	2	4	6	3	3	4	4	4	4	5	7	5	1	0	0	0	0	0	0	1	4	4	2	5	4	1	1	3	3	2	4	4	2	1	5	3	2	4	5	5	1	3	4	2	3	2	8	29	3	103	161	
19	19	13	32	22	21	27	7	7	23	65	154	11	149	63	65	26	58	30	47	87	18	44	30	66	31	65	27	29	88	24	74	84	148	77	221	50	199	213	12	133	58	89	42	148	221	91	137	235	123	17	36	77	91	129	118	166	148	13	67	11	17	123	97	88	128	34	20	17	41	123	126	36	18	7	7	74	127	62	27	18	3	10	6	14	25	5	83	113	46	48	65	55	32	2	2	11	12	16	17	96	102	18	24	20	20	17	37	34	59	146	107	26	9	5	1	5	7	7	5	2	4	5	2	6	2	7	10	14	8	3	3	11	12	4	4	5	7	7	5	2	3	4	4	8	8	7	8	7	5	4	4	2	4	10	7	1	1	4	4	2	4	4	4	3	3	7	4	7	8	8	10	8	6	1	4	7	7	7	1	4	3	5	7	8	7	6	6	4	9	5	0	0	0	1	4	1	4	2	1	4	0	5	4	4	3	2	3	4	4	4	0	3	2	3	6	4	3	0	4	3	5	1	6	7	4	4	4	1	2	2	4	5	3	0	1	3	13	40	56	67	65	22	10	5	4	13	17	17	16	7	8	8	7	4	2	3	5	5	8	11	10	5	6	12	11	5	1	8	10	4	7	25	21	21	76	128	146	101	22	25	30	19	14	11	5	3	0	3	5	8	3	7	13	7	8	19	8	44	84	110	62	89	103	20	21	11	1	1	4	10	9	21	44	20	103	161	103	25	110	148	114	37	17	25	14	5	5	9	7	2	0	3	4	3	5	5	3	3	5	7	6	2	3	3	3	4	3	5	4	2	3	4	9	10	7	6	2	8	7	4	0	3	5	7	10	12	15	14	11	7	10	12	11	7	3	4	6	3	1	2	8	5	65	65	26	74	42	11	5	1	2	4	1	6	7	8	4	2	3	2	1	1	1	2	4	4	1	2	4	2	10	12	8	5	4	12	11	7	8	8	4	5	3	5	8	7	3	4	7	4	6	12	10	7	4	2	3	0	3	3	4	4	4	5	9	7	7	7	5	5	4	4	7	2	1	4	4	3	4	7	4	4	5	4	8	8	5	3	4	4	4	5	7	12	11	2	10	5	3	0	2	13	5	40	39	33	22	9	10	8	8	8	7	4	3	3	3	3	5	2	5	9	5	6	10	9	7	5	8	14	10	7	7	5	7	8	13	19	5	3	3	5	5	3	0	1	5	5	3	4	2	4	2	3	6	6	2	9	8	4	13	14	9	8	8	11	11	14	10	6	7	9	11	12	12	8	7	4	5	7	4	3	3	3	4	3	2	5	5	1	3	6	2	7	5	1	2	7	9	6	4	7	7	7	4	4	5	7	8	8	7	5	4	4	4	1	0	0	0	0	0	0	0	2	3	3	4	4	3	0	1	3	3	1	4	7	4	5	1	4	4	1	3	4	2	4	3	0	0	4	2	21	25	50	146	
19	23	12	34	17	17	22	4	6	24	63	148	67	156	63	59	21	42	35	31	84	44	57	36	75	22	48	31	9	72	60	84	78	166	48	226	68	198	222	17	153	71	114	41	171	202	77	88	206	172	60	41	116	100	92	138	152	106	37	70	15	11	101	119	40	135	53	8	24	28	72	154	87	14	8	18	62	150	86	36	35	7	9	4	14	34	33	52	101	52	47	57	34	19	6	5	5	13	19	14	98	101	12	25	12	10	5	18	41	9	93	126	51	14	12	8	5	5	6	5	5	7	1	4	5	2	7	3	8	4	5	6	8	10	4	4	6	4	4	3	2	4	1	4	7	5	7	8	7	4	1	4	2	2	7	7	6	4	5	7	3	8	7	6	5	3	7	4	1	4	5	3	4	4	7	7	9	8	3	0	3	3	7	5	4	4	4	4	7	10	5	1	0	0	3	5	4	5	4	2	5	4	5	3	1	2	1	0	1	3	5	4	4	4	4	4	2	2	4	2	0	3	6	5	4	4	5	4	3	1	4	3	4	4	1	1	3	4	17	29	28	20	10	8	4	2	8	7	6	3	3	3	1	1	3	4	4	5	4	8	12	8	24	55	77	87	87	78	55	22	2	7	8	24	25	11	37	114	160	127	48	13	27	26	23	14	7	4	4	1	6	10	6	5	11	4	21	8	81	120	116	137	43	88	76	11	18	6	3	4	11	10	7	25	27	29	119	158	112	15	82	131	110	42	13	28	14	7	13	8	2	0	1	4	1	3	2	1	1	3	4	4	5	5	5	3	7	4	7	4	2	1	6	10	5	5	9	3	9	2	3	3	4	9	1	3	3	4	5	10	2	3	4	7	7	1	2	2	5	3	5	7	4	61	66	48	70	34	4	8	7	8	9	9	5	7	8	5	1	2	4	4	3	2	4	3	1	2	3	4	4	7	11	8	4	4	9	6	3	5	5	4	6	4	8	8	7	4	5	9	5	5	9	8	8	8	11	10	8	10	12	11	8	5	4	9	8	6	4	3	4	3	4	7	5	3	6	13	15	11	7	5	4	6	4	5	8	5	4	2	3	7	6	4	13	11	4	10	3	4	4	4	10	3	14	22	20	8	4	5	4	4	5	6	5	3	4	2	5	2	1	7	10	5	4	5	7	7	5	10	11	8	4	3	2	5	5	10	16	10	8	3	3	6	4	4	4	5	5	4	4	3	3	1	3	4	5	6	5	7	1	8	10	6	2	5	7	8	8	11	12	11	7	7	8	8	7	4	3	5	5	5	0	3	4	4	4	3	5	8	7	7	4	2	7	3	0	2	7	4	7	7	4	0	3	4	4	3	4	5	5	5	5	4	3	1	0	0	0	1	2	2	3	3	1	1	3	4	3	0	3	4	3	4	4	2	6	4	2	2	0	4	4	2	4	5	3	4	6	5	4	2	13	32	5	100	
23	25	17	45	17	22	23	5	16	23	50	110	58	122	31	55	15	34	36	17	70	58	64	51	87	61	41	23	14	41	60	60	99	175	51	231	67	193	208	38	160	87	137	58	184	184	53	46	146	188	116	76	146	97	41	61	86	56	44	73	39	17	71	130	29	117	84	8	11	50	18	139	133	26	17	10	61	156	89	28	37	2	11	12	22	37	62	34	71	57	38	43	25	27	15	3	2	10	27	6	92	108	31	19	6	8	10	2	30	36	50	120	58	22	24	20	6	5	1	8	9	2	5	7	7	5	7	7	10	8	6	2	5	7	4	3	5	4	0	0	3	4	1	4	6	1	3	4	4	3	1	4	3	1	5	4	6	5	6	7	7	12	11	4	5	0	6	4	1	4	8	12	15	14	9	7	7	7	5	1	1	3	7	4	1	0	0	0	5	10	7	1	3	4	4	5	0	4	4	1	7	4	7	5	3	2	3	1	4	4	5	4	4	2	2	4	4	2	3	4	1	3	2	1	2	6	7	5	5	4	4	4	4	5	3	3	4	4	2	4	5	4	5	5	7	4	5	1	0	1	2	4	4	2	2	3	1	4	4	8	15	5	60	96	99	107	111	117	117	96	52	11	3	7	11	20	28	12	92	155	147	91	34	7	28	30	18	7	4	5	4	4	5	0	8	3	15	6	81	131	53	83	100	12	81	48	11	19	5	6	6	10	5	4	18	19	28	99	143	115	59	45	100	118	63	14	17	13	14	4	4	3	2	5	5	7	5	3	1	1	2	1	7	10	8	8	8	4	8	4	2	3	5	8	6	2	8	8	8	2	4	5	1	8	6	6	7	8	8	10	4	5	4	2	7	4	2	3	5	3	5	5	4	38	64	58	44	20	8	9	5	6	9	8	4	5	10	8	6	4	1	1	2	7	4	3	7	10	9	9	10	8	8	6	4	2	7	5	1	4	4	3	5	4	5	5	6	3	4	10	7	4	7	7	5	10	12	12	12	13	14	12	8	5	4	6	7	7	4	2	6	7	7	8	11	10	8	12	14	13	11	9	7	5	4	4	8	8	8	8	7	5	4	2	9	11	6	7	1	3	6	8	8	6	2	6	8	5	5	4	2	2	1	0	2	0	4	3	5	5	3	8	9	4	0	1	4	7	2	8	7	5	7	7	5	6	10	10	6	9	11	10	3	4	10	11	9	7	7	7	7	5	0	3	3	1	1	4	6	5	1	5	5	6	2	1	5	7	4	7	12	14	14	12	8	4	2	5	5	3	5	9	7	6	2	0	4	4	6	10	6	6	5	8	8	5	3	2	7	6	2	5	6	5	4	4	3	0	0	3	4	4	3	0	0	0	0	0	0	3	2	6	4	4	4	4	4	1	0	3	4	3	3	10	8	6	1	4	3	0	3	3	2	2	4	5	7	10	13	12	4	2	7	24	22	46	
24	23	23	52	17	26	25	14	24	21	52	83	17	89	18	44	27	32	29	7	39	39	46	34	66	55	30	21	21	18	25	21	133	179	76	241	63	180	189	70	153	98	148	91	179	170	35	21	91	167	106	106	164	74	7	58	60	25	27	61	48	19	37	110	88	68	96	22	10	51	28	94	156	86	5	17	58	155	97	44	53	30	26	25	48	73	60	73	26	48	19	23	25	44	44	23	6	7	29	10	75	103	38	4	8	14	16	13	22	37	40	116	52	22	23	28	11	2	5	5	8	7	8	7	5	4	5	4	10	14	19	17	11	10	4	0	4	4	0	0	1	4	4	5	7	2	3	0	4	3	2	2	2	3	6	7	4	7	5	5	9	9	5	2	5	0	6	3	5	10	11	10	10	8	4	3	3	4	7	4	3	3	6	2	2	0	0	0	4	11	8	2	4	4	3	2	3	7	7	5	9	4	8	7	3	2	3	3	4	2	4	4	3	4	5	6	4	1	0	4	3	4	3	0	3	4	3	2	4	4	5	6	5	7	5	4	3	1	5	7	4	2	2	5	8	4	3	0	0	3	3	7	5	4	4	4	3	4	6	4	14	26	91	100	46	29	34	57	96	126	111	50	2	5	1	5	22	39	14	62	128	155	134	84	25	18	31	18	4	5	10	12	10	5	8	4	8	8	52	123	124	68	59	47	43	75	17	32	20	4	8	13	11	5	6	19	25	14	80	115	97	50	37	120	135	64	5	10	5	6	7	4	5	7	5	4	5	3	2	3	3	5	4	4	8	13	14	8	7	1	2	7	7	5	4	1	4	9	7	2	4	5	1	4	7	8	8	7	5	8	3	5	4	2	7	11	8	2	3	4	3	3	5	5	25	26	14	7	6	5	1	2	1	7	8	7	15	12	4	7	4	3	3	5	3	7	8	7	7	6	7	7	4	3	7	4	4	5	4	4	3	1	4	2	2	5	7	5	3	9	6	2	5	5	8	10	9	9	10	9	7	8	7	4	5	8	10	9	5	4	4	5	5	4	5	7	6	6	1	5	3	1	1	2	3	3	4	7	8	10	12	8	2	1	5	9	7	2	4	7	6	9	10	4	3	4	8	5	3	7	7	2	3	4	2	1	4	5	3	4	7	8	6	2	4	3	3	8	4	8	8	2	3	5	7	7	5	3	2	2	5	8	7	11	14	12	9	7	5	4	5	8	5	3	5	3	4	4	5	5	4	5	4	6	4	4	3	0	3	3	4	5	11	15	14	9	4	4	7	4	8	13	4	6	4	3	3	4	4	10	11	6	7	13	7	4	4	4	5	8	5	3	0	3	2	0	3	3	1	1	3	3	1	0	0	0	0	0	0	3	3	8	4	2	2	2	4	3	0	4	4	0	6	10	5	4	5	1	4	5	3	2	2	3	5	4	5	9	9	12	10	4	2	10	21	10	
24	18	28	53	17	30	27	10	23	11	54	80	8	76	29	23	29	28	18	7	17	21	34	17	47	42	7	18	20	9	7	5	141	182	82	244	75	142	177	108	137	94	149	108	165	159	25	14	83	164	73	124	144	39	45	42	80	48	17	45	51	36	9	59	114	25	82	43	12	45	46	37	129	133	57	14	52	158	104	59	77	68	69	31	51	119	65	90	50	35	14	33	52	50	54	31	17	19	31	15	70	104	48	16	17	14	14	13	16	28	39	112	52	24	5	28	16	5	4	0	5	7	8	7	5	4	5	1	11	20	18	22	15	12	8	2	4	4	4	3	1	2	4	6	7	2	3	0	3	3	3	3	0	3	4	5	6	8	4	3	5	2	1	0	4	2	4	7	10	9	4	2	4	7	5	5	7	4	4	2	3	2	7	7	2	0	0	1	4	12	8	5	5	3	1	0	3	7	4	4	9	7	7	7	1	1	2	4	3	0	1	3	4	6	6	1	2	0	0	4	4	3	4	4	5	5	4	3	3	5	4	1	3	5	5	3	0	4	5	4	3	4	3	1	5	4	2	3	3	2	3	4	5	3	2	4	5	4	2	12	3	63	105	73	16	7	13	29	26	73	114	77	10	7	3	7	4	21	30	19	20	80	135	154	126	66	11	21	19	11	8	8	7	10	8	9	5	5	12	70	121	128	88	61	48	100	65	13	40	25	11	8	10	5	6	1	14	17	14	58	80	87	69	49	119	103	39	6	2	8	5	1	5	9	10	7	8	7	5	5	5	3	6	7	7	12	15	9	1	1	6	7	2	3	6	5	6	5	4	6	4	2	3	2	4	3	2	4	3	6	3	8	7	5	5	8	11	7	1	2	4	4	5	7	4	8	2	2	2	0	4	7	7	7	7	2	17	16	1	5	1	2	5	7	7	5	6	4	3	1	2	1	3	5	7	8	4	2	3	3	1	1	3	4	2	5	7	4	5	8	7	4	5	8	10	9	8	7	5	3	3	8	5	5	11	13	12	10	8	6	2	4	5	2	1	1	1	3	5	4	4	3	3	2	1	4	2	3	4	4	3	6	3	2	3	4	5	8	11	8	5	7	11	8	3	7	10	4	5	8	12	3	6	3	5	7	8	8	9	12	13	10	3	4	6	5	2	9	7	7	11	5	4	5	6	5	3	0	3	4	9	11	12	12	7	8	5	2	2	1	1	5	8	4	6	5	6	4	3	0	6	6	4	3	3	3	2	4	4	4	2	2	7	7	8	9	8	3	4	4	10	13	9	10	5	4	1	4	2	5	10	9	9	12	5	1	2	2	4	7	7	4	3	4	5	6	4	2	3	3	1	0	0	0	0	0	0	1	3	5	7	9	5	4	1	1	4	3	1	4	3	0	5	8	8	4	3	5	4	5	7	7	7	5	5	4	1	7	4	10	14	5	0	2	9	7	
20	4	38	45	11	32	21	5	22	24	35	76	31	59	34	1	9	13	10	6	10	10	22	4	49	40	16	23	11	9	5	8	123	170	96	213	81	72	131	106	104	72	156	120	148	155	25	13	84	149	56	133	127	18	64	19	62	49	14	24	48	59	3	26	102	81	54	64	21	41	43	20	65	125	116	56	42	166	109	70	84	43	89	63	100	140	69	72	72	54	43	56	67	59	80	47	15	11	19	16	72	101	55	14	12	8	10	8	5	19	30	101	66	12	19	27	16	1	4	2	4	7	5	4	4	4	7	7	12	31	12	18	20	17	12	2	4	4	6	5	4	4	4	4	5	3	2	3	5	5	4	4	0	3	4	4	7	7	4	5	7	4	5	6	5	7	8	10	7	3	4	8	10	10	8	8	9	8	3	3	4	2	3	8	4	4	4	4	4	11	11	11	9	7	4	0	4	7	4	7	4	5	7	4	0	3	4	3	1	1	3	4	4	4	5	6	4	1	1	4	4	4	8	10	9	8	7	5	2	4	2	3	1	3	4	3	4	4	1	6	8	7	5	4	5	5	4	4	4	2	2	3	3	1	4	4	5	3	7	18	28	96	93	35	7	9	8	27	60	99	118	74	8	10	4	5	3	5	8	19	29	16	31	95	141	147	107	44	2	15	14	7	3	8	3	8	12	5	7	12	42	75	84	83	82	123	143	84	10	21	14	11	9	1	7	8	5	9	11	10	64	113	96	38	93	99	48	6	5	7	3	1	4	8	12	14	12	9	8	9	11	10	7	12	8	7	12	11	5	2	7	4	5	8	7	10	8	4	5	9	5	4	4	3	0	0	0	1	2	2	5	11	7	4	1	4	11	10	1	2	0	1	4	3	5	8	5	6	4	4	7	6	4	3	8	5	12	18	5	3	2	3	1	2	5	5	0	6	7	5	5	7	7	5	5	8	5	1	1	3	4	3	1	5	4	5	6	2	5	7	4	1	3	5	7	5	3	4	2	1	3	7	5	7	10	5	2	4	3	2	3	5	7	3	4	2	4	4	4	0	4	7	6	2	1	4	4	2	1	1	2	5	5	5	6	4	1	8	8	5	4	5	11	13	5	7	4	7	9	5	13	7	3	4	8	13	12	8	4	10	7	1	2	6	2	6	4	10	5	4	8	7	8	8	8	10	8	5	5	7	9	8	8	8	4	8	7	3	3	0	1	4	8	7	5	6	3	4	0	2	5	5	4	4	3	4	2	2	4	4	5	7	4	2	3	6	7	6	5	2	7	12	11	7	2	4	0	4	2	4	6	7	7	7	4	4	4	2	2	7	8	5	8	11	11	8	7	2	3	4	3	0	0	0	0	0	1	5	6	5	5	5	2	4	4	4	4	0	4	2	2	4	4	4	5	7	7	5	2	4	1	7	7	5	5	5	2	5	7	5	12	7	4	4	5	10	
12	24	45	29	8	26	11	5	11	25	10	57	38	42	27	3	5	8	6	4	8	5	17	8	39	34	27	18	15	17	12	13	91	133	121	157	49	28	61	66	68	51	145	130	131	139	24	24	69	115	84	109	101	8	51	44	47	33	8	6	34	70	17	39	79	116	40	63	17	36	31	14	15	72	137	102	39	174	109	68	85	25	50	68	128	113	33	38	49	59	54	55	48	71	105	44	43	52	54	74	98	82	43	17	1	7	8	8	4	13	16	88	96	29	2	19	8	7	6	2	3	4	2	3	3	2	7	10	7	29	20	7	19	24	16	0	4	2	0	3	4	6	5	3	3	1	5	7	7	5	7	5	2	2	2	1	6	5	3	5	7	5	6	4	10	11	5	4	2	4	7	7	7	7	5	5	7	9	7	4	3	3	3	12	9	7	5	3	3	6	6	7	5	7	7	1	3	5	6	5	2	2	3	1	0	4	4	0	0	3	4	4	3	1	1	3	4	4	4	5	7	7	8	8	7	4	3	6	1	4	3	4	1	1	2	4	7	4	3	5	6	5	4	4	5	5	3	1	1	4	2	0	2	4	2	3	2	1	16	17	49	115	74	8	8	4	36	89	127	125	87	35	5	6	4	4	4	7	4	2	13	30	30	11	43	103	144	135	83	28	21	29	19	10	3	2	8	11	5	11	10	13	24	31	32	63	135	164	125	62	14	12	11	10	13	12	8	4	8	10	29	104	121	72	108	101	42	8	8	5	1	2	3	4	8	11	11	8	5	4	6	10	10	10	4	6	7	10	8	3	5	1	5	4	7	11	7	4	5	11	7	7	6	2	0	0	0	1	3	2	8	9	0	4	4	4	8	9	4	2	3	4	4	3	4	5	7	8	10	8	8	6	8	7	8	9	5	16	7	1	1	3	4	4	3	1	5	4	5	8	10	8	5	3	1	5	5	4	3	3	2	2	2	2	4	5	1	4	5	4	0	2	1	4	3	3	4	4	2	5	7	10	10	8	5	3	7	8	8	7	7	8	5	2	7	2	7	7	5	5	7	7	5	4	1	4	5	2	3	0	1	4	7	6	1	4	5	7	3	0	1	3	8	13	7	4	1	9	9	2	10	8	4	8	13	8	10	13	4	10	5	7	7	4	1	3	7	8	3	4	5	3	4	7	10	13	14	9	8	8	8	5	3	7	7	7	4	2	3	1	2	3	3	4	4	5	2	4	4	2	5	4	3	7	4	4	2	2	5	6	5	5	2	1	1	3	4	7	8	7	3	4	4	4	4	4	2	3	1	4	5	7	6	1	3	4	4	5	4	4	10	11	12	9	7	6	9	7	4	5	4	0	0	0	1	3	5	8	5	4	3	4	0	4	6	4	1	4	4	1	3	3	3	2	2	0	4	5	3	4	2	6	1	3	4	7	4	1	4	1	8	7	8	8	8	10	
16	26	34	13	13	17	7	0	10	25	10	38	31	25	18	0	6	11	2	5	11	8	14	11	21	22	19	15	30	21	15	16	57	77	86	87	12	21	29	31	45	33	106	109	106	98	16	28	42	68	74	75	67	19	20	26	27	15	2	3	21	65	24	34	43	101	106	87	36	29	34	17	9	36	134	132	39	185	112	75	80	15	10	63	94	48	15	17	13	21	24	29	14	86	112	4	71	88	82	83	90	60	26	15	4	4	5	8	11	16	23	63	105	49	10	15	17	17	10	4	4	4	3	2	4	4	4	7	3	17	25	14	11	26	17	7	7	6	6	5	4	4	4	7	6	4	10	6	5	6	7	6	0	2	3	2	7	4	1	4	6	5	6	5	12	10	7	7	4	6	4	4	4	3	1	2	0	6	7	7	5	5	6	10	7	2	2	0	4	4	0	1	3	4	6	4	3	2	2	1	4	3	1	3	3	3	4	0	0	4	3	2	1	1	3	4	6	9	8	7	9	7	4	1	1	3	5	5	1	4	1	4	3	0	2	3	7	5	3	6	0	2	0	1	4	3	0	0	0	1	4	5	7	6	3	4	2	4	24	6	75	120	56	2	10	29	97	119	94	57	20	4	7	1	4	5	6	4	3	5	2	7	16	23	23	1	57	116	142	123	68	5	28	34	24	10	8	7	3	4	0	0	4	2	17	19	27	100	148	143	90	29	6	15	17	18	20	17	14	12	15	61	110	37	81	82	14	21	9	3	4	4	5	4	4	5	6	5	4	1	3	4	5	2	5	5	2	7	8	4	5	4	7	6	7	8	5	7	0	12	11	4	4	3	0	0	0	3	2	6	9	5	9	9	8	6	4	7	4	4	5	7	8	4	0	4	11	4	7	8	8	7	7	5	5	9	6	11	8	1	0	1	4	7	7	6	5	2	4	7	6	3	2	1	3	4	2	4	5	7	4	3	2	0	2	2	5	5	4	1	2	0	3	4	0	4	3	2	10	12	12	12	12	8	4	6	4	5	5	4	4	4	3	2	6	6	4	9	8	4	0	2	0	4	2	4	7	1	4	1	1	5	7	3	7	10	9	5	1	0	0	0	5	9	7	2	1	9	7	4	12	11	5	8	16	12	10	13	1	7	6	4	1	1	2	2	6	4	3	5	4	1	1	6	8	4	11	8	9	9	6	3	2	4	5	1	3	3	1	3	4	7	7	4	4	4	2	5	8	8	8	4	3	6	4	4	4	3	3	2	0	4	1	6	7	5	4	4	4	5	7	7	4	1	5	7	2	1	1	1	3	4	4	3	0	3	4	5	7	2	4	7	6	2	0	2	5	4	6	8	5	2	3	3	4	5	7	5	2	4	0	4	1	3	5	7	7	5	4	5	7	5	1	3	2	3	4	0	6	4	2	5	3	4	4	7	4	0	4	1	5	6	5	5	5	7	
4	17	27	11	9	14	13	10	12	26	13	26	28	14	12	2	3	11	9	5	9	8	4	7	6	15	16	12	35	24	25	18	38	38	44	43	12	14	17	13	30	21	62	56	59	49	19	19	21	32	19	32	41	16	2	8	11	4	2	10	15	61	36	22	4	46	85	69	63	19	54	20	24	24	110	144	74	196	125	105	109	23	26	64	71	25	14	11	4	3	5	17	24	127	138	73	103	47	63	51	51	21	17	8	1	4	2	3	8	14	20	44	111	66	8	20	39	32	21	7	4	4	4	3	7	7	5	1	3	6	19	23	2	24	17	14	15	12	10	10	10	8	6	5	5	12	13	6	10	5	5	10	10	5	3	1	7	5	4	4	5	7	4	7	12	13	14	12	8	5	4	4	4	3	4	2	1	2	3	4	4	4	3	5	7	6	1	2	4	4	2	5	7	6	1	4	5	2	2	0	4	2	2	3	3	3	4	3	3	4	3	3	3	4	8	11	11	9	7	4	7	2	3	4	5	6	4	2	3	5	4	5	4	3	4	4	7	8	4	4	2	1	0	2	3	3	4	3	1	0	1	4	5	4	7	5	4	9	28	14	104	112	28	13	22	72	120	79	13	13	11	4	7	4	2	6	6	3	4	2	3	4	4	2	14	29	23	17	82	144	161	117	49	5	27	29	21	10	4	8	11	11	9	8	2	19	27	3	51	110	134	104	58	42	43	34	21	15	10	9	10	35	109	84	97	133	65	8	16	13	8	5	5	2	5	8	1	3	4	4	4	2	4	2	3	4	3	3	8	5	5	5	7	7	5	4	2	7	5	8	13	7	4	4	3	4	4	5	4	6	5	7	7	4	1	2	1	5	7	7	5	4	7	2	3	4	12	11	8	5	3	2	4	5	4	8	9	5	6	4	2	4	4	5	5	2	1	4	4	3	1	6	3	3	4	4	3	1	5	8	7	1	2	0	1	4	4	0	3	3	0	2	4	4	2	4	4	7	8	4	2	4	7	3	2	6	4	8	7	5	5	8	10	9	5	6	6	4	5	3	4	4	3	3	4	5	8	7	9	8	5	8	5	4	8	8	5	3	2	1	0	1	4	6	5	4	2	7	8	8	13	8	2	5	14	14	12	8	2	4	3	2	5	6	4	5	5	3	5	8	7	5	4	4	5	5	5	4	7	7	5	4	5	6	5	3	2	3	4	5	4	1	1	2	6	4	4	7	6	14	12	4	1	3	3	5	6	5	4	2	2	3	4	5	4	5	1	2	2	2	0	2	3	4	1	7	6	3	3	0	0	1	4	2	3	5	5	4	7	4	0	2	1	2	1	2	3	3	5	9	9	7	3	2	6	6	3	2	1	4	4	5	5	1	7	12	13	9	5	4	5	7	4	5	7	7	3	2	5	2	4	4	1	3	2	4	4	2	4	2	3	4	4	5	2	1	
5	13	24	15	2	9	11	11	18	32	23	10	21	14	12	9	9	3	6	11	8	2	2	4	4	10	15	14	32	17	28	17	33	25	27	24	1	6	14	11	19	14	32	28	31	16	14	13	10	33	18	31	38	14	5	10	7	5	0	14	4	55	51	5	17	26	34	43	94	27	83	18	33	19	67	117	58	171	123	101	156	31	21	36	82	71	24	12	16	9	5	15	38	146	125	82	148	35	32	20	31	10	6	4	4	4	4	4	6	13	21	36	116	88	16	44	24	36	34	9	5	5	4	2	4	6	2	2	2	5	7	24	11	19	17	8	8	12	12	10	11	8	9	10	7	18	11	4	11	9	12	15	15	11	4	2	5	9	7	2	3	7	5	2	7	7	8	10	10	8	5	4	4	4	4	4	4	3	2	2	1	0	0	1	3	4	6	3	5	5	6	7	4	3	2	4	5	3	4	5	7	7	4	3	2	5	5	5	6	7	6	6	7	7	10	7	6	4	4	2	5	6	4	3	5	4	2	2	4	5	4	7	7	5	4	4	5	7	6	5	3	1	1	4	7	7	5	4	4	1	1	4	4	4	8	11	8	16	18	52	118	82	9	21	22	82	97	27	19	15	4	4	7	4	4	4	4	7	4	0	0	2	2	1	3	5	20	27	10	43	111	151	146	108	49	10	39	37	17	8	5	9	9	10	13	10	12	18	13	26	82	113	114	114	119	121	117	112	104	91	86	98	122	99	65	134	134	76	15	17	15	10	8	7	5	4	6	5	2	2	2	2	4	2	4	4	4	3	7	7	2	2	2	2	7	8	7	4	4	7	8	7	6	4	5	7	8	8	5	2	3	3	1	3	5	6	5	4	4	4	2	6	6	1	4	3	5	12	8	3	2	0	5	8	7	9	10	7	1	4	6	3	2	2	3	3	1	7	5	4	5	8	8	2	1	4	3	5	5	7	8	2	1	1	2	4	3	4	4	4	4	3	5	5	3	4	4	4	6	5	8	12	13	8	3	3	7	10	8	8	8	8	8	9	10	8	7	2	4	6	4	3	4	2	2	5	9	8	7	9	8	10	5	7	5	4	2	5	0	2	0	3	5	2	2	5	6	7	7	8	11	7	4	4	10	10	11	8	5	4	3	4	5	2	1	6	4	0	3	6	2	9	7	1	1	3	3	1	4	1	3	4	6	10	10	6	4	4	4	5	5	7	7	4	4	3	5	10	2	12	12	5	4	4	1	3	4	4	3	2	3	2	4	5	4	5	2	2	0	2	2	1	4	2	3	8	7	3	4	0	0	3	4	2	5	7	8	6	4	4	1	3	4	1	3	1	3	3	2	5	8	8	7	7	7	4	2	4	3	4	7	3	7	5	6	5	7	8	3	3	4	3	6	9	9	6	4	6	4	2	4	1	1	4	4	2	4	5	5	2	0	2	5	6	2	2	
2	10	19	19	6	8	10	2	8	30	33	10	10	10	10	9	12	13	14	19	21	14	7	7	11	11	8	19	28	9	18	8	26	18	17	18	8	10	17	14	11	12	17	21	18	8	10	6	4	28	27	32	35	14	8	10	2	6	3	13	7	40	60	24	22	32	19	52	100	7	97	41	39	33	44	79	21	132	143	47	169	94	39	68	107	125	77	15	19	22	4	24	45	148	127	76	151	49	22	8	20	10	5	5	5	1	4	15	37	43	42	22	117	122	40	83	59	34	34	12	3	7	4	1	5	10	11	2	2	3	4	19	18	9	18	3	8	9	19	20	19	14	13	12	6	18	10	4	4	7	7	6	9	12	7	5	5	7	8	5	2	4	8	8	6	2	1	4	7	8	6	2	3	4	1	2	6	7	5	4	4	4	4	4	4	5	8	4	6	8	7	6	3	4	0	4	3	1	4	4	5	7	8	7	5	4	4	5	4	5	5	8	10	7	8	4	4	4	3	4	2	1	2	3	7	5	4	3	3	4	2	4	7	6	2	1	4	5	6	5	4	4	4	4	3	3	2	2	4	1	4	5	5	4	5	7	10	22	14	90	111	40	19	11	17	82	84	17	19	8	2	6	6	4	4	2	4	7	4	1	0	1	3	2	3	7	2	12	30	32	18	53	111	152	146	86	12	32	37	21	8	5	6	7	8	11	12	8	7	9	19	53	80	86	86	96	109	117	125	132	129	118	94	60	16	64	126	144	93	17	20	20	12	5	4	2	2	4	4	3	4	7	5	4	2	1	3	7	3	8	4	6	4	3	10	8	8	6	3	3	3	6	5	4	8	6	4	7	6	0	0	0	1	5	7	4	4	3	1	2	4	8	2	2	4	4	4	4	7	0	2	4	10	9	5	4	5	7	4	5	7	1	1	4	7	8	8	11	8	8	7	7	8	5	4	5	7	5	4	8	7	0	0	2	0	3	2	1	0	2	2	2	6	6	0	1	3	3	3	1	7	11	11	8	7	4	4	5	4	5	5	3	2	3	5	6	4	1	3	5	5	1	4	3	2	7	10	8	0	9	9	8	3	4	4	4	2	3	7	7	4	6	7	3	3	5	5	5	4	5	8	5	2	3	4	3	3	4	4	5	5	2	4	9	8	5	3	0	3	5	6	7	6	3	1	0	0	1	4	3	0	1	4	4	4	5	3	4	5	4	1	2	3	2	1	0	4	8	5	8	11	4	2	5	5	4	2	3	4	3	2	4	5	7	4	1	6	7	5	5	5	4	4	0	3	7	4	2	2	4	4	5	5	5	7	5	7	5	3	3	3	3	7	3	3	0	0	0	1	4	6	5	4	4	7	7	7	4	3	4	7	2	4	5	9	9	3	6	8	4	2	2	4	3	3	2	4	8	4	4	4	0	0	1	4	4	5	6	5	4	1	3	7	4	2	4	
2	5	17	23	10	10	11	5	6	17	33	19	4	5	7	5	4	13	32	24	20	18	9	8	15	19	5	23	24	4	13	4	20	15	6	15	9	4	13	14	3	14	5	5	11	9	16	0	3	14	21	34	31	13	5	8	4	4	7	13	13	24	51	30	18	30	9	46	89	28	93	57	35	54	50	59	39	100	144	12	135	114	31	69	41	125	126	43	18	34	5	40	30	136	134	59	143	49	26	8	12	8	1	5	4	10	11	43	66	74	89	16	111	159	83	87	103	44	17	15	5	7	4	5	10	11	15	11	2	1	4	10	15	12	18	3	22	35	42	43	39	31	24	15	6	13	8	2	1	1	1	0	5	9	5	4	3	2	5	7	5	2	4	6	5	4	1	0	2	5	5	4	0	4	3	3	4	5	6	5	4	4	5	7	8	7	8	2	10	10	5	2	2	1	2	3	3	4	5	3	1	1	4	7	7	4	2	4	3	4	2	2	3	2	4	4	4	3	2	6	7	6	7	6	8	8	7	5	4	3	0	1	3	5	3	0	1	3	4	4	5	7	6	1	4	4	1	3	4	2	4	4	4	1	0	0	12	22	37	111	84	15	27	21	48	75	64	18	12	8	0	5	8	8	8	5	4	4	4	3	0	0	1	4	2	5	4	5	12	24	31	24	5	57	125	155	130	75	14	24	24	11	5	5	4	3	3	2	1	2	1	8	15	12	7	12	18	22	34	54	58	42	25	23	16	2	47	120	150	87	12	27	13	2	2	4	2	0	4	3	7	7	3	0	3	4	3	7	1	10	7	2	2	7	10	1	4	4	5	4	7	7	7	7	11	6	8	8	3	3	3	2	4	7	7	3	5	3	5	6	8	9	1	1	2	5	7	7	5	1	0	7	10	5	1	0	3	5	6	5	7	6	11	14	13	12	8	7	4	3	4	8	7	3	0	1	4	0	4	8	3	3	4	4	3	2	4	6	5	5	6	5	7	5	1	0	3	3	3	2	7	10	7	4	5	7	7	6	5	4	4	4	3	2	3	4	4	3	0	4	7	0	5	5	9	8	7	7	3	9	10	6	3	3	4	3	6	8	11	12	11	12	9	1	6	1	4	4	1	4	8	4	3	3	3	3	4	7	7	7	4	3	7	6	7	7	5	3	3	6	8	6	2	2	1	3	3	2	4	3	0	3	4	1	1	4	9	7	7	4	3	5	4	1	0	0	4	5	3	4	8	5	4	4	5	3	1	2	0	2	0	3	2	3	2	2	3	3	4	4	3	5	6	7	3	4	4	2	2	4	4	5	7	7	5	2	4	4	2	2	4	5	3	2	1	1	2	1	3	4	2	4	4	2	7	7	7	6	2	4	5	2	1	1	5	8	6	3	11	8	4	2	2	4	4	1	4	6	5	5	5	3	1	0	1	3	4	3	2	4	4	5	7	3	5	7	
6	1	18	25	8	9	10	6	10	10	34	25	12	17	18	18	10	20	36	13	15	12	7	10	20	24	1	26	20	7	12	3	17	19	7	19	27	22	9	11	4	6	7	7	7	14	18	5	10	12	6	24	20	7	8	8	7	5	8	12	6	25	42	23	8	23	16	28	78	43	72	57	12	51	58	44	37	91	112	21	100	104	24	53	51	76	131	77	12	44	4	42	34	138	125	61	148	47	34	14	5	9	6	5	7	18	17	69	88	51	127	59	91	181	138	32	97	65	1	16	7	5	4	7	8	4	12	13	7	1	4	4	8	10	14	4	49	70	60	51	42	45	41	21	5	10	8	2	1	3	0	1	5	8	5	3	2	3	4	5	7	4	0	0	1	4	4	1	3	3	5	7	5	4	3	4	5	4	6	5	3	1	4	4	4	3	4	4	12	9	3	0	1	3	5	7	8	6	4	3	4	1	3	4	4	4	3	3	4	5	3	5	6	5	4	4	3	0	4	5	7	7	5	4	5	7	8	7	4	1	1	4	3	7	4	0	0	0	1	3	4	4	4	6	3	2	3	5	4	4	5	4	3	1	2	1	13	17	54	115	60	13	28	41	65	65	42	14	7	9	7	3	3	7	10	8	5	3	3	4	0	0	2	4	1	7	7	3	2	4	8	18	30	21	26	93	148	162	127	54	5	21	18	11	3	2	1	4	8	5	5	2	13	10	2	7	11	16	17	7	8	12	4	18	14	14	10	42	129	142	59	17	15	5	4	4	0	2	2	3	7	5	2	3	2	3	5	5	2	8	11	10	6	6	7	6	5	4	2	4	5	5	5	8	9	5	14	8	3	7	7	5	5	5	5	0	6	1	7	4	10	10	4	2	2	6	10	10	5	4	3	9	9	4	0	0	1	4	7	7	8	10	13	12	11	11	5	2	4	3	8	13	7	2	0	0	3	3	3	4	3	4	4	4	4	4	8	8	8	7	5	4	7	5	4	2	4	4	2	2	5	10	10	11	7	1	9	9	5	2	5	5	4	6	4	4	3	3	2	4	8	0	7	7	9	7	1	5	5	4	10	9	7	1	5	4	7	9	5	4	8	14	11	2	5	4	3	3	3	5	10	8	8	8	8	7	8	8	6	4	3	7	5	2	3	4	4	4	4	5	6	6	7	6	3	5	6	7	5	1	3	5	5	2	3	5	11	7	5	5	1	0	2	0	1	2	4	4	1	1	5	5	4	4	5	2	5	10	11	7	3	2	1	2	3	2	3	2	1	2	2	4	7	7	5	1	2	3	4	2	3	2	2	3	2	3	5	5	2	5	8	10	5	2	3	4	2	2	2	4	4	4	5	5	8	4	1	4	4	4	3	0	1	3	4	7	7	2	8	7	2	2	5	6	4	1	3	4	7	7	5	4	4	1	0	0	0	0	0	1	4	7	7	5	4	5	
8	13	31	25	7	7	7	11	15	13	34	28	14	20	17	25	13	25	30	7	25	14	15	8	27	27	9	35	19	17	13	6	14	24	18	12	18	22	12	5	16	17	8	8	10	20	15	16	17	25	12	27	28	7	6	8	5	2	6	10	9	29	31	16	8	10	23	10	59	50	46	44	17	45	58	35	29	83	78	10	89	84	32	8	37	46	113	93	5	48	4	24	101	190	134	118	172	54	39	28	8	7	8	2	7	17	18	67	119	10	126	97	57	171	170	49	89	89	12	17	7	2	5	10	8	2	8	11	9	1	3	3	4	1	12	8	72	88	46	56	31	41	57	39	9	10	8	3	1	4	1	3	7	8	4	4	5	4	4	6	7	5	4	4	3	0	4	4	4	3	2	5	5	3	1	4	6	2	2	6	3	5	7	4	1	0	1	4	12	8	1	0	3	4	5	6	4	3	2	3	4	4	4	3	0	2	1	3	4	6	2	2	4	3	3	2	1	4	4	3	2	5	5	3	2	3	3	3	2	1	4	4	3	8	4	0	0	0	1	2	1	0	3	7	4	4	4	6	4	5	7	4	0	4	4	4	14	13	56	109	58	8	19	56	83	55	22	7	4	7	10	10	5	2	4	7	1	0	2	4	1	2	0	4	4	6	5	2	2	2	4	5	8	14	18	7	38	99	155	152	94	35	6	23	9	7	6	9	3	9	6	6	8	13	16	9	3	3	10	12	5	18	15	13	9	8	15	11	68	142	120	41	8	6	1	3	4	3	1	1	5	7	3	2	4	4	4	3	2	5	10	11	8	3	2	4	4	4	4	5	5	2	3	7	5	7	15	7	9	10	8	5	4	4	2	2	4	2	6	2	8	8	8	6	4	4	6	4	5	6	4	10	8	3	3	3	2	5	8	10	10	9	7	3	4	9	6	2	5	4	11	14	2	3	3	3	2	4	5	7	7	4	2	3	5	4	7	1	3	3	2	2	5	4	4	4	4	7	2	3	4	5	4	7	8	7	4	8	10	6	0	2	3	7	5	4	4	2	1	2	7	5	5	7	4	3	7	7	5	5	8	11	10	4	7	4	3	10	9	6	8	11	11	5	4	3	1	3	3	4	11	10	9	8	5	5	10	10	12	12	7	3	4	1	0	0	0	1	3	5	4	4	4	4	7	8	3	9	10	8	7	7	7	5	7	7	8	8	4	8	3	2	0	3	4	4	5	7	5	1	4	3	4	4	7	5	10	10	9	8	5	5	7	7	7	5	6	4	2	3	4	2	1	3	5	2	1	1	4	4	4	4	4	1	3	5	7	9	5	5	3	6	6	2	2	3	5	2	3	5	7	5	4	5	5	1	0	4	7	4	1	1	4	4	3	4	5	10	9	5	4	4	3	2	2	2	1	2	2	2	1	1	4	4	4	4	3	1	0	0	1	5	5	4	1	7	
10	18	26	11	4	7	8	8	14	12	34	31	16	18	12	26	13	25	22	17	25	14	25	6	29	24	28	47	24	30	18	5	7	24	25	13	7	18	19	18	20	17	16	2	12	21	8	27	21	29	31	28	29	8	4	7	4	10	11	16	14	20	17	23	25	16	20	15	28	41	33	24	13	43	58	37	44	98	67	24	91	66	17	34	45	49	112	106	2	54	10	26	129	165	72	126	204	110	12	38	14	3	7	6	1	13	18	52	111	33	107	96	59	171	166	52	90	98	13	16	7	9	6	14	10	3	5	9	8	5	1	3	5	6	12	7	71	112	19	58	35	31	59	60	22	9	8	3	2	2	3	4	7	7	3	7	5	1	4	5	5	7	9	11	11	8	1	4	5	5	4	4	3	0	0	4	5	3	3	4	4	9	8	7	5	2	3	5	12	8	4	4	4	3	2	0	5	3	3	3	2	6	6	2	0	3	4	4	3	5	0	1	4	4	4	2	4	4	1	2	4	6	7	5	4	3	4	4	1	3	4	1	4	8	4	0	1	3	4	3	1	0	1	5	6	4	5	5	4	8	8	4	4	4	3	6	12	11	41	97	79	26	18	50	97	74	22	9	6	4	7	10	5	4	3	6	3	1	2	4	4	3	3	2	4	1	4	6	2	2	4	7	5	1	11	26	33	11	56	127	155	137	81	20	14	24	20	19	12	9	4	5	4	11	13	15	13	12	12	10	6	5	13	9	1	5	12	25	17	93	140	97	19	10	5	10	14	14	10	5	5	7	7	3	5	8	6	2	2	5	7	8	9	5	2	3	4	4	4	7	10	3	2	4	4	6	12	7	9	5	6	6	3	4	0	0	2	5	3	1	4	5	8	10	9	7	4	7	4	4	7	10	7	0	4	4	7	10	8	8	7	4	3	6	5	6	4	4	5	0	11	12	4	5	3	3	2	2	6	8	8	8	7	5	5	2	5	3	0	1	2	1	4	4	4	4	4	7	2	3	4	4	3	4	5	7	4	2	10	8	6	4	0	5	7	8	5	3	3	2	4	6	4	4	7	7	11	15	15	11	8	10	10	5	8	4	2	5	10	10	7	4	10	8	4	1	0	0	0	4	12	11	3	7	2	4	8	7	9	11	9	3	4	4	2	2	2	1	3	4	2	1	2	3	4	9	5	4	5	6	4	7	4	5	5	3	5	8	3	7	7	2	4	4	3	1	1	4	7	4	4	1	4	1	5	4	7	0	4	3	7	10	7	2	10	10	4	4	4	4	4	6	2	0	4	3	1	0	1	1	2	3	4	4	5	8	7	11	7	1	4	7	4	1	3	3	5	3	6	6	2	7	1	5	3	1	0	4	7	4	4	5	5	2	1	4	7	8	7	5	4	1	2	5	4	1	1	2	1	0	1	2	3	5	5	3	3	2	0	0	0	3	4	5	0	7	
9	11	13	16	11	2	3	4	12	8	26	31	14	10	11	24	14	18	15	25	19	11	26	10	23	18	40	43	20	32	30	26	12	25	23	7	13	22	25	19	9	14	20	12	11	14	4	32	24	14	24	22	20	7	5	4	7	13	6	7	10	10	8	21	27	23	11	11	8	16	17	14	16	46	64	41	47	111	70	28	95	65	11	42	74	98	154	154	46	60	23	34	115	132	76	58	166	158	44	33	24	0	5	7	5	11	14	75	98	5	111	75	87	187	144	33	85	97	23	14	9	12	4	15	12	4	5	8	5	7	7	4	5	12	8	21	39	111	62	37	48	32	54	77	36	9	10	5	6	4	2	2	4	7	3	5	4	0	3	4	5	7	9	12	15	17	10	0	4	5	1	2	1	0	1	4	3	1	3	6	10	13	8	7	8	8	8	8	13	10	5	4	3	1	2	5	5	0	5	3	2	4	4	3	0	4	3	3	3	5	1	3	2	4	4	4	4	1	1	4	8	8	7	8	7	2	1	2	1	4	4	0	3	7	5	1	4	8	11	10	6	3	1	1	2	3	5	4	5	8	5	4	7	5	3	2	6	9	21	65	83	55	6	61	101	65	14	16	14	11	4	11	4	1	2	2	4	4	0	3	3	4	5	4	4	4	4	7	1	4	4	3	2	5	8	13	23	35	27	17	76	128	145	115	64	24	16	29	26	14	5	5	1	10	4	11	13	14	11	5	4	2	2	4	6	2	12	23	19	28	108	131	61	3	11	10	19	23	22	7	4	7	7	6	3	11	10	2	1	7	4	5	9	9	5	4	5	7	5	0	10	7	0	2	5	4	11	7	3	3	5	4	2	3	0	0	3	4	4	2	4	7	9	12	13	8	11	9	3	5	8	11	8	6	7	5	10	10	5	4	2	2	4	4	3	2	4	5	0	7	10	7	3	2	2	5	3	4	4	4	4	5	6	5	5	4	3	5	3	4	2	2	5	4	4	3	4	5	0	2	3	4	4	4	3	5	6	2	8	5	4	4	3	1	3	4	6	7	2	4	3	1	7	10	11	11	7	5	6	7	9	7	9	11	10	7	5	0	4	6	5	2	4	8	5	1	1	3	4	2	9	13	5	7	0	3	8	4	2	4	11	8	5	8	6	7	2	4	5	3	1	2	2	3	3	5	7	6	2	0	4	8	1	4	0	2	4	7	5	4	8	2	4	0	3	4	4	3	4	3	4	4	5	2	4	2	4	4	5	2	3	11	12	8	7	10	5	0	2	1	3	7	6	6	6	5	4	1	0	3	5	6	4	4	4	7	0	7	5	4	4	4	0	3	4	4	5	5	5	7	3	6	2	5	0	2	0	3	5	7	8	6	2	2	2	2	2	5	3	2	3	1	3	2	3	0	3	2	3	1	4	3	1	0	2	3	4	1	0	0	0	1	4	7	0	5	
4	3	8	17	20	15	7	4	12	7	16	24	10	2	7	22	24	12	2	20	7	13	22	14	17	19	39	28	11	20	24	32	19	24	21	7	12	21	21	10	4	16	21	14	8	6	10	29	22	5	7	5	10	7	4	3	7	10	8	2	4	2	12	10	11	17	14	11	7	7	1	8	9	44	75	57	36	108	77	13	82	74	15	55	62	37	119	161	130	83	30	30	97	96	52	41	101	138	100	25	22	9	1	7	13	12	33	110	103	70	138	57	126	199	121	21	75	99	40	9	14	15	7	19	15	5	7	9	3	6	9	3	7	10	7	8	32	81	80	7	41	46	62	97	61	9	11	0	2	6	3	4	5	8	4	4	4	1	4	7	8	7	4	6	4	14	14	5	5	7	3	3	0	0	3	4	2	4	5	10	14	12	8	7	8	10	7	8	11	7	4	3	1	0	3	4	3	3	6	0	1	4	4	3	1	4	4	4	4	8	5	7	5	4	4	2	2	3	4	4	7	6	3	9	8	4	4	4	3	4	4	0	1	5	8	7	7	10	6	8	5	4	4	3	4	4	2	3	5	5	1	1	5	7	5	7	9	14	32	61	78	47	55	104	93	38	2	3	15	12	7	12	5	3	1	0	2	6	7	5	4	5	6	2	2	3	3	4	2	4	6	1	3	4	4	3	5	12	24	26	13	31	86	135	152	126	65	9	29	27	14	8	4	9	12	1	6	8	8	8	7	4	1	3	7	5	10	16	21	15	51	126	113	32	12	20	23	6	24	17	10	9	4	4	6	10	11	1	3	8	5	4	7	8	4	1	3	5	7	6	8	8	3	4	7	5	10	9	4	5	2	2	5	5	3	1	4	4	3	3	5	6	6	7	7	8	13	10	8	8	7	8	5	5	7	8	10	7	4	4	4	4	1	2	4	3	4	4	6	7	5	2	2	2	5	7	6	8	5	4	4	3	1	4	4	4	2	7	4	5	5	1	5	4	2	3	5	5	4	4	5	7	7	4	1	5	5	3	5	4	1	4	3	0	0	0	7	8	0	3	4	7	8	9	11	8	1	4	8	14	11	2	7	13	12	11	9	5	4	4	3	4	4	8	11	8	2	3	3	2	4	13	7	5	2	2	10	7	4	2	7	9	8	9	4	11	4	7	7	3	4	1	2	4	4	5	7	7	5	4	5	7	1	3	4	3	4	5	7	4	6	1	2	5	6	4	3	4	2	0	2	1	6	3	2	3	2	0	4	4	2	5	8	5	4	6	5	4	4	3	0	4	6	5	4	5	5	4	1	4	7	2	2	4	5	8	10	7	1	4	7	5	4	5	7	7	8	7	2	5	5	0	5	4	2	2	1	1	3	4	4	2	3	1	2	6	9	10	9	6	0	3	4	1	4	0	3	2	3	2	3	2	2	1	2	5	5	1	0	0	0	0	3	7	3	4	
2	5	8	4	12	14	11	11	13	7	11	13	14	12	10	15	25	23	18	21	5	14	20	14	5	8	30	17	7	13	14	26	20	17	20	4	15	25	23	8	8	15	16	13	12	10	16	26	13	4	5	5	8	8	7	4	5	9	8	3	4	0	12	10	11	3	10	14	12	12	7	15	11	35	72	60	31	92	68	18	54	70	35	60	41	41	67	69	111	98	60	30	110	105	60	55	74	95	123	98	45	2	10	5	21	18	57	138	97	104	181	53	151	207	111	18	60	103	58	7	22	17	8	23	16	5	7	11	11	13	10	4	8	5	8	16	26	50	83	66	21	49	72	112	103	49	10	3	3	4	3	5	4	8	7	3	5	4	4	4	4	4	2	4	5	9	13	5	3	5	4	5	3	2	4	3	3	5	7	11	11	7	7	7	7	4	7	12	8	3	5	5	4	1	3	4	7	6	3	2	2	3	3	1	2	1	2	1	6	9	4	4	6	6	3	2	2	3	6	4	5	4	3	6	8	3	0	4	4	4	4	0	1	4	8	10	4	8	4	7	3	4	6	3	1	2	4	4	4	2	2	1	4	5	4	7	8	11	34	54	47	50	94	90	48	11	7	9	8	10	11	12	8	7	5	4	4	5	8	10	8	2	5	5	4	3	1	1	4	7	7	4	5	5	7	6	7	6	6	11	15	14	4	43	101	150	152	100	36	11	19	17	13	5	8	10	4	7	8	8	8	8	7	5	5	6	5	9	11	19	4	85	141	74	12	26	27	22	21	16	13	4	6	8	13	10	6	3	3	7	4	2	6	9	5	3	0	4	5	7	7	7	4	3	5	3	11	15	7	5	3	7	8	7	5	4	4	3	2	5	5	4	3	3	4	7	12	15	13	7	5	5	3	0	2	5	7	4	1	1	2	1	0	2	0	5	4	4	7	8	4	1	3	5	8	7	4	8	7	7	5	5	6	4	4	4	3	8	4	3	5	6	4	3	1	3	5	4	2	3	4	4	4	2	3	1	6	7	3	3	4	4	1	0	0	0	4	8	5	3	3	10	8	4	6	2	3	4	8	11	5	6	8	7	5	8	8	5	7	7	5	5	5	5	8	11	5	4	4	2	1	8	5	1	2	6	10	5	1	2	2	4	4	4	5	10	2	7	8	1	7	1	3	3	4	5	6	7	7	5	5	5	3	1	4	3	4	3	5	6	4	2	4	9	7	5	4	3	4	2	1	7	7	2	2	3	2	4	5	4	0	4	6	4	2	4	3	1	2	3	3	2	1	0	1	4	5	5	4	2	7	3	2	1	3	8	10	8	5	3	3	6	6	2	2	2	7	8	3	5	5	5	3	3	4	4	3	0	1	3	3	5	4	1	4	5	7	5	10	8	4	5	4	2	4	1	2	1	2	0	3	3	1	3	4	5	8	5	4	3	2	2	0	5	6	5	
7	5	2	7	12	5	5	12	15	2	10	2	7	12	7	2	8	17	24	27	13	11	22	14	9	12	27	15	5	9	12	21	19	15	15	3	11	24	27	10	12	15	11	7	6	7	17	18	6	5	4	5	9	5	4	4	5	11	9	3	4	2	9	4	10	10	10	3	12	19	2	24	15	36	67	49	38	72	46	17	26	47	38	51	5	62	50	18	22	88	110	37	140	148	65	56	84	50	57	115	124	68	10	15	22	30	62	163	118	80	206	72	171	207	93	14	43	106	74	5	28	20	8	25	17	5	4	14	18	18	20	17	14	5	0	14	31	58	95	120	88	21	35	70	88	72	33	5	3	5	6	5	3	8	7	3	6	4	1	0	0	1	4	2	2	5	11	7	3	5	4	3	3	5	4	1	4	7	7	9	8	2	4	3	4	6	11	12	4	2	3	4	4	3	1	4	7	7	4	1	1	3	3	1	2	1	3	4	7	10	11	11	8	5	0	1	3	7	5	4	4	2	3	5	9	5	2	2	4	3	4	0	2	2	0	6	5	5	6	5	2	4	4	4	2	5	7	7	3	2	4	4	4	2	4	3	3	8	28	44	55	70	64	34	11	9	5	2	4	7	7	8	5	5	7	5	3	1	2	5	7	5	2	4	0	1	3	3	2	4	3	0	3	3	5	7	8	5	2	7	5	8	18	24	6	56	125	154	133	81	23	20	33	30	14	8	7	4	1	0	1	4	7	7	4	3	1	6	2	7	26	40	144	109	12	31	32	37	26	7	26	25	2	10	6	5	1	4	4	5	7	4	5	11	7	4	3	2	6	7	4	4	4	1	4	4	11	18	6	5	8	8	7	6	7	7	7	5	4	3	1	2	5	4	5	3	5	9	9	7	5	4	1	1	5	7	5	4	4	4	4	4	4	5	6	4	0	2	5	8	3	4	4	7	10	7	7	8	4	1	1	3	2	2	5	5	3	7	4	2	2	4	5	6	5	4	4	1	0	0	0	0	0	4	3	5	8	10	8	2	5	4	1	1	3	3	0	5	7	8	7	7	6	5	8	7	5	4	5	8	1	8	9	3	5	8	7	0	2	3	2	3	4	1	4	12	8	1	4	2	2	5	7	2	4	7	7	1	3	2	1	1	1	3	4	5	6	5	6	2	6	2	2	2	1	3	2	4	4	3	3	4	4	2	4	5	5	3	0	2	2	3	5	8	4	5	3	2	7	1	6	7	3	2	4	7	7	4	1	3	4	4	2	4	0	5	4	4	4	5	5	4	4	1	1	2	3	3	4	2	4	4	2	3	5	4	2	4	4	3	3	5	5	3	6	7	5	7	6	1	7	5	2	3	3	2	4	4	4	4	4	7	5	4	4	3	3	2	8	8	2	4	1	1	4	5	7	7	5	2	3	4	4	4	3	1	5	7	4	3	4	0	2	1	3	4	
9	7	10	10	7	2	4	17	19	8	14	7	12	5	7	4	4	1	16	28	26	9	26	16	2	16	29	13	3	1	11	19	15	15	11	6	10	25	37	17	15	19	11	10	8	7	14	12	7	4	3	7	11	7	8	8	8	13	11	6	4	5	8	6	7	7	14	13	8	17	5	25	15	32	59	45	41	51	28	7	13	23	16	31	22	75	37	36	18	73	135	64	125	192	120	34	102	59	34	46	117	123	32	18	17	36	43	164	143	54	198	68	189	187	58	13	35	98	76	11	29	24	8	28	20	7	5	17	26	25	28	32	29	13	8	1	10	20	34	103	133	90	81	79	65	59	37	7	7	7	5	3	2	7	7	3	5	5	3	4	4	3	2	4	2	5	9	7	3	5	4	5	8	7	2	0	4	7	8	9	7	2	3	0	4	8	12	11	3	4	3	5	4	3	0	3	4	0	4	4	5	6	5	4	2	4	4	4	5	5	5	7	6	1	4	3	6	4	1	3	5	4	4	7	10	7	1	1	4	3	3	0	1	3	5	7	3	2	2	2	4	4	1	3	3	7	4	4	5	3	2	1	1	4	5	3	4	7	18	33	46	36	12	13	15	12	12	11	8	5	3	5	4	1	4	3	1	2	4	3	6	4	9	8	4	2	3	4	0	4	5	6	5	3	1	1	5	12	10	10	9	5	2	15	26	16	30	82	125	144	117	57	12	29	32	15	0	7	7	5	4	4	2	5	7	7	2	7	1	1	22	18	117	135	72	14	25	40	41	47	43	59	33	18	26	16	8	7	5	2	2	4	3	12	8	4	5	5	6	5	3	2	4	2	4	4	9	17	9	3	10	10	6	1	4	4	4	4	3	2	3	6	5	6	8	4	1	1	3	4	6	5	4	4	7	5	3	1	0	2	6	7	5	4	4	4	4	4	5	7	3	4	0	8	7	8	13	13	12	10	5	3	8	7	7	7	4	5	0	2	4	3	4	4	5	5	2	1	2	2	3	4	3	4	3	7	5	5	9	7	3	3	4	2	3	2	2	1	4	8	10	8	4	0	4	7	7	4	3	9	4	10	10	2	7	8	5	2	3	5	4	5	7	5	3	12	7	5	7	5	6	10	11	7	8	9	5	4	3	4	4	4	4	3	2	3	4	3	2	0	5	7	5	3	2	4	2	4	5	4	2	2	2	1	3	4	4	3	4	4	1	0	3	7	6	5	3	0	7	5	6	7	1	2	5	7	7	4	3	4	4	0	2	5	3	6	7	0	0	5	4	2	4	3	2	3	1	2	5	7	6	2	4	3	5	8	5	4	1	2	6	2	6	7	4	4	3	4	5	7	11	8	6	2	2	2	6	7	4	1	2	7	8	6	2	1	3	3	4	8	2	4	1	0	2	6	7	5	7	4	5	7	8	7	4	1	1	4	5	4	4	6	5	4	5	7	
5	9	13	10	1	5	7	20	19	7	21	16	18	21	9	7	8	10	9	29	33	8	24	22	10	21	23	8	10	9	7	17	10	10	8	7	12	25	48	27	14	23	13	11	8	11	18	11	4	2	2	6	12	9	8	5	7	14	11	9	6	5	10	4	7	3	7	12	7	12	4	20	18	19	40	33	21	35	27	12	17	16	13	25	24	82	53	27	28	59	133	81	82	164	121	25	89	65	52	31	102	134	44	13	11	30	53	176	150	66	178	72	194	140	29	8	36	83	61	20	28	22	8	32	26	14	8	15	29	40	31	35	52	23	8	9	8	18	21	35	106	122	93	74	66	55	28	1	5	4	3	0	1	5	7	4	3	6	3	3	4	4	3	2	5	8	8	7	9	8	5	4	5	1	2	0	3	5	9	11	6	0	2	0	4	8	11	9	3	1	4	7	4	1	0	1	4	3	1	4	7	5	5	5	2	2	3	1	4	4	3	4	4	5	3	2	7	4	1	3	8	7	1	5	8	9	7	5	5	6	5	4	4	4	4	5	7	7	5	4	7	5	1	4	6	5	1	3	5	4	4	5	7	7	4	7	4	4	8	14	14	9	7	4	9	6	5	9	8	5	3	3	4	1	4	4	2	0	3	2	2	5	7	4	6	4	0	4	2	3	4	4	5	7	8	9	18	30	28	27	17	2	8	6	7	15	18	7	32	93	145	150	110	49	3	23	18	8	1	2	3	4	2	6	9	12	4	6	1	1	13	2	65	132	151	119	66	19	36	83	63	72	92	31	12	12	8	4	7	7	4	6	7	9	6	5	7	5	1	6	3	5	7	4	2	4	6	15	10	4	9	9	4	5	5	3	1	0	0	3	3	6	9	0	7	7	2	2	0	5	7	7	5	3	4	4	3	1	0	3	2	4	4	4	4	3	0	4	6	5	3	1	3	7	3	8	7	5	5	7	10	10	10	4	7	4	7	7	5	3	6	4	3	2	4	4	4	4	2	6	7	10	10	8	3	5	4	1	5	7	8	8	10	9	11	11	8	5	5	7	7	6	7	7	4	2	4	4	3	10	8	11	16	5	8	8	3	1	3	7	6	4	5	9	4	12	12	12	10	6	4	7	5	2	7	10	7	3	4	1	3	4	3	3	2	0	0	1	3	4	4	4	6	9	9	7	6	7	7	4	4	4	4	4	4	4	5	3	2	4	3	2	0	5	8	6	4	3	2	5	1	5	4	2	3	3	2	5	4	5	7	5	4	7	5	4	6	4	4	7	5	1	3	4	4	5	4	4	4	5	6	5	5	5	4	7	4	1	0	1	5	7	8	7	2	3	4	4	4	7	10	5	5	5	4	5	4	4	3	0	3	3	5	4	3	0	0	0	1	7	5	3	3	3	4	4	1	1	5	6	5	4	4	4	4	3	1	5	10	12	10	11	12	12	12	11	
2	12	7	5	11	12	17	27	25	13	18	21	8	15	15	7	7	9	12	32	28	6	18	26	21	18	10	15	15	18	3	16	11	10	7	4	10	15	47	34	13	27	18	14	8	14	26	15	9	7	5	4	12	13	7	0	8	11	10	13	11	3	8	2	6	8	4	8	8	15	13	20	19	9	26	23	1	36	35	18	27	21	12	26	15	82	70	18	29	58	118	65	124	142	89	26	62	75	34	9	92	112	62	14	15	26	60	190	149	71	153	90	164	83	13	5	39	72	47	20	25	18	13	39	47	38	34	22	25	46	39	15	58	39	4	12	7	5	9	13	34	71	50	15	33	24	7	6	4	4	3	0	0	4	5	4	3	4	4	4	4	4	3	3	3	8	8	7	7	4	4	2	3	1	3	4	3	3	9	12	7	0	1	2	4	8	11	9	2	1	3	7	5	2	3	3	3	4	0	2	4	1	4	4	2	1	2	3	4	5	5	4	4	5	6	4	5	3	4	3	11	9	2	4	5	7	5	3	2	3	4	4	4	5	8	10	7	3	4	3	6	6	2	4	3	1	0	1	4	4	2	4	4	2	4	7	3	1	2	3	4	8	9	10	9	3	4	4	7	7	5	1	4	2	3	4	4	3	2	4	5	4	4	6	8	2	3	4	1	0	0	0	3	4	6	10	34	55	62	70	61	44	28	15	8	7	1	7	16	11	62	119	157	151	99	34	11	24	17	4	5	4	4	5	10	15	11	7	4	1	8	10	9	51	108	156	161	124	55	66	105	38	116	114	91	90	79	49	21	25	16	7	6	2	5	7	4	3	5	3	3	7	5	4	2	3	2	12	11	7	8	7	1	3	3	4	3	0	1	4	7	3	7	6	5	6	4	2	5	9	7	5	3	0	1	3	4	4	3	4	4	8	7	7	7	5	4	4	4	4	4	3	5	5	4	5	1	1	2	0	4	6	4	3	7	3	7	4	5	6	7	4	1	3	4	2	4	7	0	9	10	8	10	11	5	4	3	0	1	4	8	10	10	9	11	12	12	12	12	11	8	5	4	5	7	3	0	2	5	7	9	3	15	10	11	11	7	5	5	9	7	7	8	9	4	8	8	7	4	4	4	8	11	10	5	8	7	4	5	3	1	0	2	3	3	4	4	4	4	2	2	4	4	3	5	5	4	7	8	3	3	1	1	3	4	4	7	5	4	4	3	0	2	2	0	3	5	4	1	3	2	4	6	0	4	7	7	3	3	7	8	4	2	5	7	4	2	2	2	5	7	4	4	7	7	7	8	5	1	0	1	4	7	4	4	6	3	1	3	4	2	4	7	3	2	4	4	4	2	7	7	0	4	2	4	4	0	4	3	0	4	0	4	3	4	4	3	1	1	5	10	8	5	4	3	1	1	3	5	6	4	1	0	0	3	4	4	5	5	8	8	9	11	11	8	5	
8	6	12	6	17	17	13	24	24	14	7	26	27	16	15	8	13	10	20	34	16	4	14	25	25	13	6	7	15	22	8	7	11	8	18	15	21	16	35	31	23	38	31	25	13	25	28	10	5	7	9	10	12	12	5	3	7	5	8	17	16	0	8	3	8	11	4	8	1	14	7	17	21	3	24	24	5	41	38	7	24	22	7	23	6	75	75	35	56	76	121	51	100	89	62	33	40	63	5	15	74	135	125	64	29	26	60	202	158	48	108	63	106	39	14	13	33	65	45	14	21	20	21	56	89	70	76	51	25	37	38	10	48	48	10	10	7	5	0	19	14	30	50	10	33	35	18	3	5	5	4	3	2	4	3	1	2	1	2	5	5	3	1	3	3	8	4	1	1	3	4	4	4	4	4	4	4	3	6	11	8	3	2	3	5	10	15	13	7	5	4	10	11	5	3	3	1	4	4	5	7	5	4	3	1	3	3	4	4	7	5	4	5	6	5	4	3	1	5	4	13	11	3	5	6	7	3	2	1	2	1	0	1	5	6	5	6	7	5	4	2	4	3	3	0	0	0	0	1	4	4	4	1	2	6	6	1	3	5	8	9	2	8	11	7	3	4	2	5	8	9	6	7	5	5	7	7	5	4	5	5	1	4	4	7	4	5	5	3	2	3	3	5	3	7	12	50	75	77	105	114	106	89	66	47	31	11	12	11	5	7	20	70	127	156	133	76	19	20	27	11	1	5	7	2	11	11	9	9	4	4	11	15	15	7	64	130	170	162	90	95	73	67	122	137	139	129	126	82	11	18	12	5	7	5	3	3	7	7	4	0	4	6	3	7	4	2	8	10	10	8	7	5	7	5	4	3	0	2	3	4	6	3	3	6	3	3	2	7	7	1	6	5	3	3	1	1	3	4	5	6	5	3	3	3	5	6	4	0	5	9	8	8	3	5	4	1	3	2	3	0	0	0	3	5	3	5	3	4	8	9	6	4	2	4	4	4	6	3	10	10	4	5	7	5	4	2	3	4	4	4	3	3	2	1	4	8	11	11	8	8	4	1	4	8	3	2	4	2	2	7	5	9	5	10	10	7	7	5	8	4	12	11	6	4	5	5	5	7	7	4	5	7	7	4	4	5	7	7	5	4	1	1	3	5	6	4	0	2	1	2	1	4	7	4	1	0	8	8	0	0	0	0	0	0	1	5	7	7	4	0	2	1	2	5	7	8	5	4	2	5	10	7	4	3	3	4	4	5	1	6	4	0	1	4	4	1	0	0	3	7	8	5	6	7	6	5	5	4	4	3	2	4	2	6	5	2	3	4	4	4	6	4	5	5	2	0	3	3	7	5	2	3	2	2	2	1	3	3	4	4	1	4	2	6	8	7	5	4	5	7	5	3	1	0	0	2	2	0	2	1	2	1	0	2	6	6	1	3	4	2	4	4	1	3	3	
12	4	7	10	17	15	6	20	20	19	10	15	23	24	19	14	16	17	39	32	11	8	20	30	27	14	9	4	12	23	17	5	4	20	31	23	26	20	16	21	26	31	18	8	17	35	26	8	7	10	13	13	11	10	7	8	12	11	9	22	20	6	9	4	11	10	4	13	8	19	18	15	18	2	20	25	17	41	29	7	21	15	7	14	3	53	74	45	51	55	120	53	56	85	74	32	35	52	25	46	63	112	174	135	30	5	62	191	149	37	58	46	58	28	21	17	23	55	45	10	20	23	20	81	131	71	98	91	42	34	27	7	40	50	14	7	5	12	8	18	12	19	39	32	5	27	26	14	7	5	4	4	3	7	5	3	1	0	2	0	2	0	0	1	4	7	1	1	3	2	2	4	3	1	1	2	1	0	4	10	8	2	3	2	4	13	18	12	4	10	8	5	10	4	2	4	2	3	5	7	9	10	6	4	4	4	3	5	3	4	3	2	3	4	4	4	3	2	6	3	15	13	4	5	9	8	2	2	3	2	3	1	4	7	3	7	7	7	7	7	5	5	7	8	7	5	4	3	1	1	3	3	1	1	5	8	8	7	5	4	2	8	5	0	3	6	3	2	6	8	11	7	7	7	8	8	8	8	5	5	5	5	3	1	5	5	8	7	5	6	4	4	7	1	13	16	63	100	65	58	89	102	104	96	85	76	60	44	27	4	4	9	11	21	80	136	153	123	56	13	30	15	5	12	9	1	4	7	11	9	4	4	10	18	26	17	16	72	131	142	101	74	28	40	54	57	68	127	155	116	42	11	14	3	2	0	5	6	3	6	0	2	9	7	8	8	4	5	4	7	6	2	3	4	7	4	1	1	1	2	2	2	4	6	2	3	2	0	8	5	2	4	5	4	1	2	0	0	2	6	7	5	3	3	2	6	7	5	5	10	9	12	11	1	6	1	3	4	1	4	0	0	0	1	4	4	3	5	5	8	7	5	5	2	3	4	2	3	7	11	7	1	5	4	0	3	4	5	6	4	1	0	1	3	4	5	2	0	1	4	7	3	0	4	7	2	1	5	3	4	5	7	7	2	8	7	2	4	3	8	7	14	10	1	7	10	10	11	11	7	2	0	0	4	4	2	6	7	5	5	5	4	4	4	3	1	4	2	2	2	5	5	3	4	4	3	0	6	8	4	1	0	0	0	0	1	4	6	5	4	3	0	1	4	4	4	4	1	2	4	7	7	2	5	4	4	3	0	5	4	4	4	3	1	2	4	3	2	1	1	5	10	9	1	4	4	5	3	3	6	5	0	4	2	5	5	3	4	4	0	4	4	7	9	6	4	3	2	2	5	5	4	6	4	1	3	4	7	8	8	6	4	4	3	4	4	5	7	8	7	7	5	1	3	3	1	1	3	4	2	1	1	2	0	3	2	3	3	4	5	6	6	7	7	5	5	
9	6	8	6	12	10	8	27	27	14	5	14	6	5	7	5	3	33	51	27	10	15	30	32	26	14	20	22	25	31	28	10	14	33	34	21	22	23	9	5	18	14	13	21	22	33	26	9	5	7	7	9	10	8	7	6	10	12	15	32	28	14	14	7	12	5	6	16	11	15	20	18	17	9	17	21	20	38	17	12	14	8	10	5	2	22	52	44	36	29	100	89	25	87	72	15	28	20	32	38	39	38	181	189	31	37	44	154	150	39	15	41	30	18	26	9	29	48	40	10	20	27	10	100	152	69	96	133	78	45	36	26	45	56	21	1	8	10	17	41	39	41	36	30	22	11	39	27	14	10	2	3	4	10	9	8	5	3	4	3	1	0	0	0	3	5	8	5	4	3	4	4	3	2	4	4	4	1	4	11	8	0	4	7	7	11	16	12	6	9	7	5	8	4	3	4	3	1	2	3	4	8	7	6	7	7	5	7	5	0	2	1	1	4	2	3	3	3	7	7	15	14	3	6	8	10	5	4	3	3	4	5	7	5	2	7	7	8	11	12	11	10	11	11	8	5	3	3	2	1	4	3	3	0	1	4	6	4	4	4	6	5	4	5	7	5	1	3	4	5	8	4	5	4	5	6	7	7	4	4	4	7	6	3	4	4	8	6	8	8	5	5	8	4	15	8	39	106	120	69	8	32	55	68	75	87	96	101	92	60	23	14	20	27	12	35	97	150	156	96	25	16	15	5	7	5	3	4	10	12	11	3	3	4	8	15	23	17	21	63	68	46	18	6	22	39	29	31	117	172	141	46	17	17	4	1	4	8	8	8	6	7	10	6	1	6	8	3	2	3	4	3	5	1	5	2	2	4	3	2	4	2	4	6	3	2	2	1	6	4	3	1	7	10	7	0	1	1	4	4	4	4	4	3	3	2	3	9	10	7	3	14	12	0	5	2	3	3	2	3	0	0	1	3	4	5	3	6	7	4	0	2	7	5	1	1	5	7	8	11	8	8	9	7	2	4	5	2	0	2	0	0	0	0	3	5	7	9	12	13	9	3	2	5	7	5	4	3	2	2	2	2	1	3	7	5	4	7	6	9	13	12	4	4	7	7	5	4	1	3	4	3	1	4	4	3	5	5	2	4	3	4	7	7	4	3	2	4	6	5	4	5	3	1	4	5	4	8	11	8	3	1	3	4	4	4	3	3	3	4	2	3	4	5	4	2	3	6	4	2	4	2	4	2	3	4	4	4	4	3	1	3	4	4	4	4	3	0	2	0	3	8	11	9	7	8	5	4	6	2	7	2	4	1	4	7	5	4	4	2	5	2	6	7	8	7	5	4	5	7	5	1	2	3	4	8	8	7	5	4	4	7	4	4	4	0	1	4	7	7	10	6	5	6	5	3	0	1	3	4	2	3	1	0	3	4	7	5	5	4	2	2	1	2	3	5	
4	7	11	17	18	11	10	31	23	2	18	21	20	20	8	4	21	46	43	16	4	13	32	42	37	7	39	38	29	40	41	10	24	34	22	10	1	15	15	12	16	4	8	15	21	25	21	10	13	14	8	7	6	2	7	10	8	4	17	40	29	10	15	12	14	8	15	14	9	1	6	4	13	9	17	16	17	36	8	18	9	3	5	8	10	12	24	35	52	50	94	106	21	111	65	21	19	6	9	12	36	24	148	195	71	67	21	107	153	50	11	28	18	21	26	3	36	48	35	11	17	34	5	108	159	85	74	165	127	46	30	23	44	64	41	15	7	7	31	58	33	46	47	34	32	6	50	34	15	16	8	5	4	12	10	14	12	4	4	4	3	4	3	2	5	10	12	13	11	4	3	6	5	5	4	2	5	5	4	10	7	4	4	4	3	6	12	11	8	7	2	2	5	4	3	5	5	4	1	3	4	4	7	2	2	2	3	5	8	5	3	1	2	3	3	3	3	3	4	6	12	13	0	5	5	8	7	6	3	5	5	7	5	4	5	8	8	4	1	2	6	8	7	4	7	4	3	5	3	4	4	2	4	3	2	3	4	4	6	4	4	3	1	3	4	1	0	4	4	4	8	1	5	4	3	1	6	6	1	3	2	1	3	3	1	2	8	5	9	11	11	11	10	6	12	17	2	53	117	134	94	37	8	28	44	60	70	82	102	108	83	45	23	21	28	24	2	57	130	162	131	64	11	25	15	1	8	5	3	9	14	10	2	4	7	4	4	14	17	10	8	13	12	13	23	37	61	67	28	96	172	138	41	17	17	6	2	4	5	7	7	7	5	1	6	7	7	4	5	2	6	2	5	3	5	1	5	4	2	4	4	1	4	3	2	2	1	4	2	3	6	7	4	5	10	4	4	2	3	2	4	3	1	0	2	7	10	9	9	5	7	11	10	4	5	4	5	7	7	4	1	1	4	4	4	5	0	6	8	2	0	1	5	7	3	3	7	5	4	7	5	2	8	10	0	5	4	5	6	4	1	0	0	0	1	4	7	9	13	13	9	7	5	3	4	5	7	4	3	4	4	4	4	4	5	3	4	4	3	7	10	7	3	4	4	4	8	10	9	7	5	4	2	4	3	4	7	2	6	4	1	2	2	2	6	4	1	4	5	5	3	4	3	1	5	7	5	4	8	10	5	4	4	3	1	1	3	4	3	3	3	4	4	5	4	4	6	3	7	4	2	3	3	1	0	0	1	3	3	1	0	0	4	7	4	0	4	6	5	4	2	4	8	8	7	5	1	5	9	4	8	4	4	1	1	5	8	10	9	7	8	4	7	8	6	8	8	8	8	7	3	2	3	1	2	7	5	4	4	2	3	7	4	4	3	0	0	2	3	2	10	5	7	3	6	4	4	4	3	0	4	4	1	0	1	2	3	2	4	3	8	6	4	4	5	6	
3	9	4	8	18	14	8	30	22	8	18	14	16	26	22	12	34	39	26	9	3	4	20	42	46	16	44	31	10	41	53	16	32	36	11	7	8	5	14	17	16	2	12	15	18	18	8	11	18	21	20	13	2	10	10	12	13	15	16	34	29	7	10	15	10	19	18	4	4	7	12	13	19	2	18	15	20	34	1	21	8	4	4	8	14	18	19	26	49	41	123	146	66	143	50	31	24	8	17	19	28	34	100	152	94	87	78	92	167	69	21	17	21	26	20	8	37	56	35	6	16	43	12	112	163	98	47	179	160	40	14	2	25	56	50	25	10	16	37	52	18	27	46	48	41	23	55	34	11	16	14	11	2	15	10	13	17	7	4	5	3	3	4	5	6	7	8	12	14	9	7	1	6	5	5	7	8	10	7	4	7	4	1	0	1	4	8	7	4	4	4	4	5	5	1	0	5	6	2	2	7	5	9	5	7	7	4	1	7	8	5	3	1	3	2	4	5	5	4	1	10	11	2	3	4	8	8	5	3	5	4	4	4	4	4	5	7	6	4	4	1	1	2	2	7	5	5	6	1	5	2	2	2	4	6	5	7	6	3	4	1	1	3	4	4	2	1	4	4	4	7	3	7	4	2	3	5	7	4	4	4	1	4	5	2	6	7	3	3	8	14	14	7	2	4	8	12	4	36	94	119	98	71	48	22	4	15	25	32	42	71	71	39	15	13	11	19	15	25	82	132	146	103	29	15	15	1	10	5	3	11	15	11	7	7	5	7	6	3	3	3	5	10	22	42	48	35	88	102	22	96	168	134	41	17	21	5	0	4	3	2	2	5	4	2	1	3	6	4	4	7	9	4	1	2	2	6	5	5	7	7	6	7	7	4	4	4	11	10	9	1	8	8	7	10	3	3	1	3	5	6	5	3	1	5	10	10	7	3	3	4	6	7	6	5	4	5	7	8	8	7	5	4	0	5	7	3	7	8	4	5	4	5	7	4	4	7	4	1	5	8	5	7	8	3	4	10	11	8	5	3	0	0	0	0	3	4	5	7	2	6	8	5	3	1	5	9	7	4	4	3	2	2	1	3	3	4	1	2	6	4	1	5	7	6	8	11	11	9	7	5	5	4	4	1	4	7	3	7	3	1	3	4	3	4	4	4	4	3	0	3	4	3	3	6	4	4	6	5	7	7	4	0	5	7	7	3	1	2	3	3	2	4	4	1	4	7	2	4	4	3	2	0	2	0	0	0	0	0	0	0	0	3	7	5	4	5	7	7	5	4	3	3	3	2	1	0	7	11	4	8	4	1	1	3	6	10	12	10	7	9	9	10	8	2	4	7	7	4	1	3	4	3	1	2	7	5	5	7	4	3	4	4	6	5	3	1	1	3	3	6	4	5	1	5	5	6	4	2	5	7	4	4	3	4	5	7	7	7	7	5	2	2	0	5	4	
8	11	4	8	16	15	2	26	29	7	24	23	13	13	23	16	33	26	17	11	5	2	10	40	45	6	39	24	2	39	63	26	39	49	21	19	8	10	21	15	8	9	14	21	23	16	10	11	5	14	25	17	7	10	5	3	5	16	20	17	22	8	2	12	4	19	21	8	5	5	13	11	26	8	16	17	24	27	8	25	12	9	9	14	10	5	11	15	40	11	152	176	38	161	66	26	23	8	5	2	4	17	58	99	85	85	104	102	162	45	12	8	20	31	18	2	25	59	54	17	19	49	11	118	160	98	36	186	169	28	20	6	15	56	54	21	4	21	45	48	21	21	37	50	46	37	51	29	14	14	11	14	3	15	12	10	17	7	5	1	4	4	3	5	7	8	5	7	11	8	8	4	5	4	7	10	5	7	8	3	4	3	1	3	4	4	5	5	2	1	0	1	4	7	3	1	3	8	8	5	10	6	14	10	3	4	4	6	4	8	8	5	1	3	4	7	4	3	4	4	10	9	3	1	4	8	8	4	3	5	3	0	4	7	5	3	8	7	4	4	0	4	4	2	4	7	6	5	5	1	2	3	2	4	8	7	4	4	2	2	4	5	7	7	5	4	4	4	3	3	5	6	5	0	4	3	3	7	5	4	4	2	4	6	2	6	5	4	2	5	8	10	11	6	2	3	7	18	18	26	75	112	133	135	118	82	52	72	81	63	12	47	53	30	14	3	2	11	17	12	31	105	158	131	61	9	15	14	2	4	1	12	18	8	4	3	2	1	3	5	6	8	13	15	37	74	66	24	101	94	21	92	165	137	42	19	21	8	4	1	3	4	3	5	5	5	4	3	2	4	8	10	10	5	3	1	6	7	3	4	4	4	6	9	10	7	8	12	9	14	11	1	7	5	4	7	7	5	2	3	1	5	4	4	7	7	1	3	2	2	3	5	4	2	1	0	2	3	3	5	7	7	4	4	6	4	4	8	8	7	4	4	7	5	4	6	5	3	1	3	7	6	5	4	4	6	6	3	6	7	4	1	1	3	3	5	3	4	8	7	5	6	4	4	4	7	10	5	1	0	1	3	4	4	5	6	5	4	2	4	5	2	3	7	5	5	5	5	7	8	8	8	5	1	1	3	5	9	7	2	3	2	3	0	1	3	3	0	4	5	2	3	3	4	4	3	4	4	3	2	4	4	4	7	3	3	5	4	4	1	1	4	4	0	3	2	4	5	2	4	4	1	2	1	1	3	3	1	0	0	1	3	4	7	7	4	3	2	2	1	4	6	4	1	0	0	1	8	11	1	7	5	4	5	8	11	11	8	5	5	8	9	10	7	1	2	0	4	3	1	4	7	8	7	5	4	3	7	7	5	5	2	2	3	2	2	3	3	1	1	5	5	5	4	2	4	3	3	4	7	4	3	6	2	1	4	6	7	5	2	1	1	1	4	2	4	
12	12	12	16	17	13	5	19	41	24	28	34	23	7	12	8	22	21	16	12	8	3	12	41	42	7	39	25	5	42	62	23	43	61	31	20	16	20	17	4	4	6	7	19	24	8	11	16	10	8	21	21	18	10	1	7	8	18	10	7	13	11	11	13	4	14	15	8	7	4	9	7	25	13	9	8	20	15	15	29	12	9	11	17	12	4	7	9	38	14	135	169	91	146	51	20	15	7	9	8	10	21	41	72	57	71	110	79	125	40	13	6	16	29	21	7	15	43	47	20	24	49	7	128	155	101	41	191	196	63	8	11	23	69	58	17	14	32	58	53	33	28	31	40	29	17	36	21	15	19	14	15	3	14	13	7	17	7	1	2	1	2	1	4	6	6	7	10	10	8	8	3	6	5	6	9	5	2	8	5	4	3	3	4	3	1	3	4	1	0	1	3	4	5	6	7	5	5	9	12	15	4	16	14	4	4	5	8	4	5	10	6	3	4	5	9	8	6	2	4	9	7	4	1	4	8	7	4	4	6	3	4	3	4	5	3	7	5	3	3	2	4	0	4	1	8	5	2	2	1	4	7	4	5	8	8	4	2	4	2	6	8	8	8	7	6	6	4	2	4	7	6	2	3	4	1	1	5	7	8	7	5	5	7	6	4	3	3	4	7	6	1	10	9	7	5	7	7	11	4	18	45	67	86	107	110	79	76	70	71	74	33	54	43	10	4	3	5	7	11	21	9	83	133	132	96	43	7	14	5	8	5	12	15	6	1	6	8	7	5	4	5	11	13	5	52	91	68	19	89	89	22	87	169	142	45	17	20	7	6	4	1	7	9	5	4	1	0	2	7	8	8	11	8	5	3	5	7	4	3	2	3	4	5	10	7	4	8	4	5	11	7	0	3	2	5	7	7	7	4	5	1	3	4	7	4	2	5	3	6	3	7	5	1	0	0	1	4	4	3	0	3	4	7	5	4	7	8	8	4	2	4	6	4	4	4	4	4	4	2	4	4	3	1	1	7	8	6	10	10	4	4	2	4	2	7	1	5	9	8	4	2	3	4	4	5	8	4	6	5	5	6	6	6	5	4	4	5	7	7	5	4	3	4	4	4	4	1	3	4	3	7	8	0	2	1	4	7	4	3	4	1	4	1	0	0	1	4	3	4	4	6	5	3	2	4	7	7	5	4	5	7	9	10	4	7	8	5	5	4	4	4	1	3	4	3	2	3	4	4	3	0	0	0	3	4	4	3	0	0	3	4	4	5	5	4	0	3	3	2	4	4	4	1	0	1	4	7	9	2	5	4	4	5	8	5	2	2	3	3	5	6	5	4	6	3	4	2	4	4	5	6	6	7	6	1	4	4	4	4	4	4	2	3	0	2	6	7	5	3	6	4	3	5	2	1	2	4	5	8	7	4	4	3	4	6	2	7	4	0	1	3	4	5	2	10	
13	19	6	23	26	13	3	16	45	30	14	32	22	7	7	5	12	25	20	13	9	5	17	36	36	8	39	29	8	46	56	22	52	59	21	12	24	22	11	5	1	3	4	16	25	13	7	12	10	1	12	16	17	14	10	7	8	22	14	9	11	12	14	16	8	14	8	4	8	4	7	13	18	10	8	4	16	9	19	30	8	5	12	19	11	1	6	3	28	14	98	106	96	103	17	27	8	3	3	4	11	28	28	53	22	38	90	67	82	31	12	10	12	21	21	8	19	43	36	6	25	40	11	137	154	110	45	160	211	104	34	10	29	70	57	9	20	45	64	40	16	35	39	46	25	17	31	24	14	31	27	15	2	16	18	10	19	10	3	3	3	4	4	5	7	5	7	7	7	8	10	7	11	7	4	8	7	1	7	4	4	1	3	4	4	4	5	7	5	2	4	4	2	3	7	7	5	5	8	16	21	5	17	20	10	7	7	10	11	11	9	4	4	4	1	5	7	7	5	3	8	5	4	4	4	8	7	7	7	5	2	4	6	4	2	2	5	5	2	1	1	4	4	4	1	7	4	3	3	3	7	5	4	7	8	7	4	5	7	5	4	5	5	4	4	5	6	5	2	4	4	4	4	5	4	1	3	4	4	4	4	4	5	5	4	4	4	5	4	4	5	3	6	6	4	6	7	1	7	7	11	17	22	17	22	58	58	48	42	24	62	56	52	36	3	11	12	13	8	18	10	16	26	36	87	136	138	90	31	5	8	5	3	9	12	7	5	7	10	11	11	10	11	16	10	13	49	86	70	11	79	78	17	90	171	140	46	13	8	9	8	7	10	5	5	2	2	4	5	9	8	8	10	8	8	5	4	4	3	4	6	5	6	5	8	8	2	7	9	4	8	7	4	4	3	3	4	7	11	4	4	3	0	3	7	4	6	5	3	8	3	5	7	3	0	0	0	2	2	2	2	0	4	8	3	4	5	7	7	0	4	2	2	4	3	1	3	4	5	7	2	3	3	3	1	4	7	5	7	6	4	7	4	7	1	8	0	7	3	7	3	0	0	0	1	4	8	10	9	8	7	5	4	4	4	3	2	5	8	10	9	6	2	4	4	4	4	0	1	4	7	7	4	5	2	1	4	7	7	4	4	3	3	3	0	0	2	3	3	7	5	4	4	4	5	7	5	5	7	8	7	5	8	12	4	7	7	4	5	4	3	1	0	3	4	0	5	4	6	4	1	0	0	0	3	4	4	4	3	4	4	3	2	4	2	5	5	1	0	5	7	7	8	5	4	5	7	7	8	3	4	3	3	3	7	3	5	5	2	0	1	2	1	4	8	3	4	2	2	3	3	0	3	2	3	4	3	2	4	4	5	8	7	7	5	4	5	5	7	4	7	8	6	1	4	3	1	3	5	8	11	10	5	2	5	7	2	7	5	1	3	4	5	7	5	10	
11	28	13	21	33	14	7	17	30	32	23	24	24	18	15	18	10	24	24	15	5	7	19	32	28	9	36	26	3	38	52	24	44	44	9	14	21	17	14	13	8	5	10	18	20	9	5	9	8	3	7	5	4	9	12	12	4	17	10	10	13	12	15	13	3	12	4	4	7	8	5	5	8	9	10	8	15	10	22	27	3	8	15	19	9	2	5	6	20	11	75	49	51	43	26	27	6	8	5	5	11	22	5	41	14	15	48	50	63	35	20	11	6	15	21	9	19	43	30	20	24	31	19	139	158	104	46	147	188	92	34	18	21	58	61	27	16	53	66	34	23	48	52	47	13	25	27	34	31	45	53	23	3	20	23	7	22	11	6	8	6	8	10	7	4	2	2	2	5	9	12	5	13	11	5	8	8	2	5	5	2	0	2	6	8	8	8	8	9	6	4	1	3	3	1	1	6	8	8	18	27	10	21	27	11	5	4	7	11	11	8	4	2	4	1	1	3	5	7	1	8	4	4	7	3	8	7	5	4	4	4	4	3	4	3	3	3	6	1	4	3	2	3	3	2	5	5	5	7	6	3	4	4	8	8	4	4	7	4	0	3	6	5	3	1	2	1	6	1	4	0	1	4	7	5	4	4	4	4	4	3	1	4	4	0	0	3	4	1	1	4	4	4	8	2	2	2	3	5	5	10	13	17	23	22	18	18	17	20	8	19	20	21	15	6	27	38	51	34	4	13	13	17	8	16	61	118	147	126	68	19	3	5	5	6	8	12	8	3	8	10	11	11	13	11	7	3	38	85	67	39	63	51	5	93	162	126	58	19	2	11	13	16	10	13	2	6	4	8	9	5	7	8	8	12	10	4	1	1	5	8	7	4	4	7	11	10	0	7	4	5	5	3	3	1	4	4	4	11	10	7	5	4	4	6	3	6	7	3	8	4	4	8	4	0	0	1	4	4	4	3	1	4	7	3	4	4	6	5	2	4	2	0	2	0	1	4	5	1	5	3	3	3	3	4	2	3	2	5	2	5	4	4	8	4	8	3	6	2	6	4	3	1	1	5	8	10	8	5	4	3	2	2	2	4	6	5	7	7	6	5	4	4	5	5	4	3	0	2	6	7	3	4	6	5	2	5	10	10	6	5	5	3	3	0	0	1	4	6	5	3	1	3	4	4	1	6	6	3	2	3	2	5	11	7	8	6	1	4	4	4	4	4	4	5	4	7	5	3	2	0	0	0	0	2	6	6	4	4	4	3	1	2	3	3	5	8	5	2	7	10	6	8	5	5	5	2	5	9	5	7	5	4	1	5	3	5	3	4	3	3	2	2	3	8	5	4	7	5	1	2	5	5	4	3	1	5	5	5	4	5	8	5	3	3	3	5	5	8	7	9	10	8	5	4	3	1	3	5	6	6	7	7	4	7	5	2	5	7	4	4	3	3	5	4	9	
3	29	18	19	32	12	11	15	10	17	16	12	26	23	10	18	21	26	21	11	3	9	21	31	23	12	31	20	7	20	41	28	32	33	10	13	17	10	7	15	13	11	25	28	17	4	4	6	5	9	16	15	11	5	9	10	4	12	6	4	9	17	22	13	2	12	2	5	11	5	4	11	16	18	13	13	15	2	20	21	7	11	12	16	7	4	2	4	12	14	59	35	36	27	29	27	17	11	7	8	10	17	4	31	30	26	29	22	39	20	10	5	0	15	28	17	19	41	44	35	26	32	29	137	176	98	71	181	175	76	21	13	11	43	57	41	15	67	65	22	23	50	56	32	12	28	25	48	48	42	70	37	5	24	28	3	23	8	10	15	14	4	8	7	4	3	3	4	5	12	16	7	9	12	7	8	9	5	6	9	8	3	5	6	5	4	4	7	13	9	2	1	4	1	0	5	5	7	10	27	34	10	30	31	7	7	0	5	7	8	8	7	4	4	4	4	3	4	7	3	7	4	4	7	2	4	4	3	0	3	5	5	5	7	4	4	0	5	6	5	4	4	1	0	1	4	5	4	3	3	1	3	4	7	6	3	4	4	2	2	6	9	4	3	2	2	5	5	1	4	1	3	4	7	5	3	1	1	3	4	4	4	4	4	4	4	5	5	4	3	2	6	3	10	2	4	2	4	4	3	3	3	3	2	7	10	4	4	7	9	8	3	5	10	3	39	51	61	83	72	48	17	11	20	13	4	21	72	132	149	111	51	10	5	5	3	11	21	14	5	2	7	11	14	15	10	8	2	42	73	58	38	30	35	5	94	141	123	83	39	6	22	32	18	34	33	10	7	11	8	4	3	7	6	9	11	4	0	3	7	7	5	2	1	4	10	15	8	4	5	4	5	1	0	0	4	4	1	7	11	13	10	7	4	2	4	1	8	4	7	4	4	8	4	0	1	4	4	2	4	4	4	5	7	2	2	5	7	7	6	2	1	2	1	0	2	1	5	4	4	4	4	7	7	5	4	3	1	5	2	4	3	7	8	4	8	4	2	2	1	7	9	7	2	6	4	3	5	7	5	1	2	3	4	4	5	6	7	5	1	2	2	5	7	5	3	1	0	1	7	7	4	6	4	8	4	5	2	1	4	7	7	6	5	4	4	4	4	3	0	3	4	3	1	2	5	5	5	7	5	7	5	4	7	7	10	5	2	2	1	0	1	3	4	4	3	4	2	4	1	0	0	0	1	5	6	5	1	4	0	0	1	4	7	6	3	5	7	5	8	8	0	7	4	4	3	2	5	11	4	4	4	5	0	3	4	4	3	6	2	2	5	2	1	8	7	2	4	6	3	2	2	1	3	4	4	4	5	7	5	4	7	3	4	2	7	9	9	12	14	13	12	13	11	4	1	4	4	3	3	2	3	5	6	5	2	2	2	5	4	3	1	1	4	0	7	
3	25	21	24	28	8	12	14	7	8	10	5	22	29	16	6	13	17	10	5	7	5	19	31	26	9	25	20	8	11	26	23	24	18	5	12	19	15	13	10	7	23	32	22	8	8	3	4	3	8	13	8	8	6	10	7	3	10	9	5	7	15	29	16	7	11	1	4	9	2	8	10	12	13	15	24	21	11	24	25	15	10	8	11	7	8	7	8	8	10	41	36	24	21	17	23	12	6	5	9	8	15	18	27	36	34	33	15	31	18	3	1	4	17	30	14	9	16	25	29	25	27	12	112	180	108	82	147	111	32	6	11	10	39	60	50	24	85	65	23	31	50	58	34	12	30	33	56	46	34	78	45	6	24	30	3	22	2	11	20	21	1	4	1	4	2	7	7	5	13	19	8	10	16	11	12	14	8	5	5	10	5	7	3	4	2	1	4	13	14	8	5	4	3	5	5	6	4	14	38	36	8	40	29	2	7	2	5	3	3	4	5	5	7	5	4	4	5	7	6	5	3	3	5	2	1	5	5	2	5	6	0	9	8	0	5	5	7	6	2	1	4	4	3	1	2	5	5	4	5	4	3	1	4	5	5	3	1	3	3	7	8	3	5	4	4	4	3	3	4	3	4	4	7	4	1	3	4	3	1	1	4	5	4	5	7	8	8	7	5	2	5	5	7	4	7	4	4	4	3	3	3	3	1	2	3	2	2	4	5	2	0	4	14	6	51	65	41	82	121	126	101	69	46	23	4	5	9	28	95	143	136	70	4	11	4	10	14	25	20	10	2	7	12	15	12	8	8	2	28	39	28	11	21	28	11	73	114	125	110	72	12	39	46	38	69	72	35	8	21	17	8	4	4	4	10	7	1	4	8	5	4	2	2	3	2	12	10	4	7	5	8	5	1	1	5	4	1	2	6	8	7	5	4	1	4	3	5	4	5	5	4	8	5	4	4	4	2	4	4	1	1	4	7	6	4	5	5	5	5	2	0	1	3	4	4	3	2	2	1	4	4	6	6	1	2	1	1	6	1	3	2	5	7	2	7	4	0	0	3	7	7	11	4	4	4	2	3	5	9	3	5	4	5	6	5	5	7	3	3	0	4	3	7	5	3	3	2	3	7	8	6	4	3	5	6	4	1	1	3	5	7	7	5	4	4	4	2	2	5	7	9	10	8	5	4	0	4	3	5	5	4	2	3	6	5	4	6	3	2	4	6	5	4	3	0	1	1	2	4	4	4	4	5	8	4	6	2	3	0	1	5	7	7	5	3	4	5	2	4	5	3	3	6	8	8	8	6	10	6	2	4	6	1	3	4	1	4	5	3	3	4	2	2	7	8	5	5	4	4	2	6	7	5	5	6	6	7	9	10	5	4	3	4	2	10	8	4	7	8	8	8	10	11	9	2	6	4	5	7	4	0	4	7	7	4	2	2	4	2	1	1	2	2	2	4	
15	21	27	32	28	15	18	21	12	14	9	5	14	30	32	13	10	11	7	3	3	7	15	21	22	10	19	22	11	8	16	15	21	13	6	11	20	14	10	9	9	21	22	7	7	7	5	7	6	11	16	4	7	6	8	5	3	8	13	3	12	9	32	19	10	9	8	10	15	4	10	7	1	7	12	31	30	10	17	22	13	6	5	7	1	4	8	12	11	2	25	32	24	14	9	18	13	8	2	8	8	18	23	14	20	27	29	12	22	18	5	4	5	17	24	9	15	10	2	9	10	7	21	79	134	118	112	109	73	42	15	9	8	43	74	56	34	98	67	4	34	49	51	37	14	39	44	49	39	33	80	49	5	25	28	6	23	7	15	22	27	3	4	3	4	3	11	7	8	14	22	13	16	22	13	14	9	3	5	8	5	2	5	1	6	0	2	2	8	16	16	8	2	3	4	4	5	2	16	38	34	8	41	29	0	5	5	2	4	2	1	4	0	4	0	3	2	2	5	4	3	1	1	5	6	3	7	7	2	7	5	2	8	7	5	9	8	7	5	3	0	2	2	2	1	4	5	8	8	7	4	4	4	4	4	4	1	0	2	5	5	5	1	4	3	1	2	1	4	4	4	4	4	7	4	4	4	4	4	3	0	1	4	4	2	4	5	4	4	6	3	1	1	3	5	4	3	5	5	1	4	0	0	0	1	3	3	2	4	4	3	1	4	16	7	47	79	60	60	79	105	133	150	147	117	53	12	13	27	8	57	137	150	77	5	10	11	7	10	18	19	13	4	4	10	11	10	9	8	3	16	22	16	2	25	27	7	51	93	130	146	106	22	54	70	45	89	111	71	16	16	25	18	8	3	5	8	5	4	7	4	3	3	4	5	4	9	8	4	7	5	8	8	3	3	7	4	4	4	4	2	4	5	5	4	4	3	3	4	5	7	5	9	8	8	6	2	3	5	3	4	3	3	7	8	4	4	4	1	5	5	4	4	4	4	4	3	1	3	3	4	6	3	2	5	4	4	2	5	6	5	3	4	5	6	5	3	0	0	4	8	1	8	5	2	4	4	0	3	8	7	4	4	3	4	4	2	4	3	4	2	3	2	7	7	4	4	6	4	5	5	4	2	2	1	5	7	5	3	1	2	5	5	3	0	0	0	3	4	4	5	7	8	9	4	0	4	4	2	4	1	0	3	4	3	0	6	5	5	4	5	1	4	0	2	1	1	4	5	8	10	9	8	7	5	2	5	6	5	5	7	8	5	4	7	5	5	5	4	6	7	4	2	5	7	9	11	11	8	4	3	4	5	3	3	4	2	6	4	1	0	1	2	2	5	8	6	5	3	3	2	2	2	2	2	3	3	4	5	8	7	1	1	2	2	8	10	5	1	0	2	5	6	10	11	3	4	4	5	2	2	2	2	3	3	5	7	3	3	2	3	4	2	3	6	7	
25	5	14	21	15	9	19	29	21	10	8	7	5	23	41	24	8	4	4	1	2	9	16	16	12	7	12	19	13	7	8	11	16	12	10	14	22	18	14	5	13	23	21	6	8	7	4	10	7	12	19	5	6	1	5	5	7	12	13	2	13	5	31	22	7	6	12	7	17	11	6	8	7	10	4	31	35	13	12	15	8	4	3	6	2	9	11	14	15	4	9	17	21	18	13	14	17	13	4	9	15	21	19	7	13	26	25	8	17	19	11	11	12	18	17	1	12	7	11	2	7	16	31	57	67	91	134	120	73	35	15	13	7	42	83	60	40	91	62	13	25	39	52	44	17	47	39	34	37	30	87	57	14	29	27	7	23	12	20	24	32	5	5	4	2	7	11	2	9	14	27	23	21	32	21	12	0	10	10	8	6	3	4	2	5	3	1	1	2	4	8	10	5	4	3	3	5	3	19	30	29	3	34	33	10	1	3	4	4	0	5	5	4	4	3	4	4	2	4	4	1	0	0	6	7	2	7	7	3	8	4	1	4	7	4	7	4	3	6	3	1	5	6	4	2	4	2	5	10	12	12	11	8	5	2	4	4	1	3	5	6	5	4	5	7	7	5	4	4	3	4	4	3	5	6	4	1	1	4	3	0	0	4	7	3	7	7	1	6	4	3	4	4	4	2	1	2	4	7	3	3	0	0	0	0	0	1	4	3	4	4	2	2	12	17	24	84	102	69	25	28	58	92	132	172	148	58	3	5	26	21	46	132	146	94	37	17	13	5	6	10	17	17	9	8	5	5	10	10	7	2	11	18	16	10	27	20	6	32	68	121	155	127	67	57	65	31	88	131	108	54	10	21	14	4	5	7	7	5	4	2	4	4	4	5	1	7	6	2	6	5	7	12	4	5	7	2	3	3	1	1	2	3	3	3	3	1	2	5	4	5	1	5	7	7	5	3	4	7	2	7	3	2	5	8	3	5	5	4	8	8	7	4	2	2	5	4	3	4	4	4	7	8	4	4	4	4	3	1	3	4	4	4	3	4	3	1	0	1	4	6	2	4	4	3	3	4	1	1	5	7	2	3	4	4	4	1	4	4	4	1	3	4	5	7	4	4	8	4	3	4	2	3	2	6	6	4	3	1	3	4	1	6	4	0	0	0	4	4	4	7	4	3	8	4	3	4	1	4	5	2	1	4	4	0	2	4	6	7	7	7	3	3	3	2	3	3	5	5	7	6	5	5	6	5	5	7	8	8	8	7	4	1	1	5	7	7	6	2	2	6	7	4	3	4	4	5	5	3	0	4	4	4	3	2	2	5	8	1	2	1	2	1	0	4	5	2	3	5	4	0	4	6	4	2	4	3	0	0	4	8	5	3	4	5	10	14	11	5	1	3	6	4	7	11	7	2	2	2	6	7	4	0	4	4	1	7	11	10	9	5	6	3	8	7	8	
24	7	8	14	9	4	16	31	26	7	4	7	10	29	44	24	4	5	10	11	7	11	20	12	3	2	6	14	13	4	2	11	7	4	6	12	19	13	12	11	12	22	25	15	14	11	5	8	10	11	17	2	8	2	4	4	11	14	7	6	16	10	28	29	12	2	14	6	15	13	6	1	4	12	6	27	34	11	17	11	1	7	4	4	8	15	9	16	15	4	4	12	16	15	10	7	15	15	7	10	20	20	15	8	14	26	27	17	21	23	15	13	14	15	11	5	13	6	10	3	13	18	22	39	28	51	75	64	51	29	7	13	9	29	75	59	48	77	44	4	8	26	58	61	15	45	25	27	41	39	113	72	35	41	34	2	21	14	20	23	35	8	8	7	4	9	9	3	7	15	33	30	16	39	29	11	6	10	4	2	3	5	4	0	4	4	2	9	18	17	5	7	8	7	5	5	7	8	24	24	26	12	26	35	19	8	3	3	3	4	6	0	7	4	5	4	3	4	0	4	3	0	1	5	4	6	4	4	7	9	4	3	1	4	2	5	7	7	5	0	2	7	2	3	4	3	0	2	3	4	4	4	5	7	3	1	4	3	4	7	4	3	1	1	2	4	3	2	4	4	4	3	1	3	4	3	1	4	4	0	3	3	5	7	2	7	8	1	5	7	7	5	4	3	5	0	4	1	5	4	1	0	0	0	0	0	3	4	1	4	5	3	5	2	19	13	53	122	116	69	45	39	28	16	90	159	113	23	10	3	28	23	42	108	144	134	82	20	16	12	3	5	16	17	12	5	0	8	11	13	12	4	15	21	8	14	20	19	12	2	39	94	131	119	51	42	70	26	59	123	137	101	33	15	10	3	3	4	1	1	3	4	4	3	7	3	5	8	4	4	10	3	15	7	8	5	0	2	1	0	3	4	3	1	1	2	2	4	4	3	3	2	1	2	3	6	4	3	7	3	7	4	1	4	8	5	9	8	7	8	7	4	3	3	3	7	5	2	4	4	0	4	8	5	0	3	4	3	2	3	4	4	3	1	3	4	4	4	4	4	2	2	2	4	3	1	4	4	1	4	5	3	2	5	4	3	2	4	3	4	1	3	4	5	5	2	5	7	3	1	4	4	5	5	6	6	4	3	2	2	3	2	5	4	0	0	0	3	4	5	7	4	5	8	5	4	3	0	4	6	0	3	4	3	1	4	6	4	3	7	9	5	1	4	1	4	4	6	5	5	2	4	4	5	7	8	8	8	8	6	2	0	0	0	4	8	7	5	9	8	7	8	4	0	4	7	3	4	2	1	4	5	4	0	4	7	7	5	1	1	4	2	3	0	4	4	1	4	3	3	2	3	4	4	4	4	4	1	0	2	7	7	4	8	7	4	10	11	8	2	4	5	7	8	11	9	5	5	7	7	5	5	7	6	2	5	5	10	10	5	6	5	7	9	5	4	
17	5	12	22	21	12	10	26	27	11	4	8	18	35	39	14	8	11	9	10	10	12	17	8	6	3	4	14	12	2	2	10	5	4	5	14	22	15	8	3	10	25	26	10	9	12	5	4	7	1	12	10	7	1	3	4	11	8	2	11	15	2	18	24	16	12	13	4	15	10	1	4	7	8	4	20	29	16	17	4	7	8	9	5	11	15	4	21	15	7	10	12	10	17	13	7	11	14	10	12	16	18	17	8	8	22	24	18	21	21	17	15	15	13	11	8	12	10	7	2	14	18	18	29	20	31	48	25	16	22	7	13	13	14	60	55	30	61	35	7	6	6	37	67	24	37	18	26	45	51	131	62	33	46	43	6	20	12	18	22	35	10	11	8	8	12	9	4	5	17	37	30	14	42	33	10	8	11	8	7	4	3	4	2	2	6	8	24	24	24	16	5	7	4	4	4	5	8	23	25	29	18	19	30	20	11	3	2	0	5	5	6	8	4	7	5	2	4	2	4	4	1	5	4	7	11	8	5	6	3	2	4	3	2	3	0	2	0	4	7	8	11	7	7	7	5	3	3	3	2	1	0	3	7	5	3	4	4	4	6	4	4	3	1	3	6	1	3	4	4	3	1	0	0	3	4	3	3	3	4	4	4	7	7	6	7	7	2	3	4	4	4	4	3	7	0	4	1	4	4	3	3	1	1	3	4	4	3	0	4	7	2	7	3	11	27	7	69	115	124	119	110	102	94	66	127	123	35	7	7	12	29	20	16	71	135	163	119	43	7	12	2	5	12	12	8	4	4	5	8	14	11	6	15	22	17	5	17	24	21	13	15	51	90	78	4	53	65	41	23	100	150	124	41	16	16	2	5	4	4	2	2	5	5	9	5	3	7	7	3	10	3	11	7	5	0	4	4	4	1	2	6	7	4	2	3	4	4	2	4	6	5	3	4	4	4	4	2	4	4	4	4	4	5	10	10	11	8	7	5	4	4	2	4	2	5	8	4	2	2	3	4	7	9	5	3	4	2	6	5	7	6	2	4	7	7	5	4	3	1	1	3	4	4	1	0	1	4	4	4	3	3	3	3	3	0	2	5	3	3	3	2	2	5	4	2	6	5	2	0	1	3	5	7	5	1	3	0	4	7	6	2	3	4	1	0	1	4	7	8	7	5	8	11	7	4	1	0	4	5	3	5	4	1	3	4	4	4	5	7	11	11	9	7	6	7	8	8	7	5	4	4	4	5	4	4	4	4	4	4	3	0	0	0	4	7	5	10	12	11	9	9	4	4	3	7	6	5	3	2	4	7	4	3	4	4	3	1	3	3	7	2	3	1	3	4	4	4	2	3	2	5	5	1	4	3	4	4	4	4	0	4	7	10	8	10	11	13	11	4	4	2	1	3	7	8	7	7	4	2	4	9	13	13	10	7	8	7	9	8	7	5	7	5	1	1	
11	14	13	14	22	18	7	19	28	14	5	7	15	38	35	10	14	12	7	8	4	7	8	9	9	8	6	17	12	5	6	5	3	1	4	18	26	14	7	4	15	25	19	9	11	8	5	4	7	7	8	10	2	1	4	5	7	5	5	11	11	8	22	27	18	9	10	3	14	11	1	4	8	7	8	15	23	17	13	8	13	5	8	7	12	16	1	20	18	10	8	4	14	20	10	4	12	18	16	16	15	13	14	12	1	16	17	10	11	13	15	11	10	12	10	7	8	7	1	3	10	18	21	27	22	8	38	38	21	20	5	8	15	2	41	61	29	53	38	10	10	4	19	51	36	35	21	20	40	44	128	69	24	49	50	15	23	12	12	24	32	9	11	11	5	16	13	6	4	19	37	27	12	41	35	11	7	9	7	5	4	4	4	2	5	7	13	39	27	31	31	5	8	0	0	1	4	2	15	26	33	17	23	34	21	8	1	1	2	2	3	3	4	2	6	6	2	5	3	5	3	5	11	8	21	19	24	15	3	3	4	5	4	2	2	4	4	5	7	7	5	9	3	5	7	7	7	7	7	5	1	0	1	5	7	5	4	6	7	3	2	5	6	5	2	5	6	5	2	2	3	1	1	3	4	5	5	6	5	3	1	1	5	5	7	7	5	1	1	3	5	7	7	5	8	2	3	2	5	5	4	4	3	3	5	6	4	1	0	4	7	2	7	4	3	14	17	14	46	84	109	117	120	133	142	138	91	17	17	11	7	10	21	26	18	31	113	170	150	79	27	11	11	5	11	11	10	7	2	2	6	8	5	10	18	20	16	4	11	18	12	9	7	60	98	52	18	40	56	54	17	74	144	126	38	19	14	4	6	1	2	2	2	5	9	7	1	5	5	3	5	5	5	3	0	4	4	2	4	4	4	8	9	8	1	3	2	1	0	3	4	3	4	6	2	4	6	5	3	3	1	3	3	2	4	7	8	5	4	3	1	3	3	2	1	0	5	8	5	4	4	4	4	9	8	8	10	6	7	7	4	4	3	7	7	4	3	1	2	1	3	5	5	2	0	0	1	3	4	3	1	1	4	3	3	0	2	2	5	2	4	3	4	6	4	4	4	4	3	0	0	0	2	5	5	3	1	4	5	6	5	3	2	4	2	1	4	5	7	11	9	5	7	8	4	4	4	3	5	3	5	8	7	5	4	3	2	6	8	8	10	10	10	9	8	8	9	10	8	5	4	4	4	4	1	0	0	0	0	4	4	0	0	0	3	5	7	8	8	8	5	5	3	7	2	4	3	3	2	4	4	6	4	4	3	0	0	1	4	2	5	6	1	4	4	7	7	4	4	3	4	5	7	4	4	1	2	1	3	5	4	1	4	8	10	9	8	10	8	2	3	3	4	3	4	5	7	7	4	2	5	9	7	7	8	10	10	6	9	11	9	5	4	2	3	4	
2	19	20	8	18	19	6	19	32	14	11	3	13	42	48	21	10	8	4	10	6	4	7	5	10	8	11	17	9	4	4	2	1	1	4	18	25	15	8	9	21	20	9	8	4	2	9	13	12	8	5	10	3	3	2	2	9	12	9	11	4	13	26	24	9	3	11	8	8	13	7	3	8	5	8	13	15	9	8	11	20	7	8	8	11	15	4	16	19	12	8	9	19	17	4	5	10	18	20	14	11	7	6	13	5	11	13	8	8	9	13	10	5	7	3	7	7	7	5	0	7	7	14	23	25	10	18	28	14	14	7	8	14	14	12	43	42	49	38	11	17	9	12	30	29	38	27	11	29	25	107	77	28	58	53	17	23	15	12	28	29	10	8	11	2	13	19	12	6	20	36	28	9	38	34	15	1	5	7	7	6	4	2	4	7	5	19	50	27	37	41	3	11	1	0	0	1	3	8	27	37	14	24	32	16	3	0	0	0	0	0	0	1	3	2	4	4	7	3	6	3	8	14	10	39	32	39	37	5	6	3	4	1	4	4	6	7	5	5	3	8	11	3	7	6	3	4	7	7	7	4	4	4	4	5	6	3	5	6	5	4	4	4	8	4	2	4	3	1	2	2	3	4	4	4	5	4	4	3	0	0	1	4	0	4	4	3	1	3	4	4	5	6	7	9	8	2	2	7	4	0	4	3	4	7	3	4	3	1	3	5	3	5	4	3	5	4	9	7	2	20	43	60	80	94	79	32	5	10	10	5	4	12	21	32	35	5	71	143	151	122	92	62	21	10	13	15	15	10	5	5	7	9	9	3	7	15	18	8	7	13	13	9	26	83	90	35	14	37	50	50	19	68	149	119	24	17	7	4	4	1	2	6	6	5	7	6	3	2	4	3	0	2	1	3	4	0	3	4	6	4	4	4	10	3	3	1	3	3	2	4	4	7	4	2	4	4	5	4	4	3	2	2	2	3	4	4	1	1	3	5	6	3	1	1	2	1	5	7	4	1	3	3	4	7	9	11	10	5	7	1	4	2	8	7	3	4	3	0	2	4	7	2	3	0	0	2	0	2	0	0	1	4	6	4	1	2	5	4	3	3	1	4	4	3	3	1	4	4	1	3	4	4	3	7	3	4	4	3	0	6	5	4	5	3	3	4	4	1	7	8	6	5	7	3	4	6	5	6	4	9	11	10	9	7	4	2	5	7	5	7	4	3	4	5	7	7	5	4	3	2	3	3	1	0	0	0	0	0	3	4	1	0	0	1	3	4	5	3	7	0	4	3	7	4	5	3	2	3	4	3	3	1	2	1	0	1	4	4	1	4	7	3	7	4	4	4	4	4	2	1	4	5	3	4	4	5	6	5	5	5	4	5	6	5	1	4	7	5	3	1	3	4	4	4	4	5	7	8	1	8	7	2	3	2	5	3	1	3	8	11	7	1	4	4	2	
5	20	26	9	19	25	7	27	36	8	15	2	11	27	44	22	4	6	2	7	8	3	4	8	9	4	10	12	8	4	0	2	1	4	5	14	23	19	11	11	21	16	4	1	4	2	15	19	12	11	9	11	8	2	3	12	13	15	12	10	4	19	25	17	2	7	5	10	4	9	7	4	10	11	5	16	15	4	5	14	27	5	11	8	9	12	7	12	17	12	4	14	18	7	2	7	10	10	15	8	4	4	7	14	9	5	7	9	12	7	6	12	11	9	4	9	7	2	5	7	8	3	6	19	22	14	10	18	7	11	7	8	11	13	3	17	26	32	26	10	18	17	15	17	15	27	19	12	29	21	106	86	25	65	41	6	16	9	6	31	26	9	7	6	9	18	21	13	3	19	37	32	8	34	31	21	6	2	4	4	3	2	3	4	5	4	23	54	25	38	43	4	10	5	1	0	0	1	9	27	37	16	22	38	32	15	3	4	4	4	3	2	2	1	1	3	4	5	2	5	5	12	14	11	53	49	40	57	22	3	5	4	0	4	8	8	11	10	6	4	10	12	3	6	5	5	3	5	8	6	1	3	4	4	7	7	4	5	3	4	4	7	4	7	9	5	1	1	4	7	7	7	7	4	2	4	4	5	3	3	3	3	2	5	5	4	3	2	4	4	3	3	2	4	3	8	7	4	7	4	4	4	1	4	8	4	5	5	4	2	4	4	3	5	4	5	4	6	13	22	24	17	7	4	10	2	12	10	2	5	4	4	8	14	17	27	41	27	35	89	130	147	141	86	27	6	19	28	28	14	4	7	6	5	7	4	4	14	14	3	14	14	10	4	31	79	76	40	38	31	25	44	18	79	144	105	31	4	6	2	1	5	7	7	4	2	3	4	2	3	4	4	4	2	4	3	3	4	3	4	4	4	1	8	4	1	3	5	6	4	1	0	5	4	4	1	1	4	4	4	4	5	0	5	4	3	1	0	0	3	4	4	4	4	6	5	4	4	5	4	4	3	3	1	3	4	7	8	1	4	4	2	4	8	4	1	4	5	6	5	5	8	3	3	0	0	1	2	1	0	0	3	5	7	7	5	4	4	2	4	1	3	3	2	3	1	0	4	4	3	5	6	4	3	7	3	5	3	0	2	5	6	4	4	0	3	4	5	6	5	3	6	6	3	4	4	3	7	7	7	11	9	6	7	7	5	4	5	2	2	6	4	3	1	2	3	2	1	0	0	1	3	4	3	1	1	3	4	4	4	5	4	4	4	3	1	3	5	4	8	3	4	4	8	9	6	4	6	2	3	1	4	3	3	0	1	5	7	5	3	4	5	6	7	4	3	1	3	4	1	0	3	4	7	8	8	7	6	7	8	8	7	5	4	7	4	3	5	4	1	0	2	5	4	3	2	2	4	10	1	8	4	2	1	4	3	4	4	3	2	7	9	6	5	10	8	
7	21	33	8	30	26	7	37	39	11	18	2	8	29	46	21	3	4	0	4	8	7	4	11	8	3	7	9	8	5	3	5	6	4	4	9	17	17	6	10	19	15	8	9	3	10	17	17	10	12	16	17	14	5	11	15	9	10	7	2	6	24	27	11	4	7	4	8	12	17	17	14	15	15	8	19	15	1	7	16	30	5	11	7	7	11	6	8	17	14	7	27	24	14	5	7	17	8	13	11	6	5	4	13	11	4	1	8	8	8	4	12	16	11	5	11	11	6	6	7	11	4	7	15	17	11	3	12	4	5	9	11	13	14	11	11	12	17	17	8	14	21	22	13	15	14	14	10	34	19	127	117	48	87	33	3	12	8	6	33	21	5	1	9	26	36	28	11	6	18	41	37	14	37	28	19	9	5	7	5	5	4	5	5	5	3	24	51	24	32	41	12	7	9	5	4	5	8	14	27	39	30	3	28	41	35	13	3	4	4	4	4	4	4	3	2	2	4	4	7	10	16	3	30	63	52	25	59	41	8	6	4	1	5	10	10	8	10	7	2	9	11	4	2	4	7	7	4	11	8	2	3	0	1	5	7	1	3	4	5	4	7	6	2	8	6	3	5	7	8	8	7	5	4	3	1	4	7	4	5	6	7	8	10	8	4	2	3	5	7	7	6	6	4	2	6	9	8	7	6	4	1	1	4	7	7	3	5	5	4	4	5	3	6	4	7	7	5	7	8	11	11	10	12	16	14	11	5	3	3	4	4	9	5	4	8	18	29	30	13	21	61	128	139	113	75	38	7	21	29	22	12	2	3	5	6	1	9	14	10	7	12	9	8	3	38	69	63	41	20	2	19	45	29	64	121	96	33	4	5	5	8	5	4	3	0	0	3	4	2	3	2	3	5	4	2	3	4	1	1	4	4	2	4	4	2	4	5	1	5	4	4	5	4	1	0	0	1	3	3	4	5	3	5	4	0	0	0	0	3	4	2	4	6	6	7	7	5	4	6	7	4	0	3	3	1	7	8	1	1	2	2	7	5	1	0	1	4	6	4	4	7	6	4	1	0	0	0	0	0	1	5	7	3	4	4	3	1	3	4	3	4	4	6	5	4	1	3	4	5	7	2	4	4	3	5	5	3	3	0	4	5	4	5	6	5	3	1	0	1	4	7	7	5	7	8	5	7	7	5	7	4	1	1	3	3	2	2	4	5	0	7	9	7	1	4	2	0	0	1	5	7	8	7	5	4	5	6	4	2	4	7	7	5	4	4	5	7	4	8	4	4	4	4	4	2	4	6	2	3	2	3	2	4	3	4	5	4	3	4	4	3	3	3	3	3	4	5	7	5	3	2	4	8	8	8	6	3	3	5	5	4	4	1	4	7	6	1	4	4	3	3	1	5	3	2	3	5	8	7	8	2	0	1	3	2	2	1	1	4	2	9	12	7	3	8	
4	20	34	9	31	17	16	47	39	11	22	5	12	36	41	15	8	7	1	5	9	10	6	13	8	4	5	7	8	6	2	1	4	7	7	10	18	15	5	16	17	13	7	9	12	15	15	14	11	5	10	15	17	13	12	10	3	8	11	12	11	23	25	8	11	7	5	11	20	22	20	15	20	15	13	18	10	5	7	14	26	11	8	4	5	13	10	5	15	16	15	34	22	25	18	13	23	7	12	8	8	11	7	8	11	4	4	5	4	4	3	12	20	10	3	11	14	7	7	10	14	8	3	10	15	12	4	10	9	9	15	11	9	16	11	8	9	17	15	8	7	21	28	20	14	5	12	5	34	4	133	136	35	92	38	8	13	16	17	39	21	9	8	11	22	15	4	7	7	21	49	40	21	48	29	11	7	13	12	7	2	2	3	5	7	4	22	45	24	26	40	17	5	9	8	8	9	11	14	24	37	41	17	8	24	38	27	8	1	1	3	3	2	3	2	0	4	5	4	5	9	10	21	59	69	39	17	47	51	26	7	2	5	8	8	9	6	1	7	7	8	7	4	1	4	8	7	1	10	10	3	3	0	1	4	7	3	3	5	5	3	4	5	7	9	5	4	7	5	4	4	3	1	3	4	4	4	7	4	5	5	7	8	7	5	4	5	6	7	8	5	5	8	5	7	6	9	11	8	7	5	2	4	5	5	7	3	4	5	6	5	5	6	7	5	7	8	7	5	3	0	0	0	1	5	6	2	5	7	4	3	3	8	8	7	2	8	20	36	61	82	59	32	83	117	130	125	108	70	21	21	31	21	7	4	8	7	3	12	13	6	5	10	8	3	11	32	46	29	8	8	12	31	55	36	49	97	70	18	8	8	4	2	3	4	0	0	1	4	4	4	4	0	5	7	5	3	4	4	4	4	3	0	1	4	4	2	3	5	1	2	1	3	4	4	3	1	1	4	3	5	4	2	3	4	1	0	0	0	1	4	2	1	2	4	4	4	7	2	2	2	4	3	3	4	3	5	8	2	3	4	5	7	3	0	0	0	2	0	4	4	3	3	4	3	1	3	3	1	0	3	6	4	3	5	4	4	4	2	3	7	8	7	4	4	4	4	1	5	8	8	3	8	5	3	4	2	3	3	0	4	4	1	3	4	4	4	4	4	4	5	7	8	12	16	15	12	10	8	8	7	1	4	8	10	8	7	8	2	11	20	23	23	21	14	12	11	8	5	4	7	7	6	7	5	3	4	2	6	1	4	6	5	4	1	3	7	5	3	7	4	4	3	3	5	5	4	2	2	1	1	4	6	7	7	6	1	4	4	4	4	2	1	1	4	3	6	8	9	10	8	5	5	7	4	3	3	2	0	3	4	4	5	0	2	6	7	5	5	7	4	2	3	4	4	6	4	6	5	10	5	3	0	2	2	4	3	1	6	3	5	7	14	15	14	12	
3	22	28	8	25	12	22	51	32	9	19	13	20	33	29	11	7	11	5	4	11	11	3	14	7	3	5	7	7	3	6	9	10	8	5	7	17	10	12	21	14	5	8	5	7	18	21	16	11	5	7	16	17	14	11	9	1	11	17	15	18	17	16	11	13	9	7	14	17	10	3	6	18	10	10	11	5	4	6	10	20	10	2	3	4	11	11	8	10	9	20	24	15	14	25	26	27	10	13	8	5	5	12	5	12	8	5	1	3	4	7	12	24	14	8	11	11	9	5	9	12	4	5	10	19	14	4	7	14	19	8	7	5	19	12	1	6	17	11	4	2	11	24	23	10	3	9	4	27	14	114	125	45	75	35	21	15	22	33	50	22	7	6	6	31	60	70	48	19	29	53	34	25	51	28	11	12	21	25	22	11	2	6	3	4	5	16	41	25	25	41	17	2	5	4	4	4	3	4	14	37	47	16	16	25	26	24	12	4	4	4	4	4	3	5	0	6	3	3	3	10	8	33	74	63	27	23	34	42	38	27	14	12	13	10	5	4	6	8	10	5	1	5	5	5	7	5	1	7	11	5	1	0	3	5	5	2	3	5	7	8	8	8	7	5	1	4	8	5	3	3	1	0	1	3	4	4	6	4	7	6	7	7	5	5	4	4	5	7	5	1	4	8	2	4	1	5	8	7	7	8	8	7	5	5	5	3	2	5	5	4	4	7	7	5	4	4	5	6	5	3	1	1	3	5	6	7	6	4	4	1	2	5	4	7	8	10	13	36	68	87	90	44	12	33	69	112	147	159	138	84	20	19	29	19	4	7	5	4	7	8	4	9	10	3	4	10	28	43	33	24	39	48	48	68	60	69	65	27	12	5	2	4	1	4	0	0	0	2	1	3	4	2	3	5	7	8	8	8	7	4	1	0	0	1	2	2	4	4	4	3	4	5	7	7	5	3	3	4	3	7	4	1	1	4	3	0	0	0	0	3	4	4	4	7	7	4	7	2	0	2	2	4	4	5	5	5	8	3	4	5	7	5	2	3	3	1	1	2	2	4	4	3	4	4	5	7	7	5	2	4	4	3	3	3	3	3	3	4	7	8	10	7	4	4	2	5	7	3	10	8	6	7	1	6	4	3	4	1	0	3	4	4	4	4	4	4	4	4	4	4	6	5	10	13	9	8	9	7	7	10	14	14	11	7	5	7	9	25	43	47	40	32	30	19	14	15	15	12	7	4	6	1	5	5	1	3	2	7	0	7	2	7	6	1	5	4	0	4	4	3	3	1	4	7	5	3	1	1	2	2	5	7	7	5	4	3	1	3	3	3	1	4	4	4	6	5	6	6	7	8	7	7	5	1	3	4	0	2	0	3	2	3	6	5	4	5	5	7	5	1	4	4	1	4	2	7	5	3	4	3	3	0	1	2	1	4	5	7	3	7	3	5	12	15	15	
7	28	22	7	21	10	23	50	26	18	19	17	26	31	24	11	4	11	10	2	12	10	8	13	3	3	5	8	6	2	4	2	2	4	4	7	16	12	14	17	5	4	2	10	6	8	23	23	14	7	5	15	15	10	11	12	4	9	20	18	7	10	5	10	12	13	10	8	7	9	14	15	15	4	8	6	4	0	6	7	18	11	2	5	3	7	12	11	1	15	14	5	19	9	19	31	30	16	17	16	14	7	7	5	12	13	8	9	9	7	8	8	21	15	18	20	14	5	6	12	10	5	8	11	22	12	4	3	15	26	8	7	4	18	11	5	9	19	11	4	1	3	12	20	15	8	10	7	21	10	84	99	50	56	27	27	25	18	39	58	32	17	4	28	56	86	89	82	43	34	44	19	29	41	22	11	15	33	38	42	32	13	7	7	4	3	10	41	29	28	46	15	7	5	2	1	4	8	11	19	45	50	10	29	27	21	17	12	8	5	3	3	4	4	6	2	4	2	1	3	14	17	37	93	70	13	29	33	24	28	44	45	33	16	12	7	1	1	5	9	5	4	5	7	7	5	4	4	5	10	7	3	1	4	7	3	2	4	5	8	11	11	8	5	4	4	5	8	7	4	4	3	0	0	0	0	4	4	7	8	8	8	7	5	5	4	1	2	4	2	0	4	7	3	2	4	3	5	4	5	8	10	9	6	4	4	2	4	3	7	4	3	4	3	1	0	0	2	2	1	2	2	4	4	3	3	7	7	6	4	1	2	3	3	5	9	19	27	49	57	13	68	38	14	14	2	20	48	92	145	168	140	76	15	17	24	21	13	7	5	7	6	2	8	11	5	1	10	39	62	49	62	80	72	73	72	61	42	16	10	6	4	4	2	4	4	4	4	5	6	5	3	1	0	1	3	4	5	5	4	3	0	0	0	0	0	3	4	5	7	5	7	7	5	4	7	4	5	5	5	8	5	4	4	5	4	2	2	2	3	3	1	1	3	6	6	2	4	7	7	5	4	4	4	5	5	7	8	4	4	5	7	5	4	4	4	3	1	3	3	2	4	7	8	9	10	9	8	9	5	4	1	0	0	1	4	4	5	8	7	3	4	6	6	4	3	4	10	4	9	5	1	4	5	3	4	4	3	0	0	1	4	6	5	4	4	4	4	5	7	7	7	7	5	4	2	2	8	6	4	11	18	33	46	59	67	64	55	48	45	27	19	16	21	12	5	4	4	5	5	3	4	3	3	8	5	2	1	4	2	7	0	8	5	2	4	3	4	4	1	0	0	0	4	8	7	2	3	2	0	5	7	4	0	3	4	3	0	1	3	4	3	3	0	2	6	7	2	3	4	5	3	3	2	3	5	7	5	4	4	4	5	7	8	6	1	5	3	5	2	0	4	4	0	3	4	10	3	6	4	5	2	0	0	2	4	2	4	1	2	4	7	4	0	3	4	
25	31	20	6	19	11	21	46	21	20	17	11	26	33	22	8	4	12	11	4	11	5	8	7	2	2	3	11	8	2	4	5	6	5	4	5	12	14	11	11	5	0	4	0	7	7	21	32	23	8	4	12	14	10	10	11	8	7	23	26	13	8	5	17	14	15	12	2	8	8	7	8	8	3	9	5	4	2	5	10	15	11	1	5	6	6	7	7	13	17	6	6	14	20	5	26	27	11	15	13	14	13	3	2	13	16	9	11	10	15	12	9	18	4	15	15	11	7	3	14	15	1	10	14	18	7	7	8	14	27	9	5	5	11	11	10	9	17	14	8	3	3	17	28	21	11	8	5	15	9	57	75	34	43	31	28	22	8	28	54	46	38	10	51	75	63	47	80	53	19	28	18	33	34	18	5	19	43	28	37	43	25	11	11	12	5	10	46	36	35	54	15	8	7	3	2	3	5	12	19	33	42	24	33	28	15	11	10	10	2	4	3	2	4	4	2	2	7	9	7	12	16	38	97	72	3	29	36	17	14	27	53	63	32	5	17	12	8	3	9	8	7	6	7	7	4	3	4	4	8	7	5	4	5	9	3	5	4	4	4	3	4	5	4	5	7	8	9	5	1	4	4	0	0	0	1	4	7	8	5	4	4	4	4	4	4	4	3	3	3	2	4	5	7	4	2	2	3	1	3	4	4	4	4	3	4	4	4	3	7	4	5	5	3	1	1	2	0	3	4	3	1	4	1	4	4	4	4	6	4	3	1	3	3	3	2	8	19	52	75	69	66	27	4	5	5	20	26	17	28	94	149	161	133	92	49	16	13	18	17	15	19	22	15	2	10	7	4	13	54	98	103	67	57	56	39	27	18	4	2	4	3	3	2	4	7	8	8	7	5	4	4	4	4	4	4	3	3	4	3	4	3	1	1	3	3	2	4	7	7	5	4	4	3	3	7	5	7	5	4	7	5	4	5	7	4	6	2	6	4	5	7	8	7	3	2	2	2	3	4	4	4	4	4	4	3	5	8	2	5	7	5	4	3	0	4	3	3	4	4	2	4	5	7	8	7	4	5	7	2	2	3	4	4	4	5	7	8	7	1	3	4	5	5	4	2	1	7	6	7	3	1	3	4	2	2	3	0	2	1	1	4	4	4	1	0	0	1	4	4	5	7	5	1	6	7	3	8	10	4	17	25	19	33	56	66	63	51	20	16	28	35	34	31	19	13	12	11	8	3	1	1	3	2	4	4	4	3	1	2	4	3	8	5	5	6	5	3	1	0	0	0	0	3	7	10	4	3	1	3	5	6	3	4	4	3	2	2	4	4	4	2	3	4	4	7	8	0	4	4	3	3	4	4	4	5	7	6	4	6	8	7	5	4	4	6	7	4	7	3	0	3	4	4	2	4	9	2	5	6	5	4	3	8	12	8	8	1	2	1	2	4	4	4	4	4	
35	25	23	6	17	12	20	43	17	16	8	6	29	36	18	0	7	11	8	4	8	4	10	5	5	3	1	9	10	2	3	3	2	3	4	4	7	8	9	5	3	5	4	7	6	14	7	31	31	9	3	7	15	15	10	10	11	7	18	28	22	15	9	25	14	7	14	9	2	2	5	6	4	7	9	4	2	4	7	10	10	9	3	2	3	1	3	8	20	18	3	12	12	25	17	21	23	5	11	4	12	10	3	4	16	16	4	2	10	22	13	15	21	6	17	8	7	11	4	11	19	10	8	7	8	14	15	14	12	24	10	3	4	3	6	8	11	13	12	12	2	19	42	40	21	10	7	5	13	13	38	56	20	37	24	13	11	10	8	34	46	50	26	63	81	39	19	69	57	9	25	14	17	25	17	6	25	46	20	32	50	32	14	8	13	8	16	55	41	44	60	18	7	7	3	4	7	8	13	10	20	41	30	26	27	19	14	10	7	1	5	2	0	4	1	3	5	10	3	8	16	30	57	86	54	5	21	33	23	11	18	31	72	51	20	31	25	25	10	4	7	7	5	5	6	5	3	3	4	6	4	3	4	7	13	7	8	8	6	4	1	4	3	2	4	4	5	7	3	2	4	3	0	0	0	3	4	6	4	1	1	3	3	4	4	5	7	7	4	3	0	2	6	8	8	4	3	1	1	3	3	1	0	1	2	4	3	2	4	4	4	8	8	7	4	2	0	2	0	1	2	2	4	1	3	3	5	5	1	4	3	1	3	4	5	7	10	11	17	36	41	29	7	3	9	8	4	16	28	36	20	34	93	134	156	154	125	84	49	18	11	24	31	35	28	15	8	3	9	19	82	146	125	46	16	27	7	5	1	4	5	3	1	0	3	4	4	4	3	2	3	5	8	10	9	7	5	3	3	2	6	7	5	2	5	5	4	3	5	5	4	1	3	4	4	7	7	7	1	4	4	4	3	1	4	1	7	4	8	5	4	5	6	5	3	0	4	4	3	5	3	1	1	3	3	1	4	7	3	8	7	5	3	1	3	4	0	4	3	3	3	4	1	1	2	0	5	8	5	1	3	4	4	4	4	4	5	7	4	3	1	3	5	4	4	2	4	5	2	3	4	7	7	3	2	4	1	3	3	4	4	4	2	4	3	0	0	3	4	1	2	3	3	4	4	7	7	7	10	2	14	26	28	35	44	37	29	34	38	37	38	29	22	15	4	7	4	1	3	4	4	3	1	2	1	2	6	5	3	2	4	7	8	2	1	2	4	2	1	1	3	3	1	1	4	10	10	6	4	4	4	2	1	2	4	3	5	5	10	15	24	27	16	6	5	7	6	2	4	3	2	4	4	3	1	0	1	4	4	4	4	2	1	1	3	7	8	6	8	5	3	2	3	4	4	4	7	7	6	9	6	16	35	57	60	45	18	1	2	5	4	6	3	0	3	4	
29	17	24	7	18	14	19	41	17	10	7	14	33	30	13	11	13	9	4	4	4	5	8	5	7	6	3	8	8	4	1	0	3	5	7	7	7	5	7	7	4	5	4	7	4	11	23	35	26	5	5	3	17	22	13	11	11	5	14	30	28	16	8	26	17	11	17	11	7	4	6	3	6	7	5	4	4	7	8	3	4	9	4	7	8	5	7	11	24	22	2	19	11	21	16	15	17	4	8	10	14	2	8	12	20	16	5	11	16	21	10	20	27	5	24	9	12	13	4	8	20	19	7	8	15	20	17	14	8	23	11	5	5	6	7	2	14	12	13	16	2	36	49	27	18	5	7	8	14	15	26	40	17	26	13	1	4	7	5	17	35	47	41	60	64	26	19	62	64	10	21	16	23	38	34	11	23	48	29	26	58	37	7	5	16	20	25	57	39	44	64	32	8	5	2	4	7	12	16	7	6	29	24	22	31	20	12	7	1	0	5	7	6	7	5	5	7	3	11	18	13	16	45	61	39	7	14	24	25	15	18	8	60	59	26	29	16	28	16	3	6	7	5	1	0	3	1	2	4	6	3	3	6	7	20	14	15	16	6	5	2	4	3	0	4	4	4	7	2	6	4	1	0	0	1	4	3	0	0	0	3	4	4	5	6	5	3	3	3	3	2	4	6	7	8	8	5	2	2	0	5	6	4	2	4	4	1	3	2	1	2	6	4	6	7	4	5	2	0	0	1	2	5	4	5	5	3	3	4	3	4	7	9	11	12	12	12	13	11	2	5	3	4	5	4	8	5	4	8	18	34	29	10	21	58	104	133	143	140	117	86	70	61	31	8	27	21	11	13	15	34	102	140	127	61	11	22	5	10	7	5	4	4	1	3	4	1	0	0	0	0	4	8	8	8	7	7	3	1	3	4	5	7	3	5	3	5	5	7	4	0	2	0	3	4	4	3	3	2	4	3	6	7	4	3	2	5	6	7	3	2	5	3	7	5	6	4	3	4	7	2	3	0	0	1	3	5	7	3	7	5	3	4	4	4	4	5	7	5	5	6	5	4	3	1	3	6	4	3	4	5	5	4	4	3	1	2	4	1	4	7	6	8	3	4	7	10	5	7	3	3	4	7	7	2	4	4	3	3	3	3	1	0	3	4	3	1	3	4	4	5	6	5	3	1	5	5	4	5	7	5	14	27	43	60	67	60	50	41	20	12	4	9	11	8	9	5	4	4	5	6	3	5	10	17	24	24	15	4	5	5	5	0	6	7	4	6	3	4	4	4	4	3	0	0	2	7	5	5	6	5	3	2	5	7	7	10	4	31	64	80	77	49	14	7	7	2	2	5	3	3	2	0	0	1	3	4	5	5	1	3	4	4	4	0	5	8	8	8	5	4	3	0	0	3	4	7	12	11	5	33	71	102	115	103	100	64	48	41	25	1	9	2	3	4	4	
14	17	25	7	21	17	15	37	24	13	14	26	29	17	11	10	7	5	4	5	4	2	4	7	1	4	8	8	5	4	2	0	5	8	7	8	8	2	4	4	3	4	7	4	9	21	36	30	7	7	8	8	8	22	21	14	9	5	9	27	31	17	7	21	13	8	15	8	8	7	7	3	3	1	3	4	5	9	8	9	11	15	10	10	5	14	11	11	25	25	6	19	6	12	7	10	12	5	7	10	5	10	14	15	25	19	15	17	14	13	7	24	30	9	33	12	23	16	7	18	30	22	9	19	18	13	19	18	9	27	14	8	5	4	10	6	11	9	15	20	5	46	48	5	21	3	7	4	10	11	14	25	20	19	14	10	10	3	5	8	19	31	37	42	40	20	8	53	67	39	31	31	24	40	48	22	21	54	43	29	68	46	20	17	18	27	28	45	33	28	51	41	22	9	10	3	4	15	26	30	43	52	41	38	48	36	19	8	1	5	7	8	8	8	7	5	5	4	15	12	1	8	40	54	39	10	11	14	20	22	11	2	37	54	34	28	21	32	15	6	5	6	10	4	4	2	3	4	3	4	4	10	9	14	28	14	23	22	4	8	4	4	3	0	4	4	4	7	2	6	4	4	4	4	4	5	3	1	1	4	7	5	4	4	4	4	4	5	4	1	7	8	5	5	7	8	7	4	2	19	36	37	27	12	9	10	7	7	7	4	0	5	7	5	8	4	4	4	3	4	4	4	7	7	3	3	3	4	3	2	3	5	7	7	8	7	4	4	4	8	5	5	8	9	14	15	9	5	6	2	10	10	12	20	23	23	28	58	96	127	143	162	170	152	106	60	39	24	18	18	15	54	78	113	123	62	11	16	7	10	5	3	3	2	1	4	4	3	1	0	1	7	7	2	2	4	5	4	1	4	4	3	5	3	2	1	3	8	8	4	4	3	4	1	4	4	0	0	1	4	4	4	5	7	3	3	1	2	2	3	4	7	3	5	8	11	10	6	5	8	3	3	0	1	4	4	5	7	2	4	7	3	1	4	5	5	7	5	4	4	4	4	4	4	3	3	5	7	8	8	7	7	7	7	5	4	3	3	1	4	7	7	11	2	4	7	14	5	8	5	5	5	4	7	4	1	4	0	4	1	1	3	3	0	3	4	4	0	3	4	4	4	3	0	1	4	3	1	3	3	3	7	11	12	14	20	22	22	18	6	8	4	5	8	2	5	2	1	3	2	4	2	4	13	28	44	57	54	23	7	5	2	5	5	5	6	5	1	2	2	1	4	3	0	0	1	4	5	4	4	4	4	4	8	7	8	13	23	79	116	95	90	72	16	5	5	3	6	4	2	4	3	0	0	2	3	4	6	5	5	3	2	2	4	3	1	4	2	4	2	4	5	2	2	0	2	4	10	17	8	73	116	116	91	78	105	116	124	110	82	28	7	6	3	5	9	
6	14	17	5	20	15	10	26	24	19	17	27	20	6	4	3	5	7	3	2	4	3	4	8	7	4	10	9	5	4	1	1	6	9	4	6	10	2	5	4	3	4	8	2	22	36	27	12	11	2	6	9	8	13	21	18	9	5	5	23	36	22	5	18	10	4	12	10	5	3	5	4	8	10	7	6	8	4	5	8	9	15	14	5	3	18	13	10	26	27	5	14	4	13	6	10	10	7	4	3	5	14	9	8	21	17	19	19	10	7	5	27	25	20	37	10	31	18	10	27	27	8	17	25	13	4	22	19	10	29	13	5	1	5	3	8	10	2	16	22	14	52	41	3	19	4	6	4	11	9	9	15	16	19	15	7	4	7	5	2	9	14	14	18	26	23	12	41	59	49	23	23	14	41	61	30	28	65	49	24	65	61	44	26	14	32	30	34	20	19	32	42	41	14	18	11	7	16	39	42	36	39	28	34	44	36	32	22	10	8	8	8	7	7	7	6	5	8	21	16	4	7	39	53	39	13	8	8	8	13	13	8	21	39	37	31	38	37	17	19	21	11	7	9	1	2	4	4	1	1	5	7	5	21	28	8	29	22	10	14	10	7	2	0	4	4	3	6	1	3	2	2	4	7	7	5	3	3	4	9	9	5	3	2	1	3	5	8	8	8	9	5	2	5	7	7	4	5	11	42	59	62	64	42	16	5	7	6	7	6	2	1	4	0	7	5	4	6	4	5	8	11	12	8	5	5	3	4	4	4	5	7	6	4	1	3	4	4	2	5	7	8	9	7	10	12	11	7	2	7	8	4	2	4	14	20	14	14	5	36	62	83	100	134	155	155	142	122	104	82	33	28	49	69	121	130	53	10	5	8	10	8	5	4	3	0	3	4	4	2	4	7	5	0	3	3	3	7	4	4	5	3	5	4	2	1	3	6	3	3	6	2	4	4	4	3	0	0	0	1	2	0	4	4	1	1	1	1	3	4	5	7	3	1	4	5	7	7	7	9	7	2	0	2	4	2	3	5	5	3	7	5	2	3	4	0	3	3	4	3	1	0	0	4	3	3	4	4	4	4	4	5	4	4	4	3	4	3	1	3	4	4	10	4	3	5	12	7	8	4	4	4	4	5	3	1	4	2	4	3	3	4	4	4	2	2	4	4	4	4	3	3	5	3	3	2	3	5	6	5	5	3	6	8	8	4	5	7	7	3	8	7	4	6	2	3	2	0	0	0	2	3	5	14	32	35	27	59	43	18	11	7	5	2	2	0	2	2	2	3	1	4	0	3	4	5	7	8	4	2	3	5	7	11	7	9	10	39	109	100	31	102	78	14	7	5	4	8	5	4	4	3	1	3	3	3	4	0	6	5	4	4	4	4	3	0	4	0	4	3	3	8	6	3	3	3	4	7	17	16	101	129	68	21	33	55	93	105	109	107	50	11	8	2	4	11	
2	8	10	8	19	7	12	17	8	7	8	23	14	4	7	9	8	11	10	7	3	6	3	5	5	4	8	9	5	3	3	3	3	8	11	9	7	6	6	7	4	5	6	12	36	37	15	12	15	8	4	4	1	6	18	22	12	6	1	17	37	25	5	19	12	7	12	13	12	10	10	5	7	7	10	13	9	4	4	5	5	11	14	4	8	17	11	4	24	29	4	11	5	17	10	15	11	7	4	1	6	13	11	7	16	5	18	17	15	4	2	24	16	29	36	8	31	22	10	28	21	14	25	23	7	9	22	15	11	24	14	9	13	15	13	11	2	1	16	18	28	55	24	10	12	3	2	5	14	8	8	8	4	6	4	9	7	4	7	11	11	10	5	14	28	28	8	23	36	41	24	18	18	32	65	41	36	69	46	12	41	45	45	35	18	39	35	31	12	20	17	39	62	29	9	15	14	20	48	69	48	28	12	27	43	22	13	23	20	12	7	4	4	5	0	3	7	10	23	28	8	16	43	50	31	15	5	9	1	3	8	10	17	22	21	24	44	47	27	38	50	47	17	8	8	2	3	4	4	2	8	6	29	37	19	7	30	21	17	20	5	7	3	1	4	3	1	7	4	4	4	3	6	4	4	4	4	5	5	9	1	5	4	1	0	1	1	3	7	5	5	1	1	6	7	5	3	4	16	54	61	30	65	66	44	14	2	4	8	7	1	0	3	2	4	4	3	4	4	4	5	7	7	5	7	7	5	7	8	5	5	8	5	3	1	2	0	2	1	1	3	5	5	2	4	5	3	7	4	1	4	7	7	4	6	5	7	11	8	10	15	28	26	22	58	95	113	126	146	163	140	57	22	58	90	142	106	27	7	7	14	14	5	2	3	4	3	1	5	7	5	4	4	3	3	2	3	5	7	3	6	1	6	5	0	2	3	5	7	7	5	1	1	3	3	1	0	0	0	0	0	3	4	1	2	0	3	4	4	5	8	8	4	1	4	4	1	4	5	8	9	5	3	0	4	3	1	4	4	2	5	7	3	6	5	2	3	4	3	4	4	3	1	3	3	3	3	0	0	0	3	3	2	4	3	0	0	1	2	1	5	4	5	5	1	4	8	5	4	4	2	2	4	4	1	3	4	1	4	4	3	4	5	7	4	4	3	6	8	7	5	3	6	2	2	3	5	7	7	4	1	6	8	7	4	1	3	2	4	2	6	5	1	5	7	4	1	0	1	3	4	3	1	11	33	53	39	33	37	17	8	7	4	2	5	6	5	2	4	5	4	4	7	8	8	7	6	8	6	7	8	8	7	7	0	14	11	56	119	58	83	115	56	6	7	7	3	8	8	11	10	6	4	4	4	3	2	2	4	4	2	3	4	3	0	3	4	1	4	4	0	10	8	2	4	3	4	7	11	40	120	120	32	19	10	21	28	27	99	106	45	7	6	4	7	10	
3	7	10	13	18	5	20	19	11	5	7	20	13	7	8	9	5	8	8	8	6	5	0	4	3	3	6	7	6	5	2	3	6	8	7	4	2	7	5	1	2	7	3	17	37	26	3	8	12	10	10	15	17	20	26	32	16	5	10	20	36	21	8	17	11	0	7	7	7	8	17	12	4	4	14	15	5	7	11	11	8	10	15	10	10	12	8	6	22	29	5	8	11	15	7	19	10	4	8	7	1	10	12	4	11	10	21	14	19	11	7	21	12	32	32	11	29	22	5	24	14	11	23	18	8	15	23	9	15	18	5	13	21	19	21	20	8	4	14	10	29	46	17	14	5	2	0	6	10	6	11	5	5	2	7	4	5	3	7	11	14	18	11	12	33	32	11	13	22	38	34	17	16	25	50	32	48	64	36	12	24	16	34	36	30	43	32	21	7	21	9	26	67	46	11	4	10	12	28	62	61	50	37	17	55	35	21	16	24	14	4	4	7	5	4	4	8	8	19	37	25	30	40	38	25	16	1	13	3	2	3	5	13	14	0	8	33	45	21	45	55	72	54	8	10	5	6	10	11	10	10	21	48	38	26	18	23	18	17	24	4	7	5	4	5	3	1	7	6	6	6	3	8	4	0	3	4	7	3	5	6	7	3	1	0	2	0	2	4	1	4	1	3	5	4	5	2	3	11	47	73	33	30	55	52	28	10	4	10	6	1	3	2	3	5	1	2	0	4	7	6	3	2	1	5	5	7	8	11	9	10	11	8	6	3	5	7	7	4	2	3	4	2	5	9	10	7	4	2	4	4	4	5	6	4	0	4	4	3	5	10	20	27	24	16	4	10	21	55	107	165	161	93	33	48	126	126	67	16	12	11	20	15	2	1	2	4	6	3	10	7	5	7	7	4	1	4	3	7	2	4	9	7	0	5	5	2	2	4	2	3	7	8	7	5	3	1	0	0	0	0	3	4	3	2	3	5	4	1	3	7	5	4	2	4	3	1	4	7	8	10	5	4	3	3	4	1	3	4	1	4	8	3	8	7	0	1	3	5	8	5	4	4	1	1	2	4	4	4	4	4	1	2	1	2	1	0	3	2	5	0	3	3	6	7	7	7	7	4	4	2	5	6	5	3	4	4	1	3	4	2	2	5	5	2	4	4	4	4	4	4	2	4	3	4	1	2	2	5	5	4	4	2	3	4	5	7	7	6	5	1	4	6	2	3	2	0	1	5	7	7	5	5	2	11	31	39	29	28	16	5	4	4	4	5	3	5	2	5	5	6	10	10	6	4	3	2	5	7	7	4	1	1	4	4	15	7	61	110	39	107	84	21	4	8	7	1	5	4	7	7	5	3	1	0	1	3	4	3	3	2	0	0	1	4	4	3	2	4	4	2	8	7	4	5	5	7	9	24	80	127	88	8	14	9	24	7	83	130	94	28	3	2	3	5	5	
1	2	7	11	12	9	26	16	1	3	10	16	8	11	14	11	2	3	5	5	3	1	2	3	3	4	6	7	5	4	3	5	3	2	5	5	4	5	7	7	4	8	5	21	40	21	5	8	6	7	14	10	9	16	28	42	18	12	18	20	26	13	8	11	9	4	4	4	4	2	18	18	4	7	13	16	13	8	14	10	5	12	14	11	8	9	12	9	16	28	9	7	7	9	11	19	5	8	10	13	4	8	12	2	8	14	17	7	17	15	10	18	12	34	27	12	30	19	10	18	8	11	20	14	7	18	24	9	15	16	2	17	20	12	19	19	11	10	11	4	21	36	18	0	6	5	4	7	10	10	8	2	8	5	8	4	2	8	10	4	11	20	16	4	26	36	21	13	13	25	34	30	15	37	44	6	45	42	19	13	20	12	26	25	30	29	11	14	12	14	1	20	55	37	25	15	1	6	28	51	39	28	42	12	62	50	25	21	17	12	8	8	5	2	9	8	5	4	14	43	48	38	27	22	23	15	5	11	4	2	3	5	14	16	4	8	23	38	27	48	33	60	80	38	2	8	9	11	14	24	21	31	49	20	37	24	17	19	14	22	4	8	10	7	7	6	5	4	5	5	4	4	7	4	0	4	3	4	4	0	2	4	3	4	1	1	2	0	5	4	5	4	2	4	2	4	7	16	26	34	55	36	20	42	41	36	34	22	5	5	4	4	4	5	1	5	4	4	5	7	4	3	4	3	4	2	2	3	7	5	7	7	4	4	7	8	7	8	7	5	4	3	1	6	1	6	3	0	0	0	0	0	1	3	4	4	5	7	8	5	4	8	8	10	12	14	21	24	32	8	74	152	185	158	71	66	110	107	64	2	22	8	21	12	2	2	4	8	1	8	8	8	8	8	5	2	4	3	5	3	5	7	4	6	4	4	4	3	0	3	7	7	8	7	5	4	4	1	0	0	0	1	4	6	5	1	4	2	1	4	7	4	3	3	4	1	3	4	3	7	10	4	4	4	1	4	4	3	5	5	7	7	2	7	7	2	4	5	7	5	0	5	7	3	4	4	7	7	5	4	4	5	7	8	7	5	1	3	2	3	5	5	3	10	10	4	4	4	2	6	5	5	4	4	4	5	5	3	2	6	7	5	5	5	3	0	2	1	0	3	4	4	3	2	3	4	5	8	10	9	7	5	4	5	7	7	6	7	8	7	5	3	8	2	4	2	1	4	7	4	1	1	4	8	10	11	13	6	14	13	5	4	5	6	20	31	23	9	5	4	5	8	7	5	1	0	0	1	2	1	2	3	2	3	3	11	12	57	82	34	96	49	10	10	10	8	5	5	2	4	7	4	2	3	2	5	7	8	7	4	1	0	0	3	5	4	3	2	4	5	5	3	5	6	5	4	5	7	34	98	107	46	7	4	23	26	43	123	120	50	7	7	3	2	4	1	
3	2	5	7	5	8	22	18	8	7	12	12	3	6	16	10	7	6	1	4	4	4	6	9	8	4	5	7	4	5	6	3	2	3	4	5	4	4	4	3	5	8	5	24	44	19	7	6	3	8	5	5	11	12	22	44	15	19	21	15	13	12	5	9	8	4	2	2	0	4	17	18	4	5	4	11	16	6	13	3	12	16	11	8	5	4	7	7	10	25	14	1	2	4	8	15	6	8	5	15	6	8	11	4	2	8	13	5	11	18	15	17	13	27	17	15	26	12	16	11	4	11	16	14	3	17	21	9	12	16	4	23	17	4	21	18	9	13	12	8	27	35	24	10	5	4	6	7	5	3	1	6	7	2	7	7	1	11	10	3	7	14	18	14	10	23	20	5	5	14	16	17	23	56	44	26	47	22	14	0	19	24	23	17	21	10	13	23	20	7	3	27	44	19	24	31	8	28	50	59	36	15	30	13	55	54	8	9	4	10	5	1	0	4	9	5	3	1	8	47	66	32	11	12	21	14	3	7	7	3	5	10	15	10	9	14	21	34	44	41	16	33	76	58	10	4	4	4	17	38	30	30	36	5	41	21	15	16	11	21	7	14	13	8	7	5	7	1	4	4	1	4	5	4	0	4	4	1	4	4	2	4	4	3	1	3	4	5	8	4	4	4	1	5	2	3	8	33	46	57	51	22	18	30	22	37	43	38	15	2	0	3	2	4	9	7	4	6	7	7	4	4	4	3	4	3	3	3	5	1	4	4	4	11	12	8	1	9	10	5	0	3	3	4	2	5	4	0	0	1	2	1	0	1	2	2	4	7	8	7	4	4	9	8	4	4	10	8	28	35	21	33	93	164	172	109	52	76	85	24	30	17	13	12	8	5	5	8	2	5	4	4	3	7	9	4	0	4	3	4	8	4	4	7	4	1	4	4	0	4	7	4	4	4	3	1	4	4	4	3	1	1	4	5	8	2	4	3	4	4	5	4	1	2	1	0	3	4	2	7	8	5	5	5	4	5	7	4	5	7	8	6	2	5	5	4	5	5	4	0	4	5	4	4	7	4	4	4	4	1	3	4	4	4	5	7	3	1	2	2	4	2	4	10	7	7	9	11	10	7	7	4	2	3	4	5	7	5	3	2	3	4	5	7	5	3	0	1	3	5	7	8	8	8	8	7	4	3	5	3	4	4	3	4	2	3	2	1	2	4	5	4	7	2	4	4	4	4	4	3	4	2	4	7	10	13	8	3	9	12	5	4	6	14	39	43	43	22	4	4	6	7	5	8	5	1	0	0	1	3	5	7	8	6	6	5	31	53	38	44	75	26	13	13	6	0	4	6	1	3	5	3	6	2	6	9	7	6	5	2	2	1	1	4	6	4	4	3	1	2	3	2	6	6	1	2	5	11	42	114	95	16	15	7	28	12	84	144	90	7	17	8	5	4	4	2	
7	7	7	4	2	5	18	18	7	8	11	10	7	11	13	4	7	7	5	3	0	4	7	7	7	3	4	5	4	7	8	7	5	2	3	5	7	9	9	5	4	5	5	27	45	16	7	7	6	2	8	15	17	23	19	36	12	20	11	9	5	15	12	11	8	4	4	5	5	5	14	12	15	21	19	11	10	6	10	8	10	17	10	5	4	3	4	3	8	17	16	7	2	5	8	15	13	8	9	17	5	8	8	8	5	7	13	10	2	14	19	17	6	18	11	17	17	6	10	4	9	7	10	12	4	16	18	8	8	13	8	22	11	12	21	13	6	11	10	20	36	31	11	5	5	1	0	6	3	3	3	6	5	3	5	7	5	12	5	1	3	10	14	18	23	19	12	7	5	13	8	7	15	66	51	28	47	15	9	12	6	24	19	8	15	9	20	5	13	8	3	27	41	18	21	39	20	35	44	38	14	10	20	2	44	46	29	27	15	13	8	5	2	3	12	7	4	1	8	49	70	33	8	14	20	16	8	8	9	8	7	10	14	4	14	17	20	30	34	23	11	27	68	60	17	14	12	9	15	46	35	25	24	17	38	18	19	17	14	25	7	20	18	4	4	4	9	1	4	4	2	5	5	4	3	4	3	0	1	4	2	3	5	1	1	4	5	8	5	5	5	4	0	6	1	6	5	41	61	40	21	7	23	20	8	16	29	39	19	7	16	21	17	10	7	4	2	4	3	3	2	0	2	2	4	3	3	3	4	3	2	5	6	10	7	2	11	12	8	3	3	5	7	6	2	4	4	0	1	4	4	4	4	4	4	4	2	5	7	8	8	5	5	4	2	7	9	2	16	19	44	87	95	43	56	105	107	89	80	42	29	38	33	21	9	2	6	7	5	10	8	5	4	7	8	4	2	4	1	3	7	7	7	5	3	2	3	4	1	3	5	6	5	3	1	0	2	6	7	5	4	4	5	4	8	5	5	5	4	1	4	4	1	3	3	1	1	4	3	4	5	7	9	11	12	11	8	5	4	4	5	4	5	7	8	7	5	4	1	2	4	2	6	8	7	2	1	3	5	4	3	4	1	3	4	6	4	3	2	3	3	7	8	5	2	5	7	8	7	4	4	3	4	4	2	4	5	7	5	4	4	4	3	3	6	4	0	3	5	6	5	4	4	4	4	4	6	4	8	5	1	0	0	3	3	4	1	0	3	4	1	5	5	1	1	3	4	4	2	1	1	4	6	4	7	6	2	4	6	10	5	5	7	18	41	12	35	29	2	6	5	4	3	7	9	5	3	1	3	4	4	5	6	4	7	11	43	41	8	51	43	7	10	7	10	9	7	4	2	5	7	4	6	4	10	10	5	2	6	0	3	4	1	4	6	4	4	5	3	4	5	5	4	4	5	0	10	15	56	130	87	0	11	18	14	55	127	128	49	14	17	5	5	6	5	3	
7	7	4	2	4	5	16	21	8	8	11	11	10	9	7	2	4	5	5	4	4	6	4	4	7	2	5	4	3	3	2	5	6	0	0	2	3	7	7	10	8	8	9	31	43	12	7	2	1	5	8	11	5	14	7	24	14	13	14	14	13	17	17	9	3	3	3	10	5	4	12	2	15	16	17	17	13	11	10	12	1	17	14	7	6	4	3	2	8	10	13	12	8	13	15	17	15	12	16	20	3	9	4	4	7	8	14	14	8	3	17	18	2	14	4	11	10	9	4	9	9	8	10	8	4	16	13	7	7	5	11	17	4	19	19	12	11	14	5	22	28	15	2	7	4	2	1	6	0	4	4	8	4	3	8	5	9	9	1	2	2	4	5	8	16	16	8	5	19	21	9	13	8	62	54	23	46	15	4	13	17	17	15	6	17	15	29	21	17	12	8	22	38	21	24	41	21	22	46	42	17	17	19	10	40	34	27	25	32	22	5	10	11	10	20	9	10	9	14	50	67	38	20	23	21	14	5	5	8	8	8	13	19	5	18	22	7	2	7	7	9	30	68	51	20	31	27	17	10	47	43	27	18	24	36	19	23	23	14	25	4	21	20	5	4	5	12	5	7	7	5	8	8	7	6	4	1	0	1	4	3	11	23	22	11	3	6	8	4	11	7	3	3	4	3	7	7	41	62	43	10	12	22	17	8	5	34	40	12	15	27	29	31	28	14	1	2	3	0	1	4	7	7	5	4	0	4	4	4	4	1	2	1	7	10	12	12	10	6	1	7	9	7	5	4	5	5	4	4	5	5	6	5	3	2	4	4	7	3	7	7	5	9	10	8	9	7	2	13	7	37	74	82	121	122	85	49	42	65	64	35	13	2	4	10	12	13	12	10	8	5	8	11	13	16	18	15	11	11	10	4	3	7	8	7	5	5	7	5	3	1	3	2	1	0	0	2	2	2	3	3	3	4	2	8	4	5	4	1	0	3	4	4	4	4	4	1	1	1	2	5	8	11	11	9	7	5	4	4	5	7	5	4	6	10	11	8	5	4	5	7	5	5	8	7	5	4	4	5	5	2	3	2	4	3	2	3	4	4	2	7	11	10	5	1	0	0	0	5	8	13	16	17	18	14	6	2	5	5	4	5	8	11	10	4	2	2	5	6	2	4	3	3	1	0	3	7	4	5	6	2	0	0	1	2	1	0	0	4	4	3	4	1	1	2	2	4	4	4	4	4	5	5	4	7	4	5	5	1	7	8	7	8	12	35	30	35	26	2	9	5	4	4	5	10	10	8	5	2	4	3	1	1	4	7	11	38	30	38	46	15	4	1	4	7	5	1	1	5	7	8	7	1	4	7	7	3	5	5	3	2	4	1	4	7	4	4	7	5	6	5	4	1	3	5	5	19	9	88	143	61	14	3	24	25	106	132	79	8	18	10	2	2	0	0	1	
3	1	0	3	5	5	13	22	10	10	13	8	4	5	4	4	2	4	3	1	4	10	7	5	5	0	6	1	7	8	5	10	7	3	2	1	4	8	2	5	4	6	1	35	43	10	12	4	3	6	6	8	6	5	4	15	18	6	12	7	10	4	8	7	4	7	5	11	6	4	12	4	17	10	10	7	2	7	3	13	7	14	19	15	11	4	0	3	7	9	13	17	18	17	13	14	11	8	19	20	6	11	4	2	4	7	14	13	8	11	24	21	8	14	2	4	9	10	8	10	10	13	13	7	9	16	7	6	6	4	14	12	11	20	13	4	6	12	4	26	30	18	14	15	9	2	2	6	3	4	6	13	5	12	15	12	16	11	2	2	2	5	7	11	15	5	7	14	19	10	13	11	10	48	52	24	38	13	11	19	21	8	10	14	20	11	22	22	16	11	7	18	30	15	19	43	43	28	63	60	25	15	8	8	33	22	25	30	49	18	26	39	36	35	26	10	30	27	22	48	67	41	19	18	17	9	1	4	8	8	4	11	21	11	10	24	21	20	26	26	13	23	71	48	27	25	35	20	14	43	43	31	17	24	34	17	28	35	20	13	7	17	19	6	2	5	13	7	2	3	4	12	12	9	7	5	1	0	2	4	8	33	50	46	37	9	15	13	8	16	4	5	4	1	5	7	18	49	50	31	14	4	17	21	8	1	37	37	3	20	25	15	23	32	17	4	2	3	3	2	2	3	3	4	3	2	4	4	3	3	3	5	7	10	13	11	8	7	3	6	9	7	3	11	10	7	4	2	4	5	4	4	4	1	1	4	5	3	4	8	4	3	3	7	6	5	2	2	8	10	26	81	91	41	37	93	125	144	162	172	158	139	128	114	89	61	47	39	31	23	19	17	12	13	11	5	3	4	10	13	13	13	13	10	5	4	4	2	2	5	8	9	5	4	1	2	3	1	2	2	0	0	3	2	6	4	7	5	3	2	2	4	7	5	5	7	5	4	5	7	8	8	7	7	4	2	2	0	3	4	4	3	4	2	4	7	5	4	4	4	5	6	7	8	6	7	6	3	4	5	3	2	0	4	3	1	1	1	1	3	10	9	3	5	3	0	1	7	16	24	21	13	5	7	15	14	5	2	5	7	8	10	8	7	5	1	6	6	4	2	5	2	2	2	0	2	5	4	8	7	2	0	1	3	4	3	1	0	3	4	5	5	3	3	0	4	3	3	2	3	7	7	5	5	5	1	4	4	3	4	8	8	10	6	14	22	23	11	5	12	8	8	6	3	4	7	8	7	3	2	4	4	5	8	11	4	25	34	39	27	2	2	3	1	4	7	2	1	7	4	5	7	1	4	7	8	7	4	4	3	3	5	3	4	7	5	5	8	7	4	3	1	0	1	3	4	26	2	114	135	29	18	18	10	76	136	96	21	18	16	4	5	3	4	6	4	
3	4	1	3	6	3	11	22	8	11	13	5	2	3	3	3	2	5	3	4	4	8	8	0	5	4	4	11	21	22	19	19	4	4	2	1	4	7	4	5	4	9	4	42	43	2	15	5	3	8	10	8	2	1	9	18	20	5	12	4	11	7	8	10	5	5	2	11	7	5	11	2	15	7	17	21	19	15	9	18	15	12	18	17	12	4	4	2	4	11	16	23	24	12	7	11	11	13	21	15	2	7	4	5	4	4	14	16	4	13	26	14	12	13	7	4	5	5	10	8	9	18	18	4	14	17	4	4	2	12	22	14	20	22	14	12	14	21	17	24	34	24	8	16	18	7	11	6	4	4	11	18	11	22	16	7	19	20	12	14	12	8	9	7	18	13	15	18	13	2	14	10	13	26	39	31	21	7	17	21	18	19	4	6	11	1	9	9	9	4	0	13	27	21	17	54	63	12	82	71	20	8	5	14	18	22	33	46	57	19	45	47	40	58	38	21	44	27	28	45	66	34	12	14	7	2	5	5	8	7	3	10	20	19	10	9	14	18	16	15	21	10	63	46	21	9	46	18	21	38	35	33	21	21	31	14	15	24	11	2	1	13	17	8	5	1	11	12	9	5	8	17	14	8	2	7	4	2	4	8	22	53	50	45	62	25	17	19	10	21	4	7	7	8	10	3	37	59	36	15	12	5	10	18	13	11	40	35	3	21	22	8	22	34	14	7	15	12	7	6	4	5	3	1	0	1	3	3	1	1	2	5	7	8	8	8	6	3	2	6	8	10	13	14	5	0	3	3	6	4	1	1	4	3	3	4	2	4	7	5	1	3	2	4	2	3	2	5	7	10	4	34	87	126	127	98	62	28	22	71	107	127	143	154	160	155	149	147	142	133	126	123	121	119	114	102	86	74	68	60	51	36	15	5	14	16	16	15	12	8	7	3	5	6	3	5	4	4	4	3	1	4	7	6	0	7	8	7	5	4	4	5	10	8	7	7	7	8	7	7	7	5	4	4	4	5	1	3	2	0	4	2	2	2	2	2	2	4	4	3	3	6	7	7	5	5	4	2	4	6	3	2	4	5	5	4	4	3	4	4	10	11	7	7	5	4	3	16	45	80	105	109	102	81	39	1	12	5	2	4	4	5	2	4	8	1	8	5	1	2	2	4	5	2	1	4	4	2	7	3	3	0	3	4	4	4	3	1	4	6	5	5	4	4	2	2	3	4	4	6	5	6	5	4	3	0	4	4	4	3	4	7	9	9	4	3	4	5	11	12	7	5	4	4	1	4	7	5	9	14	14	9	5	5	9	7	5	15	15	7	2	2	4	4	5	7	1	1	7	5	5	6	3	5	7	7	7	3	4	3	3	3	0	3	5	7	7	8	5	1	1	2	1	1	2	5	27	6	117	131	23	13	21	18	116	128	46	13	21	8	4	5	3	5	3	5	
4	3	2	1	5	7	11	18	7	10	14	5	5	3	3	4	4	5	0	6	4	4	8	7	4	8	7	17	26	19	26	26	5	7	3	3	4	5	2	2	2	6	15	41	34	6	8	10	10	13	13	4	10	11	16	19	14	7	15	4	8	7	8	8	2	7	4	13	8	7	10	5	15	4	19	12	17	15	7	19	14	15	27	18	5	7	12	14	10	4	17	29	29	10	8	12	14	20	24	19	17	17	8	4	2	2	13	20	5	22	25	5	12	10	6	5	11	11	17	13	7	13	21	13	15	16	6	10	12	22	30	17	25	26	14	3	2	6	10	20	27	21	11	12	22	12	9	9	8	7	10	19	10	28	30	9	18	30	20	13	15	12	13	5	10	5	14	14	5	1	10	10	10	9	15	22	13	8	10	13	11	25	8	9	12	9	11	6	2	6	2	4	19	24	24	61	66	47	89	59	8	12	10	10	5	27	21	53	59	14	40	30	21	56	41	22	40	17	13	38	55	23	12	22	25	14	1	7	11	11	8	8	13	14	10	1	3	4	11	19	21	11	56	39	11	13	50	18	25	38	32	34	25	15	29	18	20	24	7	5	5	12	15	8	9	5	6	9	10	9	11	22	12	2	5	8	5	6	9	8	41	62	34	28	63	47	16	20	9	26	6	5	6	9	8	13	57	61	24	4	11	8	5	9	5	14	42	32	7	17	17	7	25	35	5	23	24	24	16	8	4	7	6	5	4	4	3	2	3	3	1	7	7	4	5	6	4	4	5	0	7	11	10	5	2	4	3	3	8	5	2	1	4	4	3	4	3	6	4	2	0	1	2	4	2	6	7	6	7	4	4	5	12	47	89	121	142	155	154	130	94	59	33	3	33	52	60	75	97	113	122	130	130	117	103	93	85	86	96	107	115	118	111	90	71	59	47	33	23	20	19	12	10	6	3	4	4	4	5	4	2	7	7	8	7	7	5	3	5	5	1	4	11	8	2	5	2	1	4	7	6	7	8	3	0	5	9	8	4	3	1	4	3	2	3	2	2	4	4	4	3	2	2	4	4	6	8	3	2	5	7	6	2	1	9	7	3	3	7	3	8	8	7	6	2	0	5	20	69	87	108	128	134	134	104	42	4	9	3	0	1	4	3	4	7	2	7	4	0	0	0	3	2	3	3	4	0	5	7	2	4	4	2	2	3	2	4	2	4	4	3	3	4	4	0	1	2	1	4	8	7	4	4	3	1	0	3	4	4	3	1	3	4	5	8	7	4	5	10	10	5	4	4	5	4	5	7	7	11	13	9	7	0	4	4	6	5	4	4	4	3	3	6	8	7	5	2	3	4	7	3	2	3	1	5	6	4	3	5	3	4	4	5	1	4	7	6	3	4	4	4	4	4	4	3	1	24	4	101	136	38	10	13	44	130	100	11	17	12	4	9	8	7	4	1	3	
7	3	2	4	4	4	5	11	13	12	12	6	4	4	3	2	2	1	5	4	4	3	9	12	10	7	11	23	21	7	27	29	10	8	6	7	5	5	4	4	3	4	27	40	24	5	3	6	10	16	11	10	16	18	27	19	4	10	15	5	5	7	7	4	4	10	6	14	14	13	9	11	16	6	22	8	20	16	8	20	11	17	33	17	2	10	17	21	21	12	8	29	35	16	6	14	19	23	22	17	4	14	11	7	6	4	13	22	12	24	22	2	11	10	10	12	18	13	17	20	7	11	24	20	8	16	7	8	15	25	26	10	23	31	23	15	13	12	10	17	18	16	12	9	19	13	5	6	12	11	4	19	13	15	37	21	15	33	24	4	12	12	11	5	7	1	14	12	4	3	4	6	5	4	3	5	15	12	15	20	8	24	4	4	10	4	7	6	2	8	2	5	2	11	23	59	67	71	76	34	1	10	8	7	8	23	2	47	52	27	34	25	18	47	39	18	31	20	14	31	42	18	4	8	18	22	14	3	7	10	6	8	13	13	8	6	19	22	20	17	8	19	53	34	11	13	49	23	21	44	40	34	24	7	21	25	32	22	24	23	13	12	13	12	15	12	10	18	14	9	12	24	13	5	4	9	8	11	16	10	52	60	20	15	39	51	24	13	8	28	6	12	13	10	2	25	63	50	12	22	25	22	16	11	6	17	41	27	8	17	15	8	29	36	7	38	23	32	28	17	10	12	13	12	5	1	3	7	6	5	3	7	8	4	4	4	7	6	1	5	4	4	3	1	4	1	3	4	7	7	3	4	4	4	0	4	3	4	4	3	1	3	3	2	3	6	6	3	7	4	0	5	13	16	11	15	41	70	101	125	137	141	143	138	129	123	121	112	92	67	49	37	39	57	69	66	53	39	24	12	15	42	89	130	152	158	155	145	132	118	93	59	30	8	3	9	12	12	10	5	0	7	4	4	7	8	7	2	3	4	6	4	13	12	7	8	7	7	7	8	3	10	10	2	2	3	7	8	7	4	3	0	3	3	1	4	4	1	2	2	2	0	2	5	4	8	11	2	2	2	1	2	2	5	7	4	3	3	8	0	8	5	3	3	7	8	1	13	80	108	48	33	43	86	120	81	24	9	4	2	2	5	4	3	5	4	5	3	1	3	4	4	2	4	4	4	4	7	5	2	3	4	2	2	4	2	4	2	2	2	2	3	4	4	3	3	0	3	5	7	6	4	2	3	4	4	4	4	3	1	3	2	3	1	5	7	3	4	10	8	1	3	4	5	7	8	8	5	7	5	6	7	3	3	6	3	4	7	7	5	4	5	7	8	7	6	7	8	4	2	3	4	4	5	9	7	2	2	4	1	7	3	4	5	4	3	3	2	5	5	4	5	7	6	4	3	18	10	84	139	54	11	13	69	125	72	2	11	7	7	11	8	8	6	3	2	
3	5	4	4	4	3	2	3	4	7	9	7	5	5	3	2	3	3	4	3	4	7	9	18	29	30	17	21	19	1	20	31	11	8	11	14	11	6	4	7	4	12	37	39	21	12	6	11	18	22	13	12	12	11	31	33	18	8	13	7	4	7	6	2	7	10	7	12	16	22	11	15	15	7	19	14	19	8	7	16	17	19	32	17	5	17	17	8	15	17	9	22	35	20	9	27	31	18	11	26	27	23	22	14	15	4	9	21	17	14	13	9	7	7	14	19	14	2	14	20	12	21	27	27	2	15	10	8	11	18	18	4	29	43	25	8	4	7	10	24	22	14	5	8	11	10	14	14	8	14	6	14	15	10	30	22	14	28	21	6	12	12	8	5	7	5	10	16	3	4	3	7	9	6	7	11	10	5	12	22	7	20	2	2	10	4	8	7	3	8	4	3	6	8	7	37	45	55	51	22	14	10	7	4	5	17	10	28	38	42	42	34	29	47	41	22	36	31	23	26	31	19	2	4	6	13	14	11	5	12	11	11	17	13	4	21	24	17	11	3	6	20	47	32	12	14	51	27	20	52	50	34	19	5	12	21	31	31	40	40	36	25	17	12	18	18	19	26	15	9	11	26	19	10	1	12	17	15	23	3	52	60	15	13	23	36	23	6	9	28	2	31	30	33	7	27	53	56	60	50	37	24	10	9	12	24	40	21	14	18	13	7	31	38	16	42	14	26	28	24	13	11	8	12	10	5	7	8	3	6	4	4	7	7	4	4	8	4	5	5	0	3	3	0	4	1	3	2	5	8	3	4	5	7	5	0	2	1	4	5	4	4	4	3	5	4	2	3	5	2	3	5	8	12	14	14	16	16	7	10	34	59	79	94	102	103	103	112	125	130	134	134	131	128	116	102	94	92	93	98	106	101	73	34	34	77	113	130	128	109	84	72	43	11	8	11	12	11	7	7	7	11	14	12	8	7	6	4	4	4	7	3	8	13	13	9	7	8	14	13	2	8	11	8	1	5	8	2	7	3	4	4	3	1	1	4	3	2	1	3	5	5	1	5	7	8	9	1	2	4	5	6	5	4	1	6	7	3	6	3	7	3	2	8	10	14	55	91	93	89	52	18	14	40	98	92	39	8	3	6	2	7	4	1	4	4	4	2	4	5	7	7	5	5	5	4	4	5	3	0	0	0	3	4	4	3	1	3	2	4	6	3	4	3	4	5	3	4	6	4	4	7	7	4	5	7	7	5	1	0	3	2	4	3	4	7	4	4	9	8	3	0	1	3	4	5	7	3	5	4	5	5	4	6	4	4	2	4	8	11	11	9	8	7	6	7	8	10	8	4	2	3	4	5	8	3	3	1	4	2	7	7	10	8	4	4	5	5	3	3	2	2	0	2	6	4	16	14	72	140	68	14	39	90	107	47	5	8	5	2	8	5	3	5	7	3	
6	3	4	4	5	4	4	4	4	6	6	3	1	3	7	4	5	5	5	1	4	7	5	21	33	34	25	14	15	4	11	29	13	13	14	15	13	6	5	9	5	18	42	36	10	19	23	24	27	24	18	21	25	10	22	34	23	3	11	7	4	4	0	4	9	13	3	5	13	24	15	15	12	4	12	12	11	2	4	9	13	18	28	16	8	20	17	6	9	8	14	24	29	15	15	35	28	10	14	24	31	27	21	17	22	7	2	11	11	5	4	9	9	3	19	28	12	9	14	10	15	14	31	33	2	12	10	13	18	21	17	6	32	39	15	8	6	11	3	29	34	18	8	11	3	3	16	21	1	12	16	12	3	17	25	14	9	24	19	3	10	13	12	11	14	15	2	17	9	2	5	10	11	12	15	19	15	10	13	19	6	15	4	4	14	10	11	3	9	10	3	3	3	9	8	14	12	31	27	13	18	15	9	2	5	9	2	12	20	23	22	14	16	37	38	23	38	28	17	12	22	23	13	4	6	9	10	9	4	13	15	20	25	14	17	21	12	5	7	5	8	15	36	30	17	22	61	30	28	58	53	33	13	6	12	10	18	26	27	29	41	39	22	8	22	19	26	31	11	12	15	26	27	16	6	15	25	7	30	8	48	67	25	19	33	39	21	8	11	28	13	46	27	50	22	21	36	40	42	34	40	31	19	16	9	24	35	12	20	20	9	3	23	34	22	34	8	15	19	22	15	8	10	13	18	14	9	6	2	5	4	3	5	8	4	4	7	3	4	0	4	4	4	5	8	8	8	5	4	7	4	1	3	5	7	3	0	0	4	7	4	1	3	6	5	2	4	3	5	3	4	3	3	5	0	2	8	15	20	20	19	14	8	7	12	11	4	11	32	49	64	71	64	49	31	21	19	23	29	34	48	76	108	135	141	112	69	62	67	83	100	85	41	12	10	6	0	3	10	13	10	9	11	11	8	4	2	4	7	7	5	4	5	11	14	11	6	6	14	21	13	5	5	8	12	5	8	9	2	2	3	5	5	4	4	4	1	2	3	3	5	7	8	2	7	9	5	1	0	2	5	4	2	2	4	4	5	7	1	3	4	6	5	10	13	32	100	114	106	65	27	10	11	31	82	86	42	5	3	6	3	8	5	4	5	6	4	2	4	4	4	4	4	5	4	2	3	5	3	1	0	0	1	4	6	4	1	3	4	5	7	1	4	3	2	4	3	3	5	7	7	7	11	8	4	4	5	8	5	1	2	5	5	4	3	4	4	3	8	8	4	0	0	0	0	3	7	5	4	2	4	4	5	7	3	4	4	3	5	10	11	7	2	2	0	3	1	4	7	5	7	5	4	5	8	3	5	3	3	5	5	9	10	7	5	7	6	3	2	4	4	7	7	4	4	4	16	24	59	145	102	20	62	91	85	29	8	9	8	3	8	7	4	5	8	4	
7	4	5	5	4	1	6	3	4	6	5	7	7	4	4	3	5	7	7	0	3	5	11	26	20	18	24	16	11	0	7	23	15	15	12	9	11	8	11	15	10	16	43	39	7	26	30	17	13	11	5	11	28	23	8	30	26	5	9	5	8	10	8	1	8	14	8	2	9	18	10	5	5	8	5	2	4	1	1	5	8	8	22	13	7	19	14	6	7	2	10	20	17	7	13	35	22	12	22	6	6	7	3	19	20	8	9	10	6	4	2	9	7	9	28	34	12	18	16	2	16	4	35	32	6	7	4	7	16	23	21	8	26	33	18	10	4	15	0	33	41	9	21	22	20	18	14	17	6	9	15	11	11	15	20	15	17	29	24	7	11	14	20	18	11	18	12	11	15	7	10	11	8	8	11	12	14	13	16	18	14	22	20	17	20	7	17	7	4	2	4	1	8	13	14	4	5	25	18	5	20	18	5	10	14	11	5	6	7	3	5	7	14	26	28	10	28	17	5	3	17	22	18	14	12	10	8	8	5	10	17	21	17	8	25	22	9	6	8	5	12	18	28	18	17	28	73	35	34	59	50	34	12	19	18	7	13	17	9	10	27	45	35	14	20	18	28	39	13	19	20	25	32	23	10	16	31	1	35	12	41	71	43	22	52	46	9	16	11	28	21	54	18	58	42	9	22	9	12	34	55	45	23	25	22	28	34	14	28	29	23	18	23	24	19	21	7	10	19	25	13	17	20	18	22	23	17	8	6	7	5	1	4	8	4	3	5	5	1	5	5	2	2	8	13	8	11	9	4	5	3	3	4	5	7	3	0	0	3	7	5	4	3	4	6	5	0	7	7	4	8	4	4	4	2	2	7	3	5	7	9	14	15	11	7	9	13	11	3	4	4	5	3	7	10	11	14	15	15	16	17	10	20	54	105	139	147	157	157	144	112	63	24	7	5	5	6	10	17	15	7	1	4	5	4	3	2	5	7	7	3	2	4	4	3	7	1	5	6	18	21	18	11	7	16	27	21	4	4	2	1	1	4	7	7	5	4	4	5	4	4	4	8	7	6	4	4	3	2	3	7	5	4	5	6	5	4	7	6	5	5	6	5	10	16	30	120	106	28	31	4	5	4	40	87	82	37	5	2	2	4	8	5	4	4	4	4	0	4	5	4	1	4	6	4	1	4	7	3	4	3	1	1	4	4	4	3	2	5	3	4	3	0	2	3	3	4	2	2	3	3	5	11	11	4	3	2	4	7	4	3	2	2	2	0	1	4	3	7	8	4	0	0	0	1	3	7	7	3	1	3	5	6	4	4	7	4	2	6	4	4	6	2	2	0	2	4	2	4	7	8	8	5	7	9	8	7	5	1	7	4	5	7	4	7	8	5	3	4	7	6	5	4	4	1	7	16	28	27	127	134	18	71	89	75	25	11	12	9	2	7	4	6	8	9	4	
7	9	2	3	1	3	5	0	4	2	3	3	4	4	6	6	7	8	6	0	1	4	15	29	18	7	18	13	4	4	4	16	16	12	10	8	10	9	15	22	21	6	38	45	12	25	30	14	7	7	7	5	19	28	20	22	21	10	10	3	4	5	8	7	6	15	13	5	7	16	9	0	4	7	8	7	7	4	3	5	5	3	17	14	8	15	10	3	4	4	15	19	10	6	7	34	28	8	21	24	26	22	18	18	10	12	21	19	8	4	7	8	5	5	34	30	8	24	17	3	19	7	30	38	23	8	1	4	10	17	22	14	19	25	16	3	4	13	2	27	41	26	36	34	31	31	25	15	12	15	10	15	13	18	25	15	10	36	30	5	9	18	29	23	7	13	17	14	20	16	14	11	4	4	8	8	7	11	17	17	14	20	24	32	25	4	20	8	5	8	10	7	17	14	18	9	12	18	12	10	25	17	6	14	11	7	6	11	8	4	4	4	8	18	25	4	24	20	6	3	9	15	12	7	12	17	16	16	15	4	17	29	13	14	22	19	12	4	10	6	13	26	30	10	17	21	76	48	28	56	47	31	18	27	15	18	16	2	4	10	13	48	47	19	20	19	28	48	19	18	15	27	41	26	13	15	39	10	38	18	38	72	51	5	49	57	24	20	11	26	23	52	12	51	55	8	23	21	24	40	49	35	6	20	16	21	35	17	30	36	28	26	30	21	5	11	10	13	22	34	16	26	21	16	18	27	27	13	7	7	7	3	4	8	4	1	3	4	6	8	6	5	2	12	10	11	16	7	2	5	4	4	4	5	5	1	0	0	1	5	7	8	8	6	3	5	5	6	6	8	11	5	4	3	2	2	4	4	4	4	2	3	0	6	4	3	2	6	6	2	5	8	7	4	4	4	6	9	8	8	9	9	14	17	15	51	73	73	62	48	27	7	5	9	13	12	10	17	21	12	4	8	13	14	12	8	5	7	4	4	5	5	7	10	13	13	9	9	5	5	8	14	18	22	24	38	62	49	13	1	2	3	2	4	4	4	4	4	5	4	3	3	8	7	7	5	1	2	3	2	3	5	3	3	5	5	5	5	6	4	1	2	4	5	18	12	113	131	27	29	15	10	8	51	96	74	21	1	1	2	5	7	3	0	0	0	4	3	4	6	4	5	7	5	3	0	4	7	3	2	4	4	4	4	0	4	2	4	4	4	0	3	4	1	4	2	6	7	5	5	7	3	7	13	8	5	4	3	5	4	3	3	4	4	4	3	2	3	5	6	4	2	3	4	4	4	5	5	5	4	9	13	13	9	8	6	2	2	7	10	7	7	2	4	3	3	2	3	3	4	5	7	4	6	10	8	4	6	2	7	4	2	4	1	7	8	5	2	5	8	4	4	2	4	8	10	2	29	53	104	134	38	79	99	69	27	17	12	5	3	5	2	2	5	6	2	
8	8	2	3	0	3	3	3	3	0	1	5	5	3	7	12	18	17	10	4	1	1	15	27	21	9	15	16	10	2	7	14	14	11	11	11	13	14	17	24	31	19	29	40	16	17	24	17	9	7	7	4	10	25	22	14	9	11	10	7	6	5	10	11	4	13	14	8	4	15	13	5	6	10	12	11	7	3	4	8	5	7	13	9	5	11	8	4	5	6	11	18	11	8	5	34	32	10	19	27	31	31	22	6	6	19	26	26	22	11	8	3	18	21	46	28	17	29	15	4	19	13	16	35	34	15	1	5	6	10	17	7	19	25	17	9	8	5	6	14	35	34	30	21	10	15	19	19	17	15	8	17	17	18	26	23	10	32	31	10	14	26	33	14	4	4	12	20	24	20	11	5	8	7	8	11	1	6	10	7	10	10	12	30	32	6	20	14	18	19	20	13	13	3	17	19	13	9	8	8	23	9	16	17	7	8	10	11	4	5	2	3	9	19	29	16	11	19	16	9	17	19	15	5	8	20	22	20	20	18	17	29	5	16	13	13	18	16	12	8	11	28	32	5	24	14	71	51	26	54	40	19	18	15	7	18	16	9	2	9	7	34	47	39	32	20	29	48	21	6	8	34	44	27	15	10	47	23	41	27	37	70	46	11	30	47	34	20	14	24	25	50	7	40	50	25	19	34	34	32	27	31	31	25	17	15	30	16	32	41	15	18	33	28	8	15	18	14	15	35	19	24	12	16	17	28	34	15	4	7	9	6	4	8	6	2	4	5	10	14	9	13	0	20	12	21	21	3	4	5	4	1	0	4	4	0	1	2	1	2	6	7	5	4	3	0	2	2	10	13	5	2	3	1	1	2	2	2	1	4	0	3	2	4	4	2	1	4	5	8	6	5	4	4	4	3	5	8	9	4	2	2	4	12	13	4	2	9	20	25	23	22	20	17	17	20	22	23	15	6	13	14	12	8	8	10	7	5	1	6	5	4	5	3	10	11	9	11	9	4	1	2	9	22	47	58	33	69	43	7	2	2	3	1	0	0	1	4	4	1	0	3	7	7	8	9	5	4	3	1	1	2	5	1	8	3	3	3	4	3	0	3	3	3	16	6	86	133	57	13	18	18	18	63	111	69	8	3	1	6	8	5	2	3	3	1	4	3	4	5	1	5	5	3	1	1	4	5	4	3	3	4	3	1	3	4	2	5	4	5	4	4	2	1	2	5	6	7	5	5	5	4	2	8	7	4	3	5	4	2	3	4	5	7	9	10	8	5	5	4	4	5	4	4	3	2	4	4	5	10	19	24	25	15	2	3	5	5	6	10	10	5	2	4	3	3	4	4	1	0	3	5	6	5	5	6	6	8	5	7	5	2	2	3	4	7	7	5	9	7	4	6	3	8	17	8	37	83	121	129	110	37	75	104	81	75	50	17	4	3	2	4	7	13	14	9	
8	5	2	2	3	2	2	4	1	1	4	5	0	6	10	16	21	22	17	11	5	3	14	22	22	17	14	28	15	14	7	12	11	16	14	13	15	14	17	22	34	28	22	25	15	17	17	13	7	4	4	9	8	10	15	10	3	5	8	11	3	8	16	12	7	17	13	5	1	10	12	5	9	15	18	16	11	7	3	10	3	3	9	7	6	12	9	7	8	11	10	12	12	7	18	36	29	10	12	13	10	15	19	12	11	23	24	21	28	14	4	17	25	24	60	37	17	35	16	5	15	21	12	17	41	24	5	8	2	7	21	12	24	27	14	5	4	4	6	4	14	16	5	12	10	6	0	6	8	7	4	12	18	22	27	16	5	17	31	21	15	26	24	8	10	6	12	12	10	10	2	11	10	3	8	9	6	8	7	6	16	22	15	18	29	10	18	19	15	6	13	5	13	24	21	17	10	11	14	2	20	11	16	12	3	9	10	11	7	4	3	11	13	19	26	28	14	6	19	24	20	17	8	10	17	13	17	7	11	17	15	22	2	14	5	9	24	35	34	27	22	20	20	26	32	22	70	50	34	56	27	4	7	5	17	12	6	7	5	9	12	8	34	51	48	20	25	39	22	8	8	36	48	32	15	11	49	30	37	35	31	65	44	10	15	29	28	15	22	23	31	49	5	34	40	31	28	57	51	28	2	17	22	11	10	21	35	17	37	47	21	15	38	37	5	18	19	11	9	23	10	15	4	17	18	27	35	16	2	5	12	12	8	12	10	7	7	9	17	26	15	23	5	28	21	28	31	6	4	2	4	4	4	4	3	0	2	1	4	4	4	4	2	4	6	5	4	8	10	6	6	7	7	5	2	1	2	2	0	3	2	1	0	1	3	4	4	5	7	8	7	5	5	6	5	4	7	10	7	7	4	3	4	3	8	8	12	15	17	20	22	21	20	19	18	20	22	17	6	15	16	10	5	4	3	4	4	4	5	8	8	8	8	11	10	3	2	6	8	5	4	5	6	7	35	83	60	41	49	13	5	5	3	4	3	2	4	4	1	0	0	2	7	8	7	8	7	7	6	7	5	3	4	6	5	4	1	1	4	5	3	4	1	3	11	8	60	120	93	57	30	19	21	79	125	65	1	4	7	11	9	5	5	6	5	4	3	3	7	5	4	7	5	1	0	2	4	4	4	4	0	3	3	4	4	2	4	6	3	5	4	4	2	3	2	7	3	6	4	3	4	1	2	4	5	5	5	6	4	4	7	7	5	4	4	6	10	8	5	5	7	5	1	0	0	0	4	5	1	10	15	8	19	21	10	6	2	4	3	3	5	4	4	1	8	8	9	10	8	4	1	6	7	5	2	4	8	11	7	7	5	4	2	3	3	5	5	4	8	3	7	5	4	15	20	19	86	118	110	84	43	15	43	90	100	83	60	21	11	7	10	27	38	19	6	4	
7	3	0	2	3	1	3	1	0	3	4	1	7	10	15	24	19	17	18	14	8	7	18	14	11	28	34	32	14	20	14	2	15	18	13	10	11	10	18	18	28	25	11	9	13	16	14	7	5	7	10	10	5	1	6	8	10	4	12	10	8	15	21	16	17	24	13	1	0	8	12	2	11	11	8	5	8	12	6	14	3	4	8	11	4	14	13	9	4	3	1	8	14	9	21	29	19	7	3	4	6	8	22	21	12	18	19	8	24	18	15	21	22	16	60	47	11	37	18	4	15	27	30	8	47	26	9	9	4	7	28	22	29	39	21	9	4	2	1	7	10	14	5	8	7	9	9	5	5	4	1	4	11	31	34	11	4	10	25	28	12	21	12	15	14	19	18	6	14	22	7	14	14	8	7	5	15	18	14	8	13	8	11	14	18	10	14	18	15	4	13	17	29	38	35	19	4	7	15	12	13	8	13	21	13	2	13	15	10	5	10	19	11	15	12	24	28	5	23	28	18	11	15	18	13	8	20	10	1	13	13	14	5	18	12	15	15	16	22	22	16	5	12	29	31	31	72	48	37	47	11	4	11	18	15	7	3	4	4	8	7	8	5	38	56	31	13	34	28	20	20	42	62	43	17	8	43	34	28	35	27	59	40	10	6	17	22	13	22	22	30	44	2	28	33	30	31	62	42	25	22	13	10	9	10	27	31	0	40	47	29	10	41	42	24	24	11	5	11	16	9	10	8	12	16	26	34	17	2	7	17	18	10	18	14	8	5	7	25	43	20	34	13	36	25	29	38	13	3	1	3	5	6	3	2	4	6	9	8	5	3	4	3	4	4	4	4	8	5	7	14	10	11	12	7	10	8	4	2	3	4	4	4	4	4	4	4	4	4	5	7	8	8	7	7	6	5	8	3	4	5	1	5	4	3	7	10	8	6	8	12	15	18	18	16	12	9	6	9	17	15	8	9	11	10	5	1	2	2	3	4	1	1	8	13	8	1	4	8	8	7	7	8	11	8	42	68	54	37	9	5	5	6	5	4	5	7	5	3	1	0	3	4	8	8	7	7	8	7	4	11	12	8	3	4	4	3	7	7	5	1	2	1	3	7	9	30	83	98	99	88	68	18	80	138	76	8	10	7	12	8	5	5	3	8	6	2	10	8	3	1	4	5	4	3	0	4	4	4	5	6	5	4	4	2	2	4	4	3	4	4	4	5	4	5	7	2	4	4	3	3	0	0	2	5	7	6	4	7	7	4	4	3	1	3	4	2	5	3	3	4	2	0	0	0	0	4	6	0	9	15	14	20	25	12	4	2	4	5	1	5	10	14	19	24	24	24	25	25	21	12	4	4	7	2	4	2	8	6	5	4	4	4	0	0	4	4	4	8	1	7	7	7	23	15	50	119	111	50	19	7	10	14	51	74	105	91	26	15	11	36	72	92	93	58	36	
8	4	1	1	4	3	3	1	2	5	5	2	6	8	20	26	11	11	16	17	12	8	16	5	14	23	27	20	8	17	17	14	16	8	8	4	2	7	17	7	15	19	10	7	10	7	3	3	5	12	13	8	5	4	5	13	13	5	12	9	8	15	23	16	21	31	16	2	2	9	10	7	17	10	8	8	10	11	7	16	5	7	4	13	2	9	13	13	7	7	8	9	16	19	21	22	15	5	3	4	4	5	21	26	13	12	16	4	24	25	22	22	15	14	49	49	15	31	16	5	9	14	36	5	42	31	4	11	3	12	31	22	20	39	21	8	8	4	5	8	16	13	4	8	0	3	11	11	8	5	2	4	12	39	36	7	2	7	8	25	17	13	6	13	13	30	16	20	21	27	25	13	25	19	8	13	14	20	26	22	10	4	5	14	5	4	5	17	23	18	25	35	44	33	33	26	19	15	5	8	15	12	10	15	20	16	12	18	15	10	16	16	13	16	2	19	35	5	22	21	21	26	27	20	5	21	24	10	13	13	11	5	10	29	24	31	32	22	8	7	8	12	19	22	17	29	70	43	27	34	10	11	18	13	4	2	1	2	5	7	8	18	19	10	48	52	16	28	38	34	24	38	65	60	36	7	35	36	17	26	42	58	26	5	4	12	26	20	22	18	23	38	5	19	26	29	26	52	33	2	16	14	13	12	11	30	34	18	37	41	31	3	30	36	21	9	2	5	2	11	13	12	9	11	18	31	37	19	1	12	22	17	10	23	18	8	3	2	33	53	17	37	20	38	23	28	40	17	8	7	4	1	1	5	5	7	8	7	5	4	4	5	3	1	3	4	4	8	4	12	18	7	13	17	6	4	7	8	8	8	8	8	7	5	3	3	2	1	5	8	11	12	11	10	10	8	3	4	7	6	5	7	7	5	5	11	11	9	8	8	9	13	13	8	5	3	2	4	9	13	15	15	16	15	13	10	5	5	7	6	2	1	2	4	9	10	6	4	5	7	8	9	8	11	15	10	20	24	14	3	3	1	1	1	2	5	5	4	4	3	0	4	3	5	8	7	5	5	6	12	21	21	25	22	14	9	4	4	7	4	1	3	4	2	4	10	10	34	55	72	96	121	92	34	135	109	21	14	8	7	4	4	5	2	9	7	11	12	7	7	4	3	1	6	7	5	5	5	3	1	1	1	2	5	7	7	5	3	2	4	6	3	4	1	6	5	2	0	4	6	5	4	3	4	4	7	4	4	8	6	4	2	4	3	0	5	2	3	0	1	4	4	3	5	6	4	5	5	3	3	7	11	14	18	10	1	8	15	14	10	9	13	19	20	9	14	30	32	16	8	19	16	8	6	3	5	4	6	5	3	4	3	4	4	4	5	7	7	7	4	7	10	17	25	13	89	126	82	21	10	11	8	19	3	55	116	117	88	63	50	79	105	72	90	71	56	
4	1	3	3	2	2	3	4	3	7	7	1	6	14	29	22	1	7	10	20	21	7	10	12	15	13	7	5	9	16	26	26	7	20	21	14	8	5	14	11	13	22	17	8	4	3	6	8	8	15	18	8	4	4	7	18	15	4	11	8	4	16	23	7	24	34	18	3	5	11	6	14	18	9	13	12	9	8	16	18	10	11	7	9	4	5	14	13	3	8	6	6	15	24	22	16	11	4	0	0	1	5	19	26	13	8	14	8	21	29	26	19	8	11	38	46	16	23	12	4	12	2	30	21	26	43	15	6	10	18	29	11	29	38	20	9	10	7	9	16	10	2	10	10	5	4	12	14	7	1	5	8	26	44	26	4	10	12	7	11	15	9	9	5	21	34	6	28	19	23	40	17	17	17	12	17	15	13	27	27	18	8	17	12	10	3	5	20	32	14	20	54	59	27	24	22	20	22	18	11	7	7	17	17	18	23	7	13	14	10	15	10	19	16	0	19	33	7	17	11	14	17	12	8	21	26	15	13	21	2	14	14	18	33	14	19	26	24	15	6	17	18	19	17	7	28	64	39	20	25	15	17	10	1	3	4	3	4	10	15	16	12	14	13	28	53	33	20	39	41	14	24	41	54	56	25	32	41	11	14	36	43	13	5	14	12	26	30	31	21	21	37	9	10	21	31	23	34	27	17	16	3	12	12	12	26	21	15	28	30	27	11	19	29	18	14	10	2	7	12	18	18	13	11	17	38	44	23	4	15	22	11	11	24	19	6	4	8	35	53	12	29	17	33	17	29	41	16	7	9	9	4	5	7	5	4	2	1	0	3	4	5	4	4	5	7	8	9	4	15	20	4	13	17	8	4	2	2	4	4	3	1	2	2	2	3	3	5	9	10	8	7	5	5	7	8	5	2	4	5	1	7	6	9	15	11	7	7	7	5	5	7	4	4	7	4	2	4	7	8	8	11	12	12	14	14	9	8	8	7	4	4	6	7	8	10	6	3	0	3	5	9	8	3	1	0	3	8	5	3	5	5	3	1	4	4	1	0	4	4	1	4	3	4	5	4	4	2	8	30	55	50	18	13	17	27	54	75	68	36	2	4	4	3	1	2	7	5	10	25	55	109	146	75	78	133	93	45	12	6	5	5	4	7	10	13	11	7	9	9	3	4	5	7	9	10	8	7	6	5	4	4	5	7	8	8	8	7	4	4	7	8	8	8	8	5	4	5	7	8	8	8	7	8	4	3	3	7	7	2	4	2	4	5	3	1	5	5	3	1	4	7	4	4	4	5	7	4	2	0	1	1	5	15	15	7	7	7	14	38	52	56	58	67	87	111	129	136	126	89	45	11	4	1	6	3	5	1	4	0	5	3	6	5	5	7	8	7	4	3	2	9	25	15	58	121	111	48	5	4	5	5	11	18	18	82	142	157	136	118	116	86	18	49	39	57	
14	11	6	3	3	4	0	5	3	4	10	11	7	21	36	17	5	2	8	15	23	16	5	7	7	9	8	3	7	18	38	26	19	35	20	17	15	11	12	12	8	26	19	10	10	8	6	2	7	15	19	12	1	1	8	19	16	2	11	11	3	18	24	5	28	34	16	2	5	12	11	17	13	2	11	16	9	4	15	12	7	8	6	7	7	7	20	12	5	7	4	7	18	19	18	12	7	4	3	3	4	7	15	20	15	13	18	19	18	28	27	16	7	7	32	37	17	24	14	9	10	7	20	33	6	36	25	4	5	23	34	5	34	37	21	12	7	2	8	16	10	7	11	9	7	10	12	11	4	7	10	10	31	40	11	14	7	8	11	6	4	5	9	5	25	33	7	35	23	22	47	29	19	29	21	15	16	14	7	15	20	9	27	16	23	2	16	18	42	42	42	63	55	13	17	17	11	12	17	21	5	19	27	30	18	15	8	7	9	5	10	4	19	16	2	13	29	14	11	7	3	3	3	14	29	26	5	17	18	14	27	18	13	22	8	14	17	28	20	10	22	19	15	10	2	24	50	42	32	28	14	13	8	7	4	5	4	7	15	15	9	5	17	19	13	43	32	1	34	44	17	27	18	28	65	44	30	47	11	25	35	56	35	17	17	3	16	29	39	26	19	40	18	18	25	27	16	18	16	13	10	13	17	5	26	34	17	14	20	20	22	15	16	38	34	25	16	10	7	1	1	1	6	3	3	34	47	25	6	10	24	17	9	25	18	4	3	4	33	53	14	22	7	25	8	32	45	19	11	5	11	10	4	4	4	1	2	0	3	4	4	5	5	7	8	8	9	8	4	16	18	4	11	16	8	1	4	4	4	4	4	3	0	3	5	7	7	5	7	5	2	1	3	3	5	8	5	4	2	5	7	12	18	18	14	3	1	4	4	3	4	4	6	7	4	1	4	4	5	5	3	4	3	2	7	11	11	12	11	10	11	12	12	11	10	7	1	4	3	0	1	5	8	8	4	2	4	7	8	6	6	8	5	4	4	1	0	0	3	4	4	4	0	4	2	4	8	4	21	55	93	131	123	101	98	109	126	120	110	82	10	12	3	4	2	4	7	3	5	4	14	36	110	135	26	102	139	117	74	60	57	43	23	14	9	9	3	2	7	7	7	5	5	7	7	8	4	4	3	4	2	2	3	4	5	4	4	4	4	4	8	10	9	8	8	7	6	7	5	4	5	6	7	9	8	5	5	7	5	0	5	5	4	5	2	3	4	4	4	4	4	6	4	5	6	7	8	4	2	2	0	4	6	13	19	17	33	66	106	130	136	137	139	148	153	140	122	116	138	155	135	77	14	4	7	3	4	1	4	2	7	6	4	3	3	2	4	3	3	2	4	8	17	43	104	119	74	22	8	5	4	2	5	8	14	22	47	76	92	90	84	48	40	39	58	88	
7	10	6	3	4	2	2	2	4	4	2	8	16	32	34	12	10	2	10	5	22	21	4	3	3	5	8	7	0	18	43	23	31	34	8	12	15	14	12	12	6	27	23	10	16	18	15	12	11	12	16	14	4	3	8	18	19	8	12	16	5	19	24	5	31	35	14	2	1	7	9	10	6	6	8	17	10	9	16	5	6	5	2	4	7	10	25	8	10	10	6	9	19	12	8	8	7	7	7	7	7	7	12	19	17	8	8	11	14	28	27	14	5	8	28	27	20	19	7	2	7	8	12	32	28	26	23	6	5	19	42	8	41	40	13	3	2	8	10	7	7	1	8	12	5	3	6	5	7	8	5	7	36	40	8	20	8	5	7	7	7	8	14	9	33	37	17	45	26	15	42	34	40	40	29	22	13	11	7	16	15	14	30	17	35	4	23	9	24	32	39	47	36	10	12	18	9	2	18	21	10	27	25	21	18	7	13	2	10	5	8	13	22	17	4	6	25	22	11	12	12	12	5	13	35	26	4	22	11	21	20	10	2	14	5	4	13	35	20	15	24	20	14	5	5	18	38	40	33	25	15	7	3	2	2	6	5	8	19	11	5	10	15	17	10	40	38	19	36	52	18	27	17	18	55	46	29	52	18	42	12	39	38	27	14	5	20	26	36	27	17	44	32	23	18	23	15	7	11	9	8	18	15	8	36	41	24	33	29	18	17	13	13	42	38	14	28	14	8	14	13	6	7	1	7	38	51	27	10	6	20	27	10	30	25	7	3	6	33	57	19	22	1	22	11	34	45	18	13	10	12	13	2	4	4	0	1	2	4	5	4	5	5	6	5	4	5	4	10	18	15	3	10	16	9	3	3	1	0	0	1	4	8	10	9	8	7	4	4	4	4	4	4	4	8	9	5	4	0	8	11	13	15	13	6	2	2	3	3	4	2	2	4	2	4	6	8	5	5	5	1	0	4	7	5	3	9	8	5	5	7	8	7	5	4	2	3	4	4	3	4	5	8	12	15	13	7	4	3	5	5	8	8	10	8	4	2	2	3	1	2	0	5	5	3	3	10	9	21	73	70	69	130	142	124	105	93	63	121	113	14	18	2	6	5	10	3	4	3	5	14	19	37	130	114	37	92	123	110	103	80	56	21	21	17	13	5	5	3	2	4	3	4	6	1	7	4	5	2	4	1	3	3	4	6	4	2	5	4	2	3	3	5	3	4	3	4	5	4	4	4	3	5	5	5	4	5	4	2	2	8	7	6	7	2	4	3	1	4	6	4	2	3	5	7	7	7	0	4	3	1	3	4	1	13	13	46	98	132	123	105	98	94	92	80	54	23	10	37	87	137	130	43	7	4	4	4	2	4	0	8	7	4	4	3	2	5	2	3	2	4	6	14	74	112	77	32	15	9	13	7	4	7	4	20	17	16	23	20	25	30	27	48	55	68	66	
5	5	5	6	2	3	3	1	1	5	5	3	18	27	18	3	10	2	8	8	21	16	5	2	1	3	7	8	4	15	36	24	31	25	4	5	13	20	21	15	14	26	25	10	8	14	16	17	13	10	12	12	7	4	8	21	28	18	16	22	4	22	24	5	30	35	18	7	2	2	2	4	4	5	7	11	11	11	11	5	3	4	3	2	7	9	22	13	15	11	8	9	15	9	1	6	8	7	5	7	8	8	12	18	20	13	8	7	16	31	25	11	3	10	19	20	7	4	17	20	21	17	7	19	25	19	17	8	10	18	45	10	43	35	11	11	8	11	8	7	5	4	7	14	11	5	5	6	4	2	6	17	46	40	10	25	10	5	4	0	1	13	21	17	46	38	19	48	22	13	25	21	36	29	21	18	11	2	11	18	7	21	26	13	40	6	26	13	8	10	16	28	25	14	8	23	12	5	18	12	22	29	19	16	27	5	19	9	15	8	5	11	17	5	10	7	18	19	22	19	11	9	14	4	37	31	10	28	8	31	14	11	1	11	4	6	14	38	21	17	26	17	12	9	11	19	30	25	9	9	13	14	13	10	5	4	5	7	18	10	4	10	14	15	9	40	46	29	32	58	33	32	24	26	37	30	26	50	18	47	50	50	37	28	13	16	23	21	29	24	17	48	40	18	14	24	17	3	8	9	14	16	11	11	33	47	25	38	47	28	16	7	12	40	43	3	33	15	7	11	13	11	3	3	11	44	50	21	5	10	21	29	11	27	31	11	7	3	36	61	21	27	9	21	15	27	31	25	27	19	18	19	6	4	3	0	0	1	5	7	4	5	3	0	4	3	6	5	13	23	15	2	11	15	12	8	11	11	8	6	7	7	7	4	4	4	5	6	5	2	3	7	4	4	10	10	4	2	5	10	10	8	7	6	7	7	6	2	1	3	2	3	1	7	8	6	9	8	8	9	5	3	8	8	5	7	2	7	7	5	4	5	3	4	3	4	4	6	7	7	7	5	4	6	11	16	15	10	6	4	1	4	8	12	13	12	9	3	5	3	3	3	6	1	5	2	8	11	7	61	123	113	41	54	58	31	28	21	128	120	25	14	2	4	5	5	7	4	1	3	7	19	5	91	144	84	9	66	80	73	80	72	8	33	38	29	11	3	3	2	3	4	4	4	4	8	3	7	1	4	2	5	7	7	7	7	5	7	4	0	4	2	4	4	3	3	2	4	4	4	3	3	6	4	3	3	5	3	1	5	11	5	8	8	4	5	3	4	4	5	4	0	1	4	4	3	1	7	7	5	3	5	7	4	7	4	51	98	80	31	13	15	10	12	9	18	20	17	38	21	100	159	76	8	5	3	4	4	5	8	11	5	4	4	0	2	2	4	7	4	7	8	24	87	87	27	21	29	10	10	10	7	4	10	17	6	13	15	5	9	10	8	20	16	20	17	
5	4	7	5	1	3	2	3	0	1	4	10	24	21	7	1	5	3	3	9	18	11	5	4	2	1	5	8	3	9	25	21	21	12	4	4	9	17	24	23	25	28	20	4	4	5	6	8	9	10	9	7	7	7	2	25	38	25	17	29	11	20	22	11	25	28	19	9	2	8	10	8	5	1	4	4	7	8	1	6	6	2	2	1	5	2	14	17	15	9	5	5	10	7	6	5	6	3	2	4	4	4	5	12	20	25	22	19	27	30	15	2	3	10	17	21	20	22	24	20	24	29	17	5	15	9	8	10	9	21	40	12	33	21	17	13	4	10	8	6	4	4	3	13	12	4	1	2	4	5	2	31	53	29	17	30	14	13	17	15	11	21	24	23	56	29	41	53	21	18	16	5	21	15	13	14	16	10	13	19	13	32	25	18	41	7	28	17	10	10	7	26	27	18	5	27	18	10	12	5	22	19	10	15	27	11	21	9	20	16	10	10	7	10	17	7	17	7	23	18	9	6	18	23	32	31	11	30	7	33	9	9	3	8	5	5	13	36	27	18	36	23	12	10	9	8	30	29	5	8	1	3	1	7	5	5	9	13	14	7	2	9	15	14	9	42	50	27	15	40	29	25	10	7	20	19	21	39	21	23	31	22	8	23	18	16	28	21	26	17	21	48	42	16	16	27	24	11	1	10	14	12	8	7	26	50	33	26	61	40	14	3	10	34	44	15	36	26	24	22	7	9	5	5	7	45	57	23	13	27	28	25	10	26	38	16	8	4	42	60	16	30	10	16	1	19	15	25	36	31	28	27	13	2	1	2	3	5	7	4	1	4	2	4	5	4	9	6	15	28	15	6	13	12	13	10	8	10	10	5	5	5	0	4	1	3	4	4	4	4	2	6	5	4	8	8	10	12	12	11	10	8	5	3	4	1	2	3	0	0	3	4	7	8	4	2	5	7	7	8	7	5	10	9	4	8	3	9	6	3	3	5	3	4	4	7	8	7	7	5	4	3	1	3	4	4	6	4	5	7	4	2	3	4	5	10	15	11	8	5	5	2	4	5	1	2	5	8	12	11	66	146	152	73	8	19	17	10	102	124	66	16	3	2	4	5	4	5	2	0	3	8	14	47	118	121	70	10	27	50	115	76	42	52	50	51	20	5	7	4	5	7	6	2	4	6	5	7	1	4	4	7	4	3	4	6	2	7	5	3	4	5	3	5	3	3	0	4	4	1	3	5	7	5	3	3	4	3	6	8	12	4	7	8	8	7	1	5	4	4	4	7	8	7	4	2	5	8	4	7	6	0	6	1	7	5	48	105	84	35	19	8	13	14	17	15	9	6	34	37	59	155	113	8	15	3	7	7	9	11	8	4	4	4	4	2	2	5	5	4	8	12	21	86	91	65	50	46	24	5	10	8	8	14	13	3	12	13	8	13	4	10	13	6	13	17	
4	3	7	5	0	4	3	2	3	4	1	10	30	26	7	5	3	4	6	7	12	12	9	8	6	5	3	7	4	8	12	5	11	7	4	9	4	9	12	15	19	18	8	2	5	4	3	2	9	10	5	3	5	7	19	39	39	17	7	26	18	10	14	16	22	22	19	9	6	10	7	10	11	5	4	4	4	1	5	4	7	7	3	3	8	8	9	11	10	5	2	4	7	5	8	9	1	5	4	3	1	0	3	6	13	18	21	20	22	16	5	3	1	11	26	28	19	15	11	4	20	27	19	2	7	4	1	11	10	23	31	4	21	11	11	15	3	12	10	2	4	6	10	15	14	10	11	11	7	4	3	37	54	17	28	30	18	24	33	34	29	27	21	29	62	12	52	47	25	32	26	1	23	24	15	20	22	20	21	19	13	43	28	21	39	27	32	19	10	14	3	21	33	25	4	26	26	11	6	8	17	15	11	8	24	12	14	7	17	24	24	15	4	16	12	13	17	13	19	15	16	17	24	31	29	26	12	31	8	29	4	12	10	10	4	3	13	38	36	17	45	36	13	3	9	3	29	38	10	11	6	8	11	11	7	4	5	8	4	6	9	7	15	14	11	44	45	22	21	17	11	4	12	19	27	21	13	29	29	10	11	7	7	18	23	8	22	27	29	12	27	42	39	18	9	26	29	15	4	8	8	12	12	8	18	46	39	26	69	41	5	4	8	30	43	22	35	27	18	30	26	18	11	9	10	34	69	36	22	38	28	18	4	31	40	19	10	13	50	56	12	25	15	17	9	21	10	19	28	31	41	41	16	3	3	5	4	6	2	1	4	4	7	7	4	4	7	7	20	33	18	15	17	10	8	14	12	1	7	2	4	2	5	1	7	6	5	4	2	1	3	5	9	8	4	4	11	13	10	7	7	8	2	7	8	7	4	2	2	1	1	4	7	4	1	3	3	3	6	5	4	7	10	10	9	4	3	5	7	8	9	13	12	13	14	12	11	8	6	2	4	5	4	6	11	13	9	4	0	4	6	4	4	2	2	5	11	10	5	4	7	9	6	3	1	0	3	5	11	25	18	58	146	139	41	25	2	8	54	108	97	44	4	5	2	4	4	7	5	3	0	1	10	17	61	113	131	102	58	34	103	92	82	61	60	74	37	1	12	8	9	8	5	4	5	8	10	7	4	4	5	7	3	0	3	5	2	5	7	5	4	8	3	5	6	4	1	5	5	4	3	5	6	5	4	2	4	4	5	7	8	2	5	7	8	8	5	1	4	6	10	11	8	5	4	6	7	5	3	7	5	3	4	2	5	8	43	91	69	32	28	8	14	5	2	4	5	7	16	56	55	102	135	43	16	8	4	3	5	5	1	3	4	4	5	5	2	9	4	7	9	13	14	57	57	55	59	53	24	4	8	12	12	14	11	7	12	10	7	10	3	14	10	6	21	25	
2	2	4	8	5	2	0	1	1	2	6	4	27	37	10	15	14	13	7	4	8	12	12	9	1	6	2	5	5	11	7	3	10	8	10	9	2	8	4	7	12	8	2	4	7	4	4	10	11	7	4	3	3	9	32	41	21	4	10	13	16	7	3	6	13	18	18	8	6	11	7	3	12	15	14	8	5	2	4	4	3	4	7	8	10	7	5	4	4	7	1	5	7	5	6	7	6	5	0	3	4	4	5	5	2	4	10	10	8	6	4	4	6	10	31	28	19	17	9	22	31	27	12	2	1	5	5	8	5	25	20	7	17	12	15	13	3	15	7	6	7	7	14	13	8	9	5	7	8	7	9	41	47	8	27	26	19	20	19	27	32	25	7	42	56	14	60	37	9	25	31	15	27	38	21	23	26	28	33	21	23	48	26	14	29	31	28	15	11	17	12	15	32	28	14	25	32	18	12	13	14	14	16	7	21	21	12	14	11	27	36	14	14	17	4	12	17	21	19	16	27	30	22	13	7	16	11	29	5	23	14	28	26	23	9	7	18	44	33	14	48	42	11	8	10	14	22	44	17	13	5	6	5	4	3	3	2	4	11	12	7	2	13	11	12	37	36	29	21	4	10	15	13	4	15	16	5	30	31	14	10	14	12	14	20	4	15	29	34	11	27	37	32	16	11	26	25	13	4	5	1	7	9	7	17	36	34	19	65	41	7	2	6	24	38	8	25	23	8	8	20	20	28	10	25	18	77	49	27	52	23	7	15	33	39	21	10	19	54	54	17	17	18	11	7	21	14	21	31	17	50	58	21	8	10	19	26	20	2	0	8	7	9	10	8	8	2	12	28	38	22	24	26	15	9	15	18	7	4	2	3	2	3	7	11	7	9	9	7	7	5	10	14	13	6	10	10	8	7	5	5	6	1	9	7	4	4	2	4	4	4	4	2	2	4	5	6	5	5	4	2	4	7	7	5	4	5	7	9	11	12	15	15	15	13	11	8	5	4	5	8	10	6	4	7	6	5	4	4	4	4	2	0	3	2	0	4	8	6	2	7	9	11	10	5	1	1	3	4	13	31	8	84	149	82	18	21	6	15	74	108	70	11	9	4	5	5	5	7	8	7	5	5	3	16	55	106	136	133	94	34	56	82	65	72	93	70	41	18	8	5	5	7	5	8	10	8	5	5	7	7	4	1	1	1	4	3	4	8	6	3	9	4	3	7	7	5	5	6	1	4	8	5	2	4	2	3	7	7	4	5	3	4	7	8	7	5	3	2	6	7	4	3	1	4	6	7	5	4	5	4	2	1	2	1	14	45	75	46	40	55	38	15	21	10	6	8	10	30	52	57	18	124	102	12	15	8	4	3	1	0	1	2	3	3	5	6	7	1	7	13	12	31	69	55	50	75	64	29	14	8	7	5	12	11	8	14	8	4	8	1	16	9	18	34	14	
4	4	2	4	7	7	5	2	4	7	10	19	29	40	11	27	19	10	12	12	16	16	9	4	6	5	2	4	5	5	6	7	8	8	5	4	3	7	2	4	8	4	2	5	7	4	7	14	8	7	6	5	2	18	35	27	4	9	7	7	10	3	1	4	13	19	17	10	1	10	14	10	5	14	15	12	8	4	3	5	5	5	7	5	5	2	3	0	4	7	2	6	7	5	2	2	3	0	4	5	7	7	5	2	3	2	4	6	3	2	4	5	6	5	23	29	27	28	22	25	24	16	11	10	10	9	8	10	8	25	12	14	20	21	19	10	9	15	4	8	5	7	12	4	2	7	8	4	1	1	20	51	40	6	25	25	20	19	15	10	17	16	25	57	30	41	56	18	8	18	23	13	34	38	13	14	25	43	48	15	39	45	18	4	8	13	13	12	15	26	19	14	31	22	12	32	44	29	23	20	16	16	19	13	12	19	8	12	2	30	40	14	19	13	0	4	13	19	17	17	24	23	11	15	10	17	18	26	10	18	21	28	24	36	18	5	25	43	27	16	47	42	10	14	9	19	19	47	23	19	14	10	15	13	9	7	5	7	10	5	9	5	12	4	8	22	31	31	26	18	14	22	8	5	13	13	15	37	31	16	10	14	8	11	15	5	7	24	35	12	32	39	26	5	21	31	19	4	8	13	13	9	10	4	21	29	24	15	54	38	12	10	5	25	41	12	20	22	21	13	2	20	35	7	29	15	80	54	29	59	24	5	19	41	48	23	7	21	51	54	25	7	15	4	9	17	18	14	34	14	39	65	35	5	32	40	41	40	12	4	12	5	9	8	4	4	14	19	31	34	13	21	25	16	8	13	18	8	2	3	2	4	4	8	7	1	13	14	10	12	11	18	16	21	18	11	5	2	3	5	7	4	3	8	12	5	6	5	5	7	7	3	4	7	7	5	3	2	4	4	4	3	2	4	3	1	4	7	8	9	12	14	10	8	7	5	3	0	5	10	11	7	2	1	7	5	1	4	6	4	1	2	2	2	6	8	6	5	7	6	5	2	3	5	7	3	0	1	4	10	23	14	67	142	97	4	28	9	5	54	104	85	22	9	4	4	3	2	6	8	8	6	1	1	10	13	26	69	105	127	112	66	45	38	65	91	97	88	55	12	12	5	5	1	4	5	5	4	6	7	4	2	2	3	0	4	4	4	7	5	2	5	8	7	4	4	5	1	7	5	5	4	3	4	4	5	1	8	8	5	4	3	1	5	9	9	8	5	3	3	3	5	5	4	2	3	8	8	7	5	2	2	5	6	2	13	44	65	28	50	78	91	22	27	18	5	8	8	39	63	16	53	92	150	64	9	10	6	4	0	1	2	4	5	4	2	2	4	2	5	18	16	50	98	77	77	70	49	14	7	8	6	7	15	7	10	15	8	4	9	3	16	9	35	28	30	
3	1	4	2	1	5	1	4	8	6	23	27	34	28	4	27	22	29	33	31	34	16	6	3	3	4	1	6	5	4	10	7	3	9	5	1	4	6	4	6	11	8	2	6	4	4	7	10	8	5	4	8	6	24	37	24	3	12	5	5	8	5	4	2	12	20	13	12	13	8	12	14	10	8	9	21	12	4	4	4	4	4	4	4	5	6	4	1	3	5	3	5	8	4	0	0	1	5	7	5	4	4	4	5	4	5	4	5	5	2	7	8	2	2	10	18	18	21	17	12	18	15	7	12	14	12	10	10	11	27	10	13	21	23	16	12	20	16	6	8	7	10	17	11	7	4	7	7	0	3	32	61	34	17	25	21	21	24	19	10	2	17	57	62	14	57	38	4	14	18	14	8	32	25	1	5	19	55	56	4	52	38	6	8	5	4	7	7	18	34	19	14	28	21	3	35	39	14	21	26	23	21	18	11	4	16	8	10	5	24	41	16	15	8	4	4	6	8	10	11	8	7	18	21	1	10	20	18	18	17	24	27	15	38	20	17	33	29	20	11	43	43	12	14	10	8	17	46	20	18	21	7	5	13	16	9	7	13	3	10	6	12	13	4	7	4	15	25	39	18	26	28	12	8	8	12	28	38	28	11	16	21	12	14	19	20	12	17	28	20	37	37	16	6	24	26	10	5	10	12	11	14	13	10	29	30	13	24	49	29	6	11	10	21	38	19	11	8	18	19	7	18	29	13	23	24	82	50	34	60	24	11	19	52	66	27	9	25	45	51	25	12	15	7	13	12	23	6	30	25	20	59	50	11	53	45	38	49	18	10	15	2	17	16	14	5	25	23	23	26	3	21	26	13	1	14	22	8	5	7	6	4	10	7	2	5	13	15	10	10	17	22	11	34	25	5	3	1	3	5	7	7	10	12	15	10	7	7	4	4	4	7	9	8	8	6	4	2	3	3	4	3	1	4	4	1	4	5	7	9	11	8	2	1	4	4	2	2	7	8	7	7	8	9	11	10	7	3	2	3	3	5	7	8	7	6	7	5	1	2	2	4	5	5	5	4	1	3	5	8	18	8	73	125	84	19	16	10	8	44	103	96	30	15	8	3	1	3	4	4	5	5	2	5	10	20	10	7	24	57	101	131	113	39	27	55	78	98	101	65	24	11	9	8	5	7	4	4	7	7	5	4	2	3	0	3	4	3	5	4	4	2	4	8	8	7	7	4	5	4	2	3	4	4	4	6	2	7	9	8	5	2	0	1	5	9	11	8	4	3	5	7	5	2	2	3	4	4	4	3	2	5	7	7	9	13	47	75	23	50	49	130	75	11	26	17	19	13	21	55	51	68	47	151	101	11	11	4	4	3	3	0	6	7	2	3	5	5	7	8	21	25	49	116	69	17	25	25	13	13	16	15	17	19	2	12	13	7	5	10	4	13	22	34	21	100	
2	0	2	5	2	10	5	15	22	13	32	38	26	13	4	18	35	46	33	35	48	31	7	6	9	8	6	4	4	10	7	5	2	6	7	4	4	6	6	0	10	8	4	4	3	7	7	2	5	6	2	8	2	26	37	24	0	13	10	4	5	4	4	3	13	19	7	9	18	22	21	18	11	5	8	24	16	3	2	0	2	3	1	1	3	4	4	2	1	2	4	3	8	4	0	0	3	8	8	6	2	4	7	6	1	6	7	2	7	5	7	12	2	4	7	14	15	13	9	4	15	18	8	7	11	13	11	5	7	28	12	16	24	23	8	19	29	13	6	5	3	7	20	19	9	9	3	7	3	5	42	63	20	22	26	16	17	27	17	13	15	26	71	48	37	63	26	7	16	21	12	17	28	15	5	5	14	53	55	18	49	26	8	5	11	10	7	3	16	34	21	8	21	27	4	40	39	13	9	25	36	29	17	5	8	20	11	13	8	27	41	15	12	15	14	10	8	12	16	14	9	6	21	32	21	7	23	10	24	19	19	28	14	32	13	27	29	6	22	25	34	43	16	12	14	12	26	45	14	13	18	18	11	10	16	9	7	12	2	9	7	15	10	9	11	6	6	20	39	27	39	31	19	15	10	13	26	27	17	0	24	27	13	16	20	26	25	17	11	10	25	25	11	12	19	25	11	5	14	24	23	14	8	6	29	31	14	32	44	22	7	7	9	13	29	21	18	13	13	15	2	11	22	12	10	40	83	40	43	60	21	12	9	52	75	24	26	40	44	40	15	14	5	12	12	9	25	7	24	24	10	50	51	15	58	39	32	51	25	17	12	11	25	18	21	6	30	21	14	24	7	22	29	13	2	18	24	1	14	18	20	18	17	7	2	10	15	11	9	11	18	19	17	41	23	2	3	2	3	5	5	4	4	3	11	7	4	4	3	4	7	10	8	5	4	4	4	3	3	0	3	4	4	5	5	7	7	7	7	7	5	2	2	1	4	6	1	3	8	8	12	14	13	11	9	10	11	8	7	5	3	1	1	1	4	10	12	15	17	17	17	17	13	5	2	4	2	4	6	4	15	8	79	115	61	19	11	3	10	39	111	117	41	28	20	3	2	5	4	1	4	6	3	7	5	19	8	24	43	44	4	90	131	72	9	13	32	65	105	112	86	62	53	46	18	6	2	2	5	4	7	4	5	5	3	1	4	1	4	5	7	7	4	5	2	5	4	0	5	5	3	2	3	3	2	5	3	5	11	11	4	4	3	1	1	5	11	11	4	0	2	4	2	3	4	2	5	3	1	0	4	6	4	2	13	12	28	82	54	60	44	114	128	28	36	35	36	32	8	17	23	31	34	135	107	12	12	3	1	2	3	2	4	7	4	4	5	6	2	4	18	20	39	90	84	58	37	21	8	11	32	42	47	39	5	13	9	7	9	11	8	13	17	26	109	150	
4	3	2	7	6	15	14	34	33	38	38	45	12	10	10	29	44	38	18	25	40	43	28	11	2	9	9	5	6	13	6	4	3	3	5	10	10	4	4	9	11	5	4	4	8	8	8	7	4	5	7	9	9	22	32	24	5	13	11	3	5	5	2	4	15	15	3	10	11	13	13	8	1	3	8	23	18	2	5	1	2	1	1	3	4	4	4	1	0	1	4	0	7	5	1	0	5	11	5	4	4	2	5	8	7	5	7	0	7	6	4	13	6	2	5	12	17	15	7	5	15	16	10	7	5	8	11	0	6	27	13	19	25	20	4	24	28	7	7	3	2	10	23	22	5	10	4	9	12	8	45	57	16	24	27	14	15	26	9	21	27	22	62	38	48	60	22	8	15	21	18	21	20	6	2	0	13	41	47	21	32	18	7	10	16	12	7	4	14	30	24	10	23	39	11	40	34	16	9	16	47	38	13	4	16	24	12	18	16	42	41	13	7	9	12	11	7	11	21	20	13	12	19	30	31	27	20	6	27	20	14	24	17	25	1	32	17	19	27	29	19	39	20	7	7	7	32	49	15	10	12	12	8	5	13	8	5	10	3	8	11	8	4	8	15	12	18	4	28	36	35	18	18	14	4	7	22	20	13	9	22	28	11	6	12	17	19	13	9	10	22	26	21	15	10	21	15	4	13	29	40	39	31	12	18	28	19	25	37	21	8	12	8	12	21	8	13	15	10	8	4	11	17	4	4	43	77	35	45	57	14	19	28	50	64	15	46	48	36	22	5	9	5	18	14	12	24	10	28	27	15	51	45	12	54	33	21	52	46	25	3	18	23	8	22	8	31	24	14	22	10	17	31	24	16	24	25	3	24	28	29	35	34	15	5	18	16	7	5	18	24	10	28	40	18	6	3	4	7	8	5	7	15	20	14	5	5	9	9	9	10	8	6	4	2	4	3	3	2	3	0	2	6	8	8	8	8	7	5	3	1	2	0	2	3	5	7	9	12	11	9	8	7	4	4	5	8	5	4	3	2	4	5	8	13	13	17	22	19	16	20	27	32	31	21	13	7	3	4	6	13	7	81	116	52	7	4	4	9	21	100	153	101	7	29	18	9	8	5	4	2	4	6	4	8	15	26	78	111	124	102	72	125	71	10	3	8	17	50	78	89	87	85	89	68	24	4	6	9	4	6	4	7	8	7	5	4	2	3	4	5	8	9	6	4	4	2	4	7	5	4	5	2	2	0	4	2	4	11	11	4	2	4	4	2	5	11	11	4	0	1	4	3	3	4	3	6	1	3	4	4	4	4	0	10	18	5	67	86	31	90	54	148	64	48	62	48	55	7	4	7	17	62	113	97	17	18	8	8	7	5	4	4	7	6	4	2	5	8	14	12	18	58	60	43	49	48	24	7	15	48	49	58	67	12	15	2	10	14	18	22	19	42	114	155	119	
2	3	2	7	7	16	19	55	43	60	52	38	11	15	20	36	26	18	19	17	22	34	32	21	10	5	11	8	10	16	4	4	1	1	13	19	16	8	7	8	7	2	3	4	5	3	3	4	10	7	4	7	11	17	23	23	8	8	11	9	8	9	4	3	11	11	14	13	5	1	4	5	13	17	14	17	17	2	5	6	5	4	5	7	8	8	7	6	5	1	4	1	5	6	4	3	7	10	2	7	4	2	4	7	8	7	4	1	4	5	8	8	7	3	5	12	15	15	8	8	16	13	7	7	5	6	11	5	10	23	9	19	23	18	2	23	26	8	5	4	3	14	23	19	7	6	10	13	15	8	42	54	13	24	30	18	21	23	9	26	29	18	39	31	34	49	22	2	12	13	11	15	11	3	3	2	14	27	36	24	21	13	8	15	17	7	0	3	14	29	31	11	27	48	18	41	34	19	21	17	43	39	14	11	27	28	14	18	10	39	23	12	4	7	9	9	6	13	26	33	24	17	7	24	40	32	8	15	28	22	14	24	25	24	17	40	13	36	17	18	1	34	26	4	4	3	29	51	22	9	13	10	7	4	12	9	4	11	8	7	7	2	6	13	21	25	20	25	10	20	14	1	21	13	4	5	21	18	8	8	11	23	21	12	7	8	14	10	4	5	15	21	12	8	3	14	15	12	18	16	7	18	26	15	7	16	14	13	32	26	11	4	0	13	19	4	2	7	7	9	13	21	18	8	5	35	62	43	42	48	4	12	15	38	46	14	50	34	15	11	1	7	9	26	14	16	22	2	25	22	16	51	38	21	50	31	17	49	68	34	11	22	17	8	19	15	27	30	16	13	8	6	22	18	15	30	28	5	32	37	28	38	49	32	7	20	15	4	10	27	28	10	31	37	20	7	4	4	5	8	7	13	25	29	24	10	7	7	8	9	9	6	4	3	1	5	4	5	3	3	0	3	4	5	6	5	4	3	1	0	0	1	2	1	1	4	8	8	8	6	2	0	0	4	4	4	8	4	0	1	4	7	4	7	4	29	49	62	75	85	87	78	50	11	17	23	14	8	3	5	12	14	81	109	55	8	8	3	8	7	45	139	175	97	19	14	8	2	14	15	8	2	0	4	14	0	62	116	114	117	139	101	118	61	15	5	8	4	19	26	43	60	73	97	106	58	18	4	8	3	3	6	5	4	5	6	5	4	3	1	3	4	7	7	5	5	3	1	7	8	4	4	4	5	3	4	0	4	7	10	10	5	4	7	8	8	8	8	4	4	4	4	3	1	4	3	4	2	2	3	3	1	3	3	3	12	11	38	89	36	80	17	127	78	83	94	68	80	14	8	5	34	55	66	93	48	15	13	3	4	4	4	4	5	6	5	2	1	4	14	4	48	78	73	65	59	48	23	3	21	56	46	43	80	19	15	5	10	8	17	6	59	125	147	104	36	
4	2	3	3	5	8	30	70	55	47	40	17	18	16	21	41	16	22	23	10	18	29	25	20	12	1	13	11	9	19	6	4	4	9	27	24	27	20	7	2	1	2	1	4	3	4	7	4	7	11	4	1	8	12	17	21	10	1	5	5	5	7	5	5	8	14	18	13	14	7	9	13	17	14	10	7	15	7	1	1	1	3	4	3	1	3	5	6	5	5	2	6	7	5	6	5	7	5	2	4	3	4	0	1	3	6	4	3	1	2	5	4	4	4	5	11	11	12	10	7	15	9	4	7	5	4	9	9	11	18	5	16	23	20	3	23	28	13	8	5	3	16	21	14	8	1	13	21	8	12	44	63	25	35	38	24	25	21	24	32	10	17	20	23	18	43	29	14	15	7	4	10	8	7	3	5	10	18	28	20	17	15	6	13	17	5	3	5	12	31	31	20	43	47	17	34	38	24	21	22	29	30	15	22	39	27	12	17	0	31	29	13	1	7	8	10	6	14	23	42	38	21	9	33	37	21	13	18	26	26	15	20	15	7	26	44	8	39	23	17	6	26	28	7	2	3	24	43	28	12	10	9	8	4	14	15	8	9	5	7	4	5	8	10	21	22	8	33	21	8	7	6	17	15	8	11	19	14	4	5	2	17	28	21	5	11	23	17	14	12	7	19	12	5	2	9	12	12	23	20	5	26	25	8	9	14	6	8	28	25	13	22	18	8	16	11	13	20	20	20	22	26	16	13	5	32	39	31	46	45	19	20	12	36	36	19	46	22	9	13	6	9	12	29	8	22	19	6	21	15	12	38	39	37	46	29	9	48	77	38	20	28	22	21	24	22	22	29	15	7	8	5	16	17	13	31	29	9	36	41	24	29	52	40	16	13	13	7	13	31	23	9	27	36	31	14	2	4	4	5	1	13	28	19	27	17	4	3	3	4	2	4	8	10	9	10	6	7	7	2	1	4	3	2	6	6	2	0	0	0	0	0	1	3	3	4	6	0	9	7	1	0	0	5	5	5	6	2	4	4	6	10	14	20	59	107	142	163	168	171	179	183	171	136	78	28	5	9	7	8	13	29	89	98	57	18	19	12	6	10	19	49	148	168	118	90	76	55	23	14	19	17	12	10	21	18	93	115	63	38	91	88	76	29	9	5	5	6	14	8	14	25	41	65	115	94	33	5	10	5	4	3	1	0	1	3	4	3	4	2	4	4	0	4	6	7	4	5	7	9	4	1	3	2	6	4	5	5	1	5	11	10	2	8	13	8	5	3	6	8	8	7	5	4	5	6	4	0	4	4	1	0	2	3	3	7	13	12	60	64	24	41	90	39	109	90	89	106	18	8	7	37	47	53	104	100	17	18	10	5	3	1	1	3	4	5	5	4	5	17	16	78	88	58	44	39	28	13	2	21	53	41	51	75	20	13	5	6	8	14	24	107	145	88	14	19	
6	4	4	5	8	10	48	76	45	14	21	17	22	14	19	36	15	28	22	6	13	29	24	22	18	3	15	11	7	18	9	0	2	17	36	13	40	31	5	4	4	1	2	2	6	16	20	18	3	9	4	6	12	18	22	21	6	7	10	10	8	5	2	4	2	4	4	9	20	8	8	12	10	1	6	4	12	8	5	7	7	5	6	9	8	5	3	0	6	4	9	10	6	3	4	5	5	4	4	3	2	3	4	3	6	2	7	4	1	4	5	1	1	3	2	8	10	10	10	3	12	9	4	6	2	4	7	9	11	15	6	11	24	23	2	22	31	16	6	8	4	13	20	15	8	3	15	24	5	17	55	63	9	42	40	30	27	11	27	35	12	10	14	22	11	36	23	21	23	14	10	12	8	5	5	4	7	14	25	15	15	15	12	4	20	12	5	6	13	32	19	22	41	29	3	20	27	22	7	11	20	22	5	38	42	17	13	16	9	17	33	24	11	7	8	15	8	22	11	46	40	18	6	30	39	25	16	13	20	26	5	11	5	7	24	32	24	30	24	11	18	18	20	9	4	5	20	28	24	14	2	7	11	11	10	20	11	5	21	25	19	1	11	14	23	23	10	31	27	6	11	7	11	14	7	18	18	7	2	5	8	13	34	21	2	13	26	12	12	11	7	19	10	2	2	8	15	27	46	40	32	37	17	5	18	14	8	12	25	17	15	24	29	18	18	20	14	8	10	16	21	24	20	29	4	36	32	17	42	33	21	23	17	37	33	19	45	24	17	18	10	11	15	25	2	23	13	13	18	10	8	27	38	36	29	17	13	55	73	36	26	40	28	21	22	22	18	22	12	5	8	9	12	20	15	28	24	15	32	37	27	12	48	43	16	7	12	8	10	29	28	17	9	25	41	33	10	7	1	5	2	18	32	12	24	22	2	4	0	2	4	7	10	10	12	17	13	1	7	7	5	5	4	4	4	4	3	0	0	0	0	1	4	3	3	5	5	6	7	5	1	1	2	8	7	4	2	3	4	3	5	7	15	37	87	116	114	118	115	104	104	113	133	150	130	72	21	6	14	8	14	30	97	108	65	22	21	11	10	18	21	17	65	138	153	144	132	131	108	62	23	12	21	8	17	30	111	110	44	7	25	37	27	5	6	2	4	8	12	13	12	14	20	21	100	120	61	12	24	15	9	10	8	5	5	7	7	6	8	4	4	4	4	4	0	7	7	6	2	7	4	0	3	2	4	4	7	4	3	4	11	11	6	14	14	8	4	2	2	2	3	4	5	7	8	7	5	4	0	4	3	1	5	5	3	4	10	8	17	49	49	57	69	27	109	53	104	121	24	27	25	13	39	60	97	142	66	7	10	4	4	4	2	2	4	5	5	5	8	17	26	98	97	50	23	14	15	7	1	23	51	18	59	59	10	9	7	6	14	18	33	109	125	61	26	24	
4	9	1	16	10	35	71	63	18	11	13	22	28	13	21	26	9	23	13	7	4	24	30	31	21	4	16	8	6	14	11	3	1	20	41	12	44	41	4	8	0	5	2	4	18	33	33	35	14	7	2	10	12	22	34	23	4	10	12	11	3	4	4	5	1	3	4	10	17	9	4	8	4	4	6	15	14	5	3	2	4	7	9	11	13	11	5	3	7	2	9	6	5	1	1	4	7	8	8	8	8	7	3	3	6	2	7	4	3	4	8	5	2	2	1	5	9	8	10	10	11	11	8	4	2	4	5	8	10	13	8	7	22	23	7	17	31	20	5	11	7	7	18	19	9	1	15	23	10	28	55	39	14	41	34	33	29	6	22	28	8	3	12	15	14	31	12	13	8	17	18	15	5	6	5	7	7	12	26	12	20	17	19	12	8	16	12	2	15	31	10	29	32	12	5	15	20	24	9	13	21	14	22	51	28	15	15	15	19	16	26	32	26	17	4	17	3	19	25	53	32	7	4	15	35	25	12	8	16	24	4	7	4	12	17	18	24	17	17	7	13	11	11	9	3	10	21	16	15	13	7	5	6	19	10	16	18	21	25	25	32	12	7	8	18	19	9	24	26	4	12	12	15	14	7	16	3	8	8	7	12	19	30	13	6	9	23	13	18	15	16	18	8	5	3	10	24	43	49	18	40	46	18	11	26	12	15	20	23	8	18	14	21	26	32	27	13	2	13	15	19	21	18	40	20	31	36	21	35	10	22	21	17	35	31	27	43	28	13	9	5	8	12	19	2	19	11	12	16	10	6	10	9	0	10	12	21	50	63	34	35	51	24	4	17	13	14	20	7	8	10	17	4	21	21	25	18	17	24	27	29	3	38	45	20	2	13	10	4	14	32	37	27	8	28	41	21	7	4	7	5	19	34	13	20	24	3	5	2	3	1	9	13	9	5	17	17	7	4	9	8	5	4	3	1	4	4	0	0	1	3	4	4	2	5	2	3	6	4	3	1	4	3	10	8	2	3	3	1	0	5	5	4	31	68	89	89	58	26	24	24	5	38	79	108	90	55	23	12	24	26	35	100	156	114	68	95	89	73	40	14	11	19	25	58	84	95	124	150	153	127	73	26	34	60	95	119	92	34	6	2	5	4	4	5	5	8	12	15	16	15	10	10	7	61	126	116	46	10	26	27	25	23	21	20	20	19	15	8	4	5	1	3	8	9	7	7	3	2	5	4	0	1	1	2	4	2	3	3	3	8	13	14	14	8	4	3	2	3	6	5	3	4	4	4	4	4	4	4	4	4	4	5	2	5	6	10	15	12	9	52	101	68	50	119	48	95	127	35	11	18	8	17	48	69	156	116	26	10	4	3	2	5	5	4	5	1	3	10	18	22	107	117	44	34	18	18	12	10	36	60	13	74	45	9	10	7	3	18	18	34	93	111	69	22	11	
4	7	8	18	9	70	83	32	12	21	11	12	29	15	15	14	16	15	4	6	4	14	31	34	24	18	21	12	11	13	12	5	3	22	44	21	43	50	17	3	6	7	4	12	29	34	21	40	24	7	2	14	1	30	37	18	4	13	8	4	11	8	10	4	8	13	12	12	16	12	6	7	5	7	15	15	7	5	5	6	4	2	4	2	7	13	7	3	6	4	13	4	8	5	1	0	2	2	1	3	3	3	5	4	1	5	5	2	4	4	5	6	0	0	2	4	7	5	8	11	10	11	7	3	4	0	4	9	12	12	4	12	19	19	11	13	30	21	0	12	8	4	13	19	12	6	14	18	19	32	41	20	18	36	33	33	23	5	18	29	19	17	13	8	12	28	12	14	15	17	21	14	2	4	7	7	5	13	24	15	21	12	14	18	2	20	18	8	17	28	19	31	24	6	6	10	17	29	24	17	20	7	44	49	10	25	18	20	26	16	17	26	31	31	12	11	5	8	31	48	21	7	3	9	25	20	7	5	13	20	4	7	3	8	15	15	14	10	12	20	5	7	7	11	4	15	23	13	11	9	4	5	2	24	15	19	27	21	13	12	22	20	10	11	25	17	7	17	22	9	13	20	17	8	13	13	13	13	7	7	12	14	20	8	1	5	19	12	17	12	16	18	8	9	3	13	29	46	37	10	41	43	21	14	35	15	25	29	22	4	22	13	10	15	21	15	13	10	17	23	20	14	8	35	30	14	30	22	28	5	25	15	14	33	18	28	43	25	4	7	6	1	5	13	10	11	8	7	13	13	4	16	22	19	17	13	19	33	55	37	44	50	13	10	17	9	16	17	5	13	8	19	3	14	25	33	27	15	20	21	21	12	32	43	27	8	19	17	5	8	14	22	30	29	30	25	19	15	5	10	8	17	36	18	16	25	5	8	5	7	2	5	15	14	1	15	15	10	7	0	4	1	2	0	1	4	3	0	1	4	3	1	2	4	7	2	6	4	4	3	1	3	2	8	7	4	4	4	4	3	1	6	10	29	62	103	143	157	144	130	110	66	15	50	88	109	120	107	71	40	28	21	28	125	163	153	151	134	142	134	105	99	124	129	96	48	5	43	72	107	146	149	120	110	118	125	101	53	18	4	4	2	2	5	7	8	10	9	11	12	12	10	5	8	25	93	145	133	78	23	8	11	4	13	13	5	4	7	4	5	8	5	7	9	13	11	5	1	0	3	4	3	1	3	4	2	4	5	2	1	5	11	13	8	1	3	4	2	6	4	5	4	6	4	4	4	3	2	5	4	4	4	2	2	1	5	6	11	16	18	17	97	100	52	110	55	70	126	62	31	31	14	14	40	17	129	141	49	4	5	7	8	7	2	4	7	2	3	9	22	8	93	154	74	21	23	18	13	15	63	73	41	95	37	20	14	5	11	25	8	77	108	89	47	12	6	
4	7	10	8	36	88	64	10	39	33	28	16	23	9	9	4	10	7	5	7	9	10	29	26	17	24	24	17	18	17	11	6	4	28	47	18	35	48	23	4	5	8	6	21	36	24	13	30	28	23	14	14	19	41	27	8	4	8	13	7	13	4	15	3	12	5	7	11	19	17	6	5	10	10	8	2	7	6	1	2	4	4	5	7	8	12	7	3	5	5	11	7	4	8	5	2	5	7	7	4	2	4	5	4	4	4	2	2	4	5	7	9	8	5	1	4	4	3	4	4	3	6	4	5	3	3	4	11	16	13	9	18	16	14	10	13	30	22	5	13	13	5	8	17	15	17	20	11	15	36	43	24	14	41	41	29	14	4	13	35	27	14	10	8	14	32	22	11	17	16	17	9	3	2	4	4	4	10	19	12	12	6	12	21	2	23	20	0	15	17	19	26	14	2	5	3	6	21	27	22	17	17	51	32	23	36	25	23	21	12	10	17	21	28	21	1	8	8	27	38	17	4	7	11	15	17	7	8	17	16	4	7	7	10	15	18	19	24	5	30	12	10	4	13	4	14	26	20	11	7	4	4	2	27	20	24	33	21	31	30	8	13	13	22	39	20	22	13	20	17	17	27	18	11	17	12	12	7	4	6	5	2	13	11	3	4	19	19	17	22	9	15	12	10	8	9	26	44	36	15	30	40	23	25	46	18	39	39	20	10	25	17	1	3	11	7	4	6	15	22	14	2	14	29	27	3	15	19	24	16	29	18	17	32	9	32	39	14	12	2	5	5	9	15	18	8	6	8	4	17	11	18	18	11	17	7	19	19	37	32	41	35	5	13	17	9	16	13	12	4	14	17	7	8	20	35	35	11	18	18	9	10	22	30	34	12	25	29	15	19	21	17	8	16	28	20	4	8	15	11	7	13	36	27	10	27	11	10	4	7	6	3	14	17	1	15	14	9	6	5	5	4	5	6	6	7	4	2	4	2	2	4	4	3	7	3	8	4	1	0	1	3	4	5	3	6	7	6	7	7	6	7	7	5	12	29	63	107	136	147	152	135	82	50	27	46	101	150	171	170	165	164	146	78	28	62	63	52	93	141	164	161	159	160	172	159	110	53	13	17	65	106	120	113	96	66	33	11	8	4	3	4	4	2	3	5	4	1	0	3	4	5	8	8	7	28	89	141	149	110	95	101	95	68	47	49	56	53	39	22	4	9	13	10	11	19	24	19	10	3	4	10	10	8	5	5	8	4	3	1	4	5	6	5	4	1	1	4	6	2	3	3	5	5	7	6	2	3	3	4	3	4	1	3	4	5	1	5	12	21	10	56	84	51	81	49	51	129	94	31	26	16	5	33	20	88	146	77	7	13	5	5	2	0	4	7	3	7	5	20	25	44	150	120	12	13	7	11	23	95	78	70	111	29	21	15	5	20	22	55	133	122	71	25	4	5	
6	3	5	10	54	75	31	43	46	27	29	13	13	9	20	19	18	11	6	7	11	15	23	13	14	18	17	14	24	24	12	4	10	38	46	12	36	49	25	4	6	8	9	33	36	9	13	11	29	32	29	12	33	40	19	7	2	5	10	3	13	3	15	6	15	15	5	4	18	25	15	5	8	13	13	11	10	7	7	0	4	2	3	5	7	7	4	4	3	2	7	10	4	7	8	1	9	5	7	7	3	5	5	6	3	2	4	4	4	4	8	12	8	10	7	5	2	1	3	4	4	1	4	4	1	3	3	5	16	15	15	16	11	7	5	20	29	18	6	7	15	8	4	12	18	24	22	13	5	31	50	39	12	52	44	20	8	7	8	41	38	7	13	11	7	33	29	8	8	10	11	4	4	4	0	4	5	7	11	7	7	5	12	24	5	23	21	12	15	5	12	14	4	6	4	4	4	7	11	15	15	31	54	24	31	41	28	19	15	10	7	13	20	27	22	6	8	14	26	31	22	4	10	13	13	17	8	17	19	11	4	4	5	3	5	11	23	33	4	34	14	11	0	15	6	10	21	27	21	12	4	0	9	28	22	20	34	32	41	38	31	14	16	42	47	25	35	13	20	23	13	31	30	21	24	32	38	34	14	8	5	5	13	15	7	5	21	24	7	22	11	20	21	12	7	4	22	43	47	34	21	29	21	38	44	14	48	46	21	9	27	26	7	2	4	15	19	15	14	18	14	6	12	24	25	8	3	14	20	17	35	33	21	25	21	33	33	3	13	3	3	4	10	11	14	16	12	11	8	8	14	10	13	34	34	31	31	18	20	17	45	28	18	14	11	8	13	5	6	10	20	15	5	2	10	21	38	15	17	18	7	11	17	23	39	22	34	40	18	21	29	34	26	25	18	2	9	16	20	10	4	14	28	31	2	24	20	9	3	7	8	2	12	20	4	18	17	10	4	1	1	2	5	8	7	7	6	4	2	3	4	2	4	0	5	6	8	3	3	0	0	0	3	4	2	4	4	5	7	9	11	13	14	13	13	16	12	5	22	42	91	136	135	132	126	103	55	42	100	130	143	154	162	143	86	43	43	55	41	5	57	80	69	60	97	146	163	132	72	15	20	29	34	38	25	2	8	1	10	8	4	1	3	3	4	2	2	5	5	5	2	3	6	4	6	10	9	58	119	129	129	132	144	143	108	86	96	108	105	92	67	35	10	9	20	27	18	4	11	8	3	6	8	14	10	5	5	3	4	3	4	3	0	4	4	2	2	3	4	6	4	0	4	5	6	5	4	5	3	4	3	3	2	2	3	5	4	3	7	17	16	31	44	30	50	31	48	128	105	19	19	11	5	18	27	49	139	112	16	21	12	1	2	0	4	5	4	5	3	10	24	17	117	135	41	10	5	17	32	115	65	84	109	26	16	10	11	26	5	101	154	69	18	8	2	4	
3	8	11	17	60	54	16	41	28	12	28	19	5	15	19	12	19	18	11	4	3	11	12	9	10	5	2	13	29	30	15	10	21	46	44	14	39	51	28	13	14	16	20	38	28	5	7	18	23	34	41	9	36	34	12	14	10	13	15	13	17	11	10	16	4	14	10	7	11	24	27	15	4	6	13	11	4	4	8	5	7	5	4	5	5	1	4	6	5	4	5	8	5	7	5	4	9	1	10	7	2	4	1	2	5	5	5	1	7	5	10	15	1	14	10	0	1	2	3	0	1	4	6	4	2	3	5	3	7	12	14	12	8	1	15	29	28	14	4	4	16	11	2	2	12	18	12	17	14	17	54	50	19	60	36	12	5	10	4	47	45	10	27	17	17	28	29	12	7	7	7	5	5	2	0	4	6	4	8	8	8	7	13	25	11	16	15	8	10	2	13	10	6	5	2	3	0	4	2	10	8	32	53	28	26	42	29	13	10	7	5	13	24	33	28	14	12	20	30	28	19	8	7	10	12	17	10	17	12	0	4	4	4	4	5	6	20	34	9	30	12	12	5	17	11	4	15	26	24	17	16	10	11	27	19	8	17	31	32	37	42	11	10	54	49	25	44	21	21	27	8	17	26	19	21	30	23	35	27	13	4	5	30	35	24	18	25	18	14	33	27	26	29	15	8	9	9	26	33	31	23	8	17	33	28	12	49	49	25	1	20	27	17	7	13	26	29	31	21	17	12	1	13	22	21	8	4	14	21	12	31	42	20	19	28	25	20	8	15	8	6	6	12	8	13	22	12	8	12	4	5	7	13	33	23	35	45	38	19	19	50	33	42	20	3	8	10	2	2	10	16	11	1	3	12	8	31	19	18	16	3	9	15	17	31	22	36	39	8	10	13	16	24	36	47	41	20	21	21	11	13	21	28	26	10	15	18	8	5	7	8	7	8	24	8	19	21	9	2	5	5	5	6	2	2	5	4	7	5	7	5	4	5	4	1	2	5	2	3	0	0	0	5	5	5	5	1	4	5	8	10	9	8	7	5	8	17	24	31	28	13	56	76	89	100	123	142	122	98	89	84	78	79	96	75	20	25	61	93	105	74	34	22	19	12	35	90	140	137	71	1	20	7	1	5	8	2	7	11	4	5	1	5	4	4	3	2	4	2	8	2	3	5	8	10	2	17	4	45	64	66	58	69	103	106	73	74	87	104	108	108	99	55	64	96	125	132	101	46	17	42	61	48	7	17	9	2	3	4	2	4	2	3	5	2	2	2	3	7	8	7	5	3	3	2	4	4	5	4	0	2	1	2	6	6	1	4	6	1	8	11	19	19	18	34	15	55	127	98	10	22	10	8	8	26	12	114	138	60	10	14	8	4	1	5	5	5	5	3	5	12	3	83	134	66	10	9	21	41	111	49	103	91	18	10	13	15	12	38	132	132	30	25	7	7	7	
4	5	10	25	61	41	15	29	13	5	19	21	17	17	17	18	31	29	18	16	7	11	7	3	6	15	26	29	30	25	12	7	30	51	40	5	34	51	33	12	7	6	21	34	15	7	6	23	15	33	49	12	38	35	4	13	19	12	13	14	18	21	9	8	15	19	10	3	2	10	29	24	2	5	5	7	7	9	9	5	5	5	2	4	1	2	1	4	6	5	4	7	2	3	3	4	6	4	9	1	8	8	7	5	5	5	1	7	8	4	9	15	6	12	8	2	2	4	7	5	4	5	5	7	6	2	4	2	0	3	4	7	5	10	26	28	19	9	4	10	17	13	7	8	15	13	8	20	18	12	58	53	26	62	30	8	5	13	2	50	49	14	38	10	14	17	27	16	7	6	7	8	6	3	3	2	4	7	8	8	5	4	12	22	17	17	12	5	7	5	9	7	8	4	2	4	3	3	3	11	5	25	44	27	18	39	30	7	3	1	1	8	24	42	38	12	16	24	38	29	13	5	10	14	10	8	11	11	5	4	5	4	2	2	4	6	13	28	16	21	7	11	3	14	13	6	7	24	24	13	17	18	8	22	17	1	11	21	5	40	40	8	7	50	51	10	38	26	17	27	25	6	14	14	18	21	6	21	26	21	13	22	40	28	23	34	29	10	21	31	20	14	36	21	5	10	7	23	25	11	8	21	29	21	12	12	46	49	25	11	20	28	22	3	32	35	18	41	30	23	17	12	24	29	24	10	0	18	25	6	32	44	11	11	12	5	8	15	14	9	14	11	15	15	11	18	11	11	11	5	5	6	20	35	15	16	30	45	35	25	54	17	51	36	19	10	3	6	6	10	20	24	13	6	8	7	18	12	14	7	8	21	24	17	15	17	31	34	9	11	5	4	4	24	43	58	56	28	10	8	21	29	29	22	9	11	15	7	3	7	9	10	7	26	11	16	21	12	6	3	4	5	4	6	8	10	7	14	10	7	5	5	7	8	5	4	5	6	5	3	2	2	7	7	5	8	5	6	5	4	4	2	1	3	2	1	4	7	10	16	15	18	8	15	11	45	96	136	158	164	165	165	155	126	78	38	48	59	24	60	73	54	39	24	24	26	13	68	137	142	70	2	22	14	8	8	12	8	8	1	5	6	5	1	0	2	6	8	6	5	4	3	5	5	13	13	7	13	12	11	10	5	9	18	60	55	48	42	41	54	75	119	124	122	128	128	136	139	106	63	114	128	135	78	12	26	14	6	7	4	3	2	1	4	2	2	3	2	5	9	8	5	4	4	2	5	5	1	5	5	1	1	4	4	4	4	2	5	6	3	4	9	8	10	27	13	61	132	95	7	20	11	10	5	17	16	72	106	91	49	2	10	3	2	6	6	3	6	0	4	8	10	57	126	83	15	15	23	49	92	34	107	65	17	10	10	10	41	96	134	85	5	14	6	13	7	
2	4	17	50	68	38	25	31	13	8	13	7	18	24	20	23	30	23	12	21	23	20	13	10	19	32	32	32	24	12	11	10	28	50	42	9	26	45	36	14	14	4	32	32	11	8	7	19	10	28	52	17	36	34	8	12	16	17	13	7	13	16	17	11	12	8	2	7	2	8	29	25	2	4	11	12	10	7	4	3	5	7	4	5	2	3	8	10	9	7	4	4	4	7	6	4	2	5	4	7	9	5	4	3	3	3	4	8	5	1	7	13	4	9	5	0	4	3	5	4	4	7	1	9	6	1	2	3	5	7	7	8	5	15	31	23	8	4	13	18	15	8	3	8	21	14	10	22	14	22	61	48	27	61	36	12	7	12	7	50	46	14	42	12	12	8	24	18	9	4	5	5	3	7	4	2	2	4	5	7	3	2	8	16	17	16	12	10	10	6	5	0	2	6	4	5	2	1	4	8	4	20	31	22	22	33	25	7	4	3	1	5	21	47	47	7	17	22	41	34	12	5	14	15	6	2	6	4	1	3	4	4	3	2	1	4	9	13	12	17	8	11	11	12	8	8	5	17	20	17	19	22	7	15	19	11	14	9	21	46	25	12	5	40	46	17	33	27	8	14	26	15	7	6	15	6	11	12	15	27	25	17	24	26	24	35	32	4	22	27	24	8	39	23	2	6	10	36	30	14	12	38	24	10	5	14	40	42	23	12	20	28	15	17	45	30	24	50	33	20	7	22	33	29	21	17	9	19	23	9	35	34	7	4	8	8	12	13	7	5	17	17	1	10	11	7	10	14	14	13	14	10	19	27	24	25	17	28	36	16	54	15	40	38	19	15	12	9	8	11	20	32	32	17	7	2	10	5	2	6	10	13	15	13	13	13	29	31	11	14	7	4	8	22	12	44	75	42	4	7	22	39	35	14	7	11	13	10	4	8	12	10	8	24	12	12	21	15	4	7	10	6	4	5	16	19	14	24	12	4	3	3	4	8	5	3	5	5	5	7	7	4	9	9	5	10	12	11	5	0	3	5	7	6	2	0	3	5	7	7	6	18	16	21	22	11	16	42	55	52	47	46	39	20	7	8	37	67	62	68	46	22	27	15	9	9	15	12	60	133	143	86	21	14	15	6	7	8	8	6	6	4	1	0	0	2	3	4	7	6	1	4	7	3	4	7	7	8	8	5	7	9	10	12	17	38	26	24	13	26	31	68	99	94	72	34	31	86	105	77	125	99	149	161	82	16	10	9	8	6	9	8	7	7	24	49	63	53	31	13	13	8	3	4	5	7	10	2	2	7	5	4	4	1	1	4	3	5	4	4	6	4	4	2	22	26	45	139	113	16	17	14	19	22	14	20	57	42	77	91	27	15	6	2	4	7	6	3	2	0	7	15	38	117	93	16	13	21	56	75	39	94	28	13	1	10	46	91	120	96	35	7	4	11	11	1	
9	11	43	66	55	23	28	33	16	5	8	6	1	16	7	22	25	14	7	10	20	22	19	20	27	30	21	17	14	5	7	12	21	49	46	14	21	40	48	31	11	18	47	36	19	14	4	13	10	22	46	21	29	28	7	11	11	17	16	2	11	8	4	12	17	10	3	9	20	24	34	30	12	4	10	8	5	2	3	7	7	5	2	4	7	9	9	5	2	2	1	2	25	43	43	26	5	4	2	6	4	3	3	2	2	2	4	7	4	0	5	12	4	7	5	1	3	4	7	7	4	5	3	10	3	2	2	4	4	4	5	11	7	17	33	19	5	8	14	17	8	1	9	13	21	15	13	26	4	32	53	33	21	51	42	21	10	8	14	52	39	16	42	18	10	7	20	16	8	10	11	7	4	7	4	4	4	1	4	4	2	2	6	13	15	8	3	5	10	8	5	4	2	4	7	6	2	1	4	7	10	19	18	12	26	26	14	4	4	4	3	8	18	45	52	11	21	22	37	36	15	3	17	11	8	10	6	2	0	1	4	6	4	1	1	6	10	4	10	14	13	15	15	12	6	4	11	8	8	13	17	24	11	11	22	16	8	2	23	35	27	24	11	41	35	5	32	23	5	6	21	13	3	10	10	5	11	5	10	25	25	22	32	38	27	22	27	10	18	22	23	3	38	28	8	3	18	36	11	23	17	48	8	18	13	15	29	31	22	7	21	29	5	28	44	24	30	56	40	20	9	33	38	30	16	17	13	13	17	19	30	19	4	5	11	8	7	4	1	4	14	17	11	10	12	7	8	8	6	4	10	12	23	15	13	25	26	24	29	13	50	21	27	37	28	27	17	12	11	10	15	20	31	29	13	4	8	7	7	7	4	21	32	31	21	8	26	23	4	9	6	7	2	21	24	34	73	48	5	12	27	44	33	1	13	8	10	11	6	10	14	7	11	20	10	8	23	16	7	22	22	14	13	6	24	29	14	34	15	4	4	3	4	5	10	3	3	4	5	7	7	8	14	15	10	8	12	13	7	4	4	4	3	2	2	0	5	8	8	3	10	14	5	11	16	17	17	17	16	16	17	19	21	23	23	18	13	35	49	52	37	24	16	12	4	3	4	9	2	53	123	157	119	34	21	16	4	4	7	4	2	3	4	3	1	1	4	2	2	4	4	5	7	2	3	4	10	7	8	10	7	13	7	12	1	16	5	11	4	14	12	11	20	24	17	8	14	42	77	69	82	46	63	151	163	124	72	41	41	31	18	15	13	24	74	103	119	131	124	93	56	58	73	77	63	33	18	28	34	22	7	6	1	0	0	4	6	1	7	8	4	2	4	5	12	38	10	129	136	33	13	9	13	20	24	42	50	36	68	127	72	8	15	5	0	3	4	2	2	4	2	13	31	114	102	23	2	30	76	57	61	88	15	13	5	28	82	114	87	32	6	9	4	11	8	3	
4	21	65	61	25	9	31	30	14	5	10	10	13	12	10	30	24	12	5	5	7	11	13	14	15	18	16	7	5	9	7	5	20	49	44	9	8	28	55	47	13	33	49	25	13	15	2	10	5	15	36	24	19	23	4	11	11	18	18	6	17	18	19	10	8	15	13	19	15	17	30	23	15	9	8	11	9	2	5	2	0	2	1	4	10	9	4	8	8	6	9	8	43	39	41	43	10	3	4	4	3	4	4	3	2	3	4	4	4	1	4	12	7	5	7	4	4	4	5	5	3	5	5	11	5	4	5	5	1	1	7	12	5	20	34	14	3	5	8	15	8	10	10	8	16	11	18	26	9	46	43	11	24	36	38	30	14	5	21	55	36	20	43	21	3	5	17	13	1	7	14	13	8	5	3	3	4	4	4	1	0	3	5	5	10	9	2	6	5	10	6	4	6	4	5	4	4	5	7	8	7	14	10	13	22	17	8	2	0	3	7	18	21	38	53	17	23	26	33	36	18	8	20	8	16	14	9	8	1	1	4	3	6	3	4	9	9	8	15	10	5	8	10	8	8	13	12	8	2	3	10	24	14	8	21	19	6	6	14	25	36	32	34	45	28	14	28	15	6	7	19	15	8	8	7	8	9	4	10	19	18	18	19	21	18	14	18	3	14	20	19	5	36	33	3	16	23	25	8	28	21	50	11	22	11	7	16	28	31	14	26	32	1	32	46	28	24	61	49	17	11	36	36	23	4	15	12	10	24	27	22	10	1	8	14	10	4	2	3	5	13	18	18	10	10	16	5	3	8	13	12	14	27	14	13	19	17	17	11	23	41	17	26	46	40	26	15	11	8	4	12	3	27	30	15	10	3	7	14	5	12	10	7	17	22	9	21	18	8	11	5	4	8	4	21	33	62	44	6	17	32	38	23	13	15	8	4	8	12	17	14	3	11	16	9	4	23	17	18	34	23	28	21	5	30	36	11	40	17	3	4	3	6	2	12	4	4	1	9	9	13	17	21	22	16	17	13	11	6	2	2	1	3	3	2	2	8	12	8	5	12	12	9	7	2	7	11	14	15	12	10	10	8	7	4	8	2	5	5	9	8	4	2	7	7	2	7	6	7	5	31	102	160	114	17	33	20	6	2	4	2	2	4	4	4	1	2	4	2	2	6	7	5	2	4	3	5	7	8	9	6	10	10	11	7	13	5	5	4	4	4	1	3	6	8	13	16	26	50	60	40	27	13	53	116	146	138	115	109	97	69	13	18	62	104	95	75	93	131	148	134	133	137	137	134	111	83	92	97	87	43	5	9	5	1	4	5	5	10	5	1	2	3	10	11	38	32	112	139	44	12	5	5	8	14	42	55	56	68	143	142	45	12	14	4	1	4	7	5	2	3	12	31	118	112	25	39	76	82	27	78	72	13	4	14	63	117	101	34	10	12	8	11	10	3	4	
13	44	71	40	12	28	38	32	18	14	16	16	20	10	21	29	17	10	7	4	7	5	6	3	6	14	15	10	3	5	10	12	27	46	33	18	20	14	43	51	19	34	38	11	21	14	8	13	6	15	29	18	13	27	21	25	25	24	22	3	22	24	11	16	11	14	20	13	17	39	42	27	15	5	7	12	15	9	4	2	2	2	2	3	8	12	17	15	8	4	13	3	46	46	35	42	12	1	4	2	0	1	3	4	5	6	4	0	4	3	4	11	7	4	4	3	4	4	4	4	4	5	2	9	4	4	5	7	3	4	13	11	3	23	33	12	8	4	3	14	12	9	3	5	15	18	24	21	25	64	43	21	29	29	25	28	21	4	30	56	35	21	46	25	3	4	15	12	1	3	5	11	11	7	3	4	7	7	5	3	1	3	5	3	8	11	3	6	2	4	3	3	7	7	2	4	3	4	2	6	1	11	18	21	16	5	2	2	0	2	14	24	20	29	48	21	20	28	32	35	17	14	21	9	23	18	5	12	2	4	4	2	5	6	3	12	5	12	10	2	7	4	6	7	15	20	10	14	8	5	5	20	16	7	20	19	7	8	10	13	17	25	45	62	54	30	13	12	11	9	17	18	14	10	10	7	3	4	12	23	24	11	7	9	10	19	23	17	21	24	21	16	26	29	12	23	17	12	20	24	24	47	12	15	10	5	11	31	39	15	23	37	15	31	50	30	23	69	52	10	14	34	34	15	10	14	12	14	17	18	8	4	6	12	21	15	8	2	4	6	17	27	27	14	16	17	7	14	15	17	19	18	24	13	16	29	15	7	13	29	28	5	30	45	34	18	5	5	11	9	12	8	23	24	10	12	11	3	14	12	4	20	23	16	16	8	10	15	4	10	2	8	4	10	4	22	53	39	9	21	31	28	16	13	8	3	2	7	15	24	16	8	10	12	10	1	19	18	26	41	14	45	27	10	35	42	12	46	22	5	7	9	7	6	17	10	10	9	13	2	21	24	25	22	17	26	18	14	10	7	5	2	2	1	3	3	12	18	12	12	15	6	6	7	5	1	3	4	6	5	4	4	4	2	2	6	4	6	6	8	12	8	4	4	8	5	3	7	7	6	24	8	115	163	97	20	17	24	14	7	3	4	0	1	4	4	4	4	1	3	4	3	0	3	3	1	1	4	5	7	4	7	8	7	10	15	8	3	8	6	9	11	10	8	12	9	12	12	16	22	20	6	14	11	18	59	87	90	95	117	123	77	87	111	106	63	32	17	39	85	103	103	88	79	101	122	115	113	109	123	101	38	14	14	5	4	3	6	8	2	1	5	11	14	15	33	65	101	117	47	13	13	8	14	4	21	29	25	38	97	178	125	21	18	7	3	2	4	8	2	5	14	35	128	121	11	83	84	13	50	74	53	19	18	34	117	127	59	8	8	4	12	13	6	4	5	
21	56	62	18	15	25	30	27	20	28	30	15	2	14	23	27	18	4	8	1	8	6	1	7	7	16	15	8	2	1	4	12	32	45	28	15	23	24	23	40	20	28	26	8	18	7	13	14	1	20	31	20	18	35	23	19	34	29	23	12	14	26	24	7	13	18	8	12	20	34	29	17	13	7	7	8	14	11	3	4	2	3	1	1	5	10	10	5	6	3	8	8	19	38	37	24	6	5	5	3	1	5	7	8	8	6	4	1	4	3	4	8	7	6	2	1	1	2	4	5	4	2	4	6	1	1	4	9	4	8	14	4	9	23	31	12	9	4	1	10	8	2	6	11	16	21	21	12	40	69	20	40	50	35	23	21	21	6	39	52	29	20	52	31	8	5	12	10	2	2	2	3	7	7	5	7	8	8	7	5	3	1	4	3	4	10	7	3	9	7	2	4	5	7	6	5	4	5	6	5	2	4	10	12	4	5	5	1	3	4	19	26	12	17	42	24	19	31	32	30	11	14	17	8	26	20	7	15	5	8	4	1	4	6	7	16	3	15	5	4	7	10	4	5	20	28	14	20	17	10	3	17	15	16	25	18	7	6	4	5	5	12	29	49	55	38	16	2	4	7	13	18	14	3	2	4	3	6	13	21	29	26	15	2	11	20	18	16	25	33	30	23	9	20	20	22	8	5	12	10	22	41	17	5	11	8	14	33	36	14	11	24	24	35	50	21	34	68	43	9	10	30	33	14	11	7	5	17	17	4	10	8	8	20	26	10	11	8	10	6	24	43	38	25	28	21	17	18	13	12	11	5	17	15	15	34	33	25	35	30	17	4	30	36	29	22	7	15	19	16	15	6	19	23	3	1	10	10	4	13	16	17	18	11	6	4	4	9	6	7	8	12	11	6	20	32	58	40	13	26	24	16	8	9	4	4	4	2	10	19	22	22	17	13	7	1	10	18	33	42	21	55	32	4	41	52	13	55	29	3	3	7	5	19	19	10	8	12	19	15	26	29	27	20	14	27	24	21	10	5	9	10	9	7	6	5	16	27	14	17	22	7	5	4	2	8	6	5	3	2	3	4	5	2	1	3	6	4	3	3	8	9	7	6	8	7	3	1	8	12	9	21	40	130	168	140	70	10	27	24	9	2	1	3	5	7	6	2	1	4	3	1	4	2	2	4	1	2	5	4	1	4	8	7	10	14	13	4	10	8	10	11	9	7	9	6	2	4	2	2	6	12	7	10	5	21	31	19	32	77	131	129	134	121	83	42	21	17	8	12	25	20	5	7	22	55	67	65	60	100	144	86	5	16	8	4	0	4	7	5	3	7	11	7	15	36	50	57	81	52	9	19	4	15	7	10	15	5	38	14	138	161	51	20	9	4	2	4	10	5	2	10	60	134	103	16	85	60	63	72	52	42	33	4	88	148	97	16	13	8	7	11	9	6	7	5	
30	63	50	7	26	23	26	26	14	21	32	25	24	19	12	24	26	4	10	3	7	5	5	11	8	20	19	8	1	0	1	7	25	43	32	4	12	12	14	27	9	25	21	8	15	3	12	14	7	20	32	21	18	44	33	8	37	31	14	10	6	10	21	24	20	18	16	7	11	28	30	18	6	12	6	11	18	14	8	9	5	1	0	0	1	5	10	12	11	7	2	5	4	5	5	3	5	4	7	4	4	7	7	7	8	8	8	1	4	0	3	4	7	8	8	7	4	4	4	2	2	4	4	4	3	4	5	10	5	10	14	10	9	20	28	12	5	5	5	14	11	7	3	6	4	0	8	1	41	56	48	67	52	24	11	14	15	9	41	46	24	20	57	35	4	2	10	6	4	2	4	4	4	3	5	5	4	4	4	7	3	2	5	3	2	4	9	9	7	8	4	3	3	4	6	5	5	7	7	3	2	4	8	7	8	4	5	4	2	6	23	27	5	12	42	25	25	38	29	23	4	17	13	9	23	21	7	14	1	11	5	5	6	4	10	16	6	14	3	4	4	12	8	5	22	33	16	15	22	17	2	16	5	18	24	13	4	7	4	5	9	4	5	21	41	39	22	12	7	1	11	24	20	4	3	6	5	10	14	9	22	29	23	9	17	17	10	11	19	32	34	30	18	15	23	18	10	11	16	22	24	30	18	4	6	14	18	31	30	7	15	7	16	41	44	8	45	59	28	16	14	30	34	15	13	9	11	18	25	14	7	7	9	20	24	13	14	8	6	12	28	47	32	12	27	22	17	13	4	19	22	17	21	12	18	41	44	32	54	49	21	5	30	33	28	29	9	24	16	6	13	12	13	23	8	5	4	7	11	15	17	7	9	12	8	7	4	5	9	8	18	7	13	18	14	28	63	44	25	27	14	7	2	4	9	2	2	4	7	5	15	21	19	14	10	8	13	21	32	39	25	59	44	16	41	59	8	62	30	7	8	9	15	26	12	3	1	13	27	29	25	27	27	25	24	37	37	26	8	5	16	21	17	18	13	7	21	36	13	24	27	7	7	6	7	11	12	12	4	4	4	4	6	4	2	4	3	2	4	2	5	12	16	12	10	7	5	7	3	10	7	11	6	39	107	165	171	116	44	6	24	18	9	5	4	4	4	3	2	4	2	3	4	3	3	4	3	3	4	1	0	3	7	5	9	14	15	10	7	10	4	4	6	9	7	3	2	4	2	1	1	7	10	13	13	21	28	17	26	28	75	85	79	59	32	17	15	10	5	6	7	8	10	8	4	9	19	22	27	55	146	129	45	8	5	5	4	3	3	3	3	10	13	8	17	45	50	48	73	55	3	18	4	13	7	7	13	4	31	29	109	159	59	15	7	6	3	4	9	5	10	55	121	129	46	27	34	74	64	13	37	50	33	44	140	134	46	7	7	2	3	8	5	4	3	2	
37	65	42	17	38	28	26	22	1	22	24	5	16	19	14	21	27	5	7	6	8	3	9	13	8	23	22	8	4	4	7	14	20	31	33	7	16	7	15	29	13	34	26	20	23	8	7	13	8	15	24	26	21	46	35	10	40	31	11	4	1	6	8	23	33	14	19	19	15	22	31	28	21	19	7	20	18	10	1	8	6	3	3	3	4	11	14	12	8	5	7	3	3	2	11	7	8	7	8	2	5	8	8	5	7	11	13	1	4	1	1	4	7	9	11	9	8	7	2	2	4	4	4	5	5	6	4	9	6	8	12	7	5	17	24	12	1	7	10	13	5	4	5	8	11	11	13	11	25	33	36	36	16	3	2	12	12	11	45	49	23	24	57	35	7	6	12	5	3	4	1	5	4	2	4	1	0	0	4	7	3	3	6	4	6	4	8	12	4	5	7	5	1	3	2	2	2	4	4	6	4	4	5	5	4	1	4	5	4	5	23	26	7	16	47	25	31	40	27	21	7	23	12	13	19	20	7	7	9	14	8	8	6	6	9	9	8	10	2	4	0	8	10	5	21	32	15	9	23	18	9	20	10	22	18	4	8	7	1	6	8	7	11	12	30	36	20	8	4	7	7	26	28	11	4	5	7	14	12	10	24	27	20	2	20	18	12	14	14	20	27	35	43	25	24	15	8	2	10	18	21	17	10	11	4	15	22	31	28	4	13	10	21	36	29	13	54	53	13	12	24	38	39	27	26	19	4	9	20	10	2	10	14	6	19	25	15	1	6	8	24	42	27	3	15	17	12	12	21	30	17	10	22	8	20	39	36	8	44	57	27	7	32	33	25	29	13	25	12	10	5	8	17	27	18	11	5	7	12	15	11	4	18	19	12	10	1	5	12	12	22	25	11	22	16	18	56	52	33	17	5	7	13	18	19	14	12	12	12	13	15	15	14	11	16	23	26	24	28	34	19	53	45	21	34	57	13	62	24	16	15	19	21	22	1	10	7	20	22	30	19	15	28	31	15	54	56	24	10	9	24	30	19	30	22	3	27	43	17	32	31	9	3	5	16	16	18	22	1	4	1	3	6	4	2	4	1	4	7	5	5	10	13	14	13	8	8	8	7	2	5	5	8	17	6	59	141	184	166	104	32	16	23	13	2	1	4	5	1	5	5	4	2	4	3	4	4	3	4	2	3	4	7	4	7	12	12	11	8	7	4	1	5	7	4	3	5	5	4	4	1	1	4	8	7	14	24	28	26	10	17	18	15	11	4	1	6	0	1	3	4	5	2	6	11	8	5	7	22	16	106	144	110	65	29	7	7	5	6	5	3	4	13	13	16	44	78	94	104	58	16	19	1	12	6	4	12	12	14	32	100	141	59	14	14	2	4	4	8	9	27	99	136	84	30	21	36	51	65	67	87	92	12	103	158	88	6	12	5	2	3	5	3	1	3	3	
41	61	33	32	52	32	19	13	5	25	22	7	18	8	16	24	19	3	4	10	10	7	14	11	8	23	19	10	5	4	8	14	14	21	29	11	16	13	23	31	19	49	30	16	26	17	4	7	7	8	11	27	28	36	24	18	35	28	15	7	8	11	17	19	26	20	0	12	18	23	31	27	18	21	27	27	11	2	10	17	14	10	8	7	10	11	4	1	1	4	5	0	1	6	10	0	7	9	11	7	2	8	10	7	4	8	15	7	3	2	5	5	4	4	3	8	13	6	4	5	2	0	3	5	5	3	2	7	8	5	10	4	5	16	20	11	2	8	12	10	3	5	4	1	2	5	7	1	11	17	3	14	12	5	6	10	11	8	48	56	17	31	56	32	5	1	15	7	0	4	6	2	4	4	3	0	1	3	2	4	5	4	4	5	4	4	5	12	7	2	2	6	7	6	5	4	2	2	4	6	4	2	4	1	0	1	2	4	2	5	19	21	17	26	52	33	20	39	31	23	15	23	9	14	18	21	13	2	7	10	5	2	4	10	8	4	1	6	3	4	3	5	8	1	18	27	17	13	20	13	10	17	3	20	21	17	9	4	0	4	7	8	11	14	25	30	19	10	4	7	6	19	22	17	10	5	10	17	4	20	31	29	17	10	25	22	13	9	8	5	13	34	63	36	14	19	21	17	19	12	10	5	3	11	12	14	21	28	29	3	18	8	30	48	26	21	56	48	5	19	27	33	28	12	11	21	17	20	18	8	8	15	11	11	11	17	21	15	17	20	28	34	19	5	15	12	9	9	41	34	7	19	16	8	22	33	27	15	37	56	25	16	37	27	12	32	34	27	12	16	7	11	31	44	33	21	15	10	9	11	6	10	17	12	8	14	1	8	15	13	11	22	7	17	20	7	37	42	24	8	5	11	22	29	31	25	19	20	23	24	23	20	20	12	13	17	23	23	22	24	12	45	45	25	27	53	10	58	17	25	16	16	10	15	4	9	8	27	17	11	14	5	23	35	24	53	60	20	10	15	34	39	21	42	30	3	31	49	21	36	40	17	5	6	25	27	24	35	10	7	3	3	6	3	3	3	3	5	7	7	4	7	2	10	13	8	4	5	4	2	1	2	2	13	29	24	22	90	151	181	154	80	11	22	23	13	7	7	5	1	4	2	2	4	1	3	4	2	3	5	3	2	5	6	1	10	9	4	6	7	5	5	5	0	4	6	4	3	2	4	4	1	3	7	5	7	4	5	4	2	8	8	4	7	2	3	4	1	0	3	4	5	2	8	11	5	7	7	21	10	44	104	134	126	92	38	7	2	1	9	22	23	10	14	2	27	38	112	156	87	8	29	7	11	9	7	14	21	12	26	82	107	65	25	11	2	4	6	11	17	33	129	131	28	60	17	67	27	123	109	112	138	29	148	137	40	17	8	7	5	5	7	6	7	8	7	
39	55	24	41	56	16	7	7	3	25	25	4	22	16	10	17	11	7	11	10	5	10	13	11	11	19	14	8	4	1	7	12	13	20	25	8	13	12	26	24	24	57	28	13	20	15	8	7	5	5	7	7	6	19	14	22	29	24	17	7	9	22	20	12	8	22	18	12	31	38	42	32	11	7	34	34	8	5	14	17	12	11	8	7	12	12	10	8	5	8	7	5	1	7	7	5	2	6	8	6	1	8	9	8	3	5	11	9	7	5	3	1	5	4	2	11	12	3	8	4	4	2	5	6	4	2	4	4	8	12	12	7	11	18	16	7	7	9	10	7	0	3	4	7	8	7	8	8	8	17	9	8	13	10	8	7	8	6	39	54	41	41	53	28	8	6	14	8	3	5	7	1	7	4	1	0	2	3	2	2	2	7	2	3	4	5	6	11	4	7	7	7	10	4	5	3	3	2	3	2	4	2	4	3	0	1	5	8	5	7	15	15	15	25	50	53	27	30	26	17	12	13	0	8	13	20	19	14	10	8	5	4	5	8	9	3	3	6	3	4	3	4	7	2	13	22	15	13	13	7	8	12	10	6	12	17	10	2	1	5	10	11	7	7	24	29	18	8	2	7	16	28	27	18	12	7	10	12	5	24	30	23	9	14	27	25	7	4	5	8	2	33	66	41	14	28	28	10	21	20	12	1	6	2	7	15	17	17	27	17	16	23	23	51	27	17	47	45	15	24	27	20	10	13	17	21	17	11	11	9	12	16	5	20	14	5	14	13	14	22	28	25	10	10	21	12	21	4	54	36	15	21	18	18	18	26	24	16	37	60	24	22	34	13	21	29	33	17	7	23	8	24	46	35	19	26	22	13	7	7	6	10	15	14	2	14	8	10	15	12	8	20	10	15	26	5	27	35	27	14	5	13	32	31	17	20	7	7	14	19	19	19	23	17	7	14	17	13	10	14	15	39	43	30	21	52	5	56	13	32	13	24	7	19	6	15	19	23	13	7	8	3	15	18	28	40	40	24	17	21	39	41	18	52	38	4	31	54	29	29	48	26	5	15	41	41	30	47	18	9	5	7	8	3	4	2	5	7	3	7	2	6	3	6	7	8	8	11	12	11	9	7	8	4	10	28	38	26	23	91	161	172	113	40	5	18	17	14	8	4	4	4	5	4	4	4	4	4	3	4	4	4	5	5	3	9	10	2	2	4	7	9	5	4	4	4	4	3	1	2	4	2	1	5	3	4	3	5	6	4	2	9	9	5	4	6	4	3	3	5	5	8	0	10	8	2	9	2	10	15	5	32	78	115	128	91	28	8	10	36	61	68	53	28	26	45	35	59	168	159	47	25	17	8	15	10	12	15	16	40	66	71	69	58	38	19	10	7	10	25	24	145	142	7	70	8	76	14	154	117	116	146	65	158	95	9	16	0	7	5	7	7	8	10	8	8	
32	43	25	41	46	13	25	22	13	22	31	10	21	20	17	16	7	5	7	1	7	8	11	11	5	15	13	7	4	4	4	7	12	24	26	8	6	11	29	22	32	57	19	18	21	15	4	9	15	15	7	17	16	18	17	22	24	18	13	7	12	25	20	2	8	15	28	31	24	30	61	48	25	24	30	34	7	8	12	10	5	2	2	6	9	7	7	9	5	7	5	5	4	4	4	5	7	8	8	5	3	8	8	7	4	7	5	4	4	3	3	9	9	8	1	12	9	4	5	3	6	1	6	4	4	3	4	3	4	5	5	2	14	22	14	2	5	7	7	7	3	4	4	8	13	12	8	7	5	17	15	11	17	10	4	7	4	10	23	30	35	31	36	20	4	1	9	8	3	5	5	3	7	4	1	0	2	5	4	5	4	7	3	3	4	1	10	10	2	5	9	7	8	3	4	5	5	2	0	1	5	4	5	5	3	5	8	5	2	5	12	8	3	8	26	41	27	20	18	10	1	8	8	11	11	7	15	18	13	8	7	4	1	7	12	5	7	5	0	5	4	5	8	6	8	16	8	7	4	3	7	2	5	5	1	12	10	2	3	7	7	7	4	5	34	36	15	2	6	9	19	29	27	20	10	7	7	5	7	19	26	19	16	25	28	17	4	3	5	6	4	28	53	43	41	41	24	12	30	21	7	2	4	1	5	15	12	8	23	23	12	27	18	49	25	13	35	36	24	17	31	17	4	15	19	5	17	26	24	14	7	8	7	23	15	6	11	8	10	24	21	12	11	18	17	6	26	7	58	38	12	16	8	7	8	28	38	25	27	64	29	22	30	9	24	17	29	12	8	19	10	29	51	24	15	24	23	15	7	9	12	8	6	12	7	7	8	7	12	9	9	20	7	20	29	7	43	42	23	7	6	6	32	42	11	27	11	12	10	11	9	11	14	14	11	16	16	3	3	9	20	38	38	32	18	52	6	55	13	41	9	36	7	27	18	20	22	16	2	5	4	3	11	10	10	15	28	30	22	21	35	34	10	50	43	14	25	54	36	23	51	32	1	32	55	36	29	54	22	13	15	19	21	18	15	20	25	26	20	21	22	24	20	16	12	11	13	10	5	0	1	5	11	9	4	7	24	38	43	26	41	121	158	146	105	53	8	25	28	15	5	1	5	5	7	7	5	6	8	5	0	4	7	4	4	8	7	3	3	8	11	4	2	5	4	4	4	4	4	5	7	4	2	4	2	4	3	1	3	4	5	8	10	9	8	6	4	4	4	6	5	10	1	10	8	1	7	9	6	2	11	11	7	53	117	142	89	28	21	78	91	88	97	80	65	63	58	32	87	157	105	30	21	11	22	8	50	85	91	65	54	41	29	30	30	30	26	16	8	35	19	153	150	4	69	14	75	7	163	110	112	117	92	135	54	3	6	8	7	1	7	8	7	5	2	11	
20	31	34	36	22	22	31	28	22	15	33	5	25	24	16	13	7	7	8	5	4	12	14	13	2	16	14	4	4	6	3	2	9	22	26	11	7	13	32	25	35	54	17	25	28	14	14	16	5	12	25	22	21	21	12	12	15	13	10	5	10	18	21	26	16	23	32	26	22	45	73	44	14	20	26	27	4	9	9	5	7	7	3	5	10	4	0	7	7	3	7	0	7	9	5	3	5	4	5	4	4	9	7	4	8	7	7	8	7	4	5	10	2	10	0	12	8	4	4	3	5	6	7	3	0	2	4	2	2	4	4	3	13	24	15	4	7	7	9	9	4	8	8	13	2	4	0	4	0	12	14	12	16	5	0	7	5	16	20	12	5	8	20	13	6	3	5	9	10	7	4	4	4	4	3	0	2	4	8	1	2	4	4	1	1	4	10	8	5	10	4	5	3	4	3	10	5	3	2	4	6	0	7	5	1	4	5	2	2	5	11	7	3	6	14	30	20	10	13	11	7	7	7	16	17	12	4	17	15	7	3	2	3	5	11	2	5	2	3	6	5	8	10	8	4	12	7	3	2	3	3	2	4	5	10	15	9	1	4	6	4	1	7	5	41	39	7	12	7	5	18	25	15	1	4	5	6	3	5	17	25	18	15	16	14	5	2	3	6	5	4	22	36	33	43	45	31	34	32	6	6	4	1	4	10	16	11	11	26	27	17	29	23	40	21	13	28	22	20	3	33	24	14	27	19	24	10	28	38	12	8	15	16	23	12	13	13	3	20	23	13	12	18	20	10	17	26	17	60	36	12	16	6	13	17	26	47	57	32	51	32	14	28	4	24	8	35	20	8	11	4	29	49	18	15	19	22	16	5	4	3	2	4	9	8	5	7	5	10	7	6	17	10	30	18	39	63	39	13	8	15	11	18	43	19	24	4	16	14	9	1	8	12	6	5	10	10	4	6	7	24	38	35	30	14	48	5	48	17	43	20	39	26	26	28	11	8	6	8	8	5	3	7	11	4	16	30	39	34	18	24	25	13	36	37	20	18	48	38	16	48	36	2	42	54	19	29	52	27	10	17	9	4	15	7	15	9	16	5	10	9	18	26	29	32	31	20	5	4	6	6	3	8	12	9	7	7	12	19	34	32	23	74	128	158	152	108	39	19	35	27	14	7	5	5	7	9	13	17	17	12	7	5	4	5	6	4	7	7	5	14	11	4	2	2	3	2	1	4	7	7	6	5	4	1	3	4	2	4	5	7	4	4	3	5	4	7	3	4	3	8	8	3	10	7	1	2	4	7	13	13	8	12	23	66	141	148	107	80	99	98	70	88	69	66	82	75	112	120	102	84	26	9	30	43	31	79	98	93	97	66	54	51	44	23	1	21	27	25	40	28	152	145	4	62	17	69	23	163	96	89	86	103	93	27	1	5	5	2	3	3	7	12	15	13	15	
34	29	25	21	3	25	10	20	21	5	29	17	26	22	13	8	4	5	9	11	9	5	16	16	5	17	11	3	3	4	7	5	15	26	26	14	7	7	27	27	26	52	17	23	32	21	7	16	15	12	31	24	14	23	9	11	15	15	14	8	11	17	21	21	23	36	20	20	42	53	56	25	10	7	19	14	11	7	5	4	5	7	7	3	12	5	4	5	6	2	5	7	6	5	7	7	4	0	3	4	4	10	2	10	10	6	7	7	8	8	3	7	5	8	1	12	7	4	4	1	3	3	4	2	3	0	3	2	2	4	3	3	12	22	16	3	7	10	15	12	7	12	7	17	11	7	7	8	7	5	7	7	10	1	3	5	6	14	18	8	5	10	15	10	6	4	2	4	10	8	5	6	4	2	4	1	1	3	5	6	4	2	4	4	1	4	11	8	6	11	4	3	1	4	1	11	4	5	1	5	5	6	7	1	5	7	7	7	5	7	8	4	5	8	14	27	21	8	11	13	5	5	3	17	8	11	6	12	15	11	2	2	6	11	9	4	4	7	7	7	7	3	7	10	2	10	8	4	4	5	7	7	5	6	9	11	4	6	4	2	4	3	4	8	40	41	5	20	10	6	13	21	21	14	6	4	7	10	12	19	24	17	13	7	7	5	4	7	5	5	5	20	21	14	28	24	28	49	33	17	14	12	4	8	15	21	17	21	32	25	14	24	23	28	13	18	27	16	21	15	38	35	16	43	29	39	40	42	37	5	20	10	7	17	14	20	26	25	32	25	13	5	9	11	7	27	18	34	67	34	18	21	12	16	15	5	12	33	23	26	31	6	27	2	27	10	38	19	8	8	8	33	45	13	13	18	23	16	3	1	5	6	7	9	7	6	8	5	10	7	5	12	7	30	4	64	55	15	15	17	12	21	9	31	15	14	4	12	14	14	9	9	12	3	1	5	8	4	7	7	20	34	33	32	26	37	7	34	35	50	30	36	35	26	24	4	4	8	12	14	7	8	8	11	13	13	16	31	43	30	14	17	11	29	29	13	19	40	34	10	43	37	8	36	55	28	22	48	38	28	52	77	100	107	104	106	105	94	88	99	107	94	67	45	32	28	33	37	36	33	33	34	33	33	31	26	16	7	4	9	19	22	16	8	55	116	157	145	86	22	17	31	31	27	23	16	25	34	24	12	25	23	16	8	5	4	3	6	8	7	11	8	1	0	2	4	3	2	4	5	5	4	4	2	3	5	7	6	2	3	4	1	3	2	3	4	7	4	7	4	8	5	4	7	7	8	8	12	20	24	18	5	11	27	35	58	88	87	49	55	89	22	65	16	40	112	175	223	243	219	155	107	105	124	129	126	166	202	138	25	26	39	46	40	39	32	15	4	23	35	69	148	122	11	52	28	57	42	158	87	55	69	77	46	11	4	4	5	5	4	5	3	4	8	10	9	
39	28	13	7	14	20	11	21	15	0	19	9	16	23	17	10	5	3	1	12	13	7	12	13	12	14	5	1	4	8	7	3	18	30	23	11	5	1	22	31	18	55	29	17	23	15	8	4	12	1	28	32	1	25	18	3	13	21	22	11	10	9	3	8	31	32	17	27	32	32	31	13	5	7	7	17	29	23	7	5	6	7	11	8	8	8	7	6	1	4	3	4	8	6	7	6	4	1	2	3	4	6	8	10	6	6	5	3	2	5	2	1	4	3	4	11	5	4	4	1	3	3	5	1	4	4	4	3	2	4	1	4	11	17	17	11	5	7	17	14	7	14	2	9	10	4	4	4	7	3	3	4	8	1	4	3	2	10	19	14	4	10	14	13	11	7	5	0	9	9	2	2	4	4	7	5	3	5	6	4	3	2	1	4	4	7	13	8	7	11	7	3	1	3	2	7	5	3	3	2	3	2	3	6	4	4	3	5	6	5	3	6	8	8	13	21	19	8	8	15	4	6	4	16	8	6	5	5	15	17	5	2	4	8	2	2	6	6	3	5	4	2	6	8	4	7	7	2	1	1	3	4	3	3	4	5	3	7	2	2	5	4	1	8	34	40	13	30	24	20	10	8	19	20	12	5	8	17	7	17	20	6	7	9	5	4	10	9	6	1	8	22	12	12	19	3	27	44	24	22	20	22	13	12	22	29	18	19	26	14	7	8	10	14	5	29	34	22	27	17	41	41	18	52	31	24	34	29	17	12	22	2	8	17	25	16	27	22	19	11	10	14	16	12	7	27	12	46	60	15	23	22	17	15	10	1	10	17	12	14	23	7	24	4	26	13	37	12	10	17	24	35	33	7	12	16	23	16	4	5	11	4	8	11	11	7	14	5	8	5	7	14	14	30	29	74	36	18	22	13	12	11	13	21	22	8	9	10	14	14	19	19	9	0	1	1	5	5	8	8	10	28	30	27	26	22	5	14	24	35	12	30	21	9	16	1	4	17	5	15	5	3	12	13	7	10	18	16	28	37	13	18	17	29	27	14	24	37	24	12	37	31	14	17	46	36	17	61	68	70	100	138	153	146	151	171	172	143	127	156	186	194	185	174	167	157	140	122	112	109	106	106	109	107	97	75	44	15	2	2	3	7	19	31	31	12	66	133	165	143	97	53	18	19	18	65	107	126	124	80	46	27	9	20	23	12	5	3	7	14	16	11	5	2	4	7	7	2	7	7	5	4	5	4	5	7	8	7	2	3	4	1	6	7	4	4	5	9	9	8	11	8	8	7	6	12	24	23	15	15	58	85	104	126	150	149	119	97	89	93	136	65	60	18	72	151	241	271	252	223	170	106	75	64	43	34	75	168	219	147	48	32	45	18	10	24	34	33	26	13	72	110	83	12	30	36	20	85	148	72	22	31	28	13	7	4	3	1	5	7	2	4	4	0	2	2	
29	24	10	11	18	14	8	13	6	7	18	18	18	33	27	8	5	5	5	6	10	4	6	5	7	7	2	4	5	4	4	4	10	32	29	12	5	6	26	36	13	55	38	14	25	15	7	8	19	18	31	42	26	17	14	13	11	21	25	8	5	6	7	17	25	16	21	21	17	15	19	11	5	2	11	32	31	36	23	2	0	1	5	5	2	11	7	4	5	7	7	4	3	5	3	2	5	3	2	2	5	1	5	3	5	2	4	1	5	5	3	4	3	2	4	9	3	4	3	3	4	4	7	4	6	7	5	2	4	5	4	4	8	12	14	16	15	11	12	12	3	12	5	4	7	4	3	0	5	4	3	6	9	5	7	7	5	7	16	16	7	5	15	19	14	7	8	4	7	9	2	0	6	3	7	10	7	7	5	7	7	4	1	1	4	9	13	7	5	11	7	0	0	1	2	2	2	3	3	4	6	5	4	2	4	4	1	2	6	6	3	4	4	12	21	24	15	5	5	14	7	2	8	13	6	4	6	1	11	18	7	2	5	5	2	3	2	4	5	8	1	4	1	7	10	6	3	2	5	6	5	2	2	0	4	5	7	7	3	2	6	4	3	8	24	36	35	40	29	25	25	15	2	15	17	9	12	23	13	28	28	14	10	11	12	8	12	10	6	5	12	21	5	17	11	7	26	36	11	5	18	32	18	7	30	30	15	21	28	10	11	6	7	9	11	37	33	18	21	7	42	39	21	50	26	4	5	2	4	13	18	2	8	14	32	13	7	4	6	10	4	8	13	14	10	20	3	38	48	34	26	8	16	18	10	5	10	6	11	10	15	11	22	8	23	14	36	8	7	16	21	17	20	8	10	14	20	16	10	8	17	7	10	14	14	2	11	10	10	6	9	16	11	29	50	68	18	37	26	17	12	5	21	16	31	8	16	8	11	10	17	18	14	7	4	9	6	1	5	10	5	22	25	15	9	2	9	14	22	34	28	42	30	22	23	7	2	20	7	18	9	8	5	4	8	12	23	19	14	32	11	26	26	38	41	32	22	32	12	23	34	23	10	8	36	41	10	75	85	80	104	114	95	79	82	95	93	76	39	94	91	113	135	151	150	132	100	69	57	60	58	50	45	43	39	45	45	20	5	7	6	8	9	1	14	27	17	27	91	138	156	157	138	109	101	150	151	123	150	162	163	148	110	47	16	31	19	9	7	4	5	0	6	0	2	5	8	6	8	7	5	2	6	6	1	3	4	5	3	1	4	6	4	4	4	4	7	9	7	8	13	18	19	19	22	15	12	46	78	112	144	149	149	147	140	134	127	111	85	72	131	129	86	58	118	179	136	62	17	82	111	105	120	150	174	191	193	157	138	120	49	35	48	32	15	3	12	23	27	43	73	80	89	59	14	11	70	140	121	40	5	4	3	7	7	4	3	2	2	7	7	4	3	3	4	7	
28	19	3	8	19	16	3	7	8	13	18	14	9	34	32	11	3	6	5	1	8	3	4	3	4	5	5	7	3	3	8	12	12	25	35	17	4	11	28	26	22	67	47	24	34	23	4	15	19	10	18	30	21	15	3	6	7	15	20	11	4	2	12	22	17	5	8	2	8	20	25	18	8	6	16	31	10	34	31	8	0	1	1	3	2	10	5	7	4	1	2	1	3	5	6	4	6	4	5	6	5	5	7	9	10	11	5	7	9	7	5	4	3	4	3	7	4	4	1	4	3	5	8	7	4	4	7	1	3	5	5	6	5	8	7	7	8	10	8	8	1	10	8	3	7	6	4	4	5	4	3	10	11	5	4	4	4	5	11	12	9	5	15	21	14	1	7	7	4	6	3	3	4	6	9	10	3	3	10	13	8	7	5	1	3	8	9	4	3	11	10	1	1	1	3	4	4	4	1	6	5	10	7	4	5	1	2	2	3	2	6	4	3	17	28	24	14	8	5	11	10	8	14	12	5	5	7	4	8	16	9	2	7	5	4	2	2	5	3	10	0	3	4	5	7	5	1	5	9	4	7	5	0	2	2	6	5	1	5	1	5	2	4	7	11	21	26	24	15	13	21	26	15	7	12	19	24	32	23	39	28	19	22	7	8	6	7	11	4	10	16	19	19	14	5	16	17	29	16	3	14	33	24	13	26	28	14	22	33	12	15	11	7	8	14	34	23	9	14	3	37	31	25	38	17	11	10	5	5	15	17	3	9	11	30	17	9	8	9	13	12	10	4	10	16	16	9	28	41	24	10	17	22	28	14	9	9	4	4	7	14	19	32	26	31	14	32	6	15	11	4	5	17	14	7	17	17	14	15	17	21	5	12	17	10	4	2	12	16	15	18	22	8	18	42	38	10	45	29	25	30	25	32	5	28	8	12	8	8	7	10	7	14	15	10	7	7	5	11	12	4	20	19	9	6	9	12	17	26	39	29	27	12	35	40	21	18	19	16	15	14	8	3	8	4	18	24	13	15	23	14	26	18	28	36	39	21	25	4	30	31	20	4	17	31	32	6	64	107	97	85	60	21	15	19	15	86	128	97	131	63	44	26	18	34	53	58	49	37	27	23	42	67	89	93	84	61	26	10	5	4	10	10	11	13	5	16	24	5	31	66	101	136	155	160	147	86	24	50	85	117	141	167	138	50	28	44	31	19	10	1	2	5	2	5	2	6	11	13	12	8	7	10	10	7	5	6	2	2	1	5	7	3	1	3	3	7	2	1	5	14	25	24	10	27	68	113	144	156	151	128	87	57	38	23	12	14	10	8	16	42	85	85	74	125	232	277	296	308	297	259	212	190	193	194	193	206	219	186	112	43	29	37	22	10	8	12	14	5	40	60	61	82	86	61	72	124	124	55	0	10	6	3	6	5	5	6	9	8	5	4	4	6	5	7	7	
20	14	8	10	20	15	4	4	8	14	17	4	21	38	27	7	5	2	5	3	7	3	3	4	4	6	7	7	6	7	10	14	19	25	35	13	11	18	22	13	56	72	27	25	30	23	7	15	18	17	18	16	11	12	12	3	3	12	14	7	5	3	18	22	9	4	3	14	21	25	29	24	20	12	8	30	22	29	29	14	6	5	4	5	5	4	5	5	0	4	3	1	3	5	6	7	7	6	4	0	2	0	4	7	5	10	10	13	13	9	7	1	4	2	4	8	5	1	0	3	4	8	8	7	3	6	8	2	3	4	3	2	2	6	7	3	4	11	13	10	7	12	11	3	11	7	6	1	4	1	2	11	12	5	1	5	8	9	7	5	8	7	13	16	13	7	4	3	1	4	4	4	1	3	6	6	4	8	13	10	3	4	6	3	5	8	7	4	4	11	15	4	5	7	7	5	4	4	4	8	4	8	6	0	4	4	1	4	5	3	3	6	6	13	31	28	5	8	6	5	2	7	20	15	6	7	8	5	4	13	11	1	9	5	4	4	6	2	4	8	2	2	5	3	5	5	4	7	7	2	7	4	4	2	2	2	5	11	9	5	5	5	8	5	2	4	6	7	7	3	8	22	16	1	10	24	26	36	26	27	4	20	21	16	8	1	2	11	9	7	14	15	19	12	25	27	17	12	30	23	17	25	26	19	13	29	19	20	31	15	11	14	2	8	15	27	20	15	13	8	25	21	27	28	7	7	8	15	8	22	21	8	13	12	31	15	6	10	11	13	15	13	8	8	10	13	7	20	38	37	24	7	20	30	15	7	8	3	5	14	13	25	42	31	35	15	22	5	13	9	5	7	16	17	4	19	12	13	16	26	21	15	22	22	10	3	7	10	8	7	26	33	19	17	30	14	28	38	30	22	25	31	39	25	18	5	3	13	4	11	7	2	12	23	11	8	10	5	15	11	14	23	18	8	6	11	5	9	15	11	21	15	21	48	45	32	37	12	24	8	15	10	6	8	12	24	21	7	15	17	12	23	6	17	25	34	13	16	8	29	27	17	5	24	28	14	15	26	88	126	113	75	45	52	51	52	145	175	120	161	79	62	73	77	65	44	34	45	50	58	61	72	70	74	80	60	36	18	12	5	5	10	13	13	14	14	7	12	15	14	9	5	31	60	69	41	12	27	25	24	27	15	89	152	124	42	13	20	24	26	23	20	16	11	8	8	8	8	11	9	5	3	6	8	17	21	19	12	7	10	14	11	5	3	1	5	4	2	7	14	15	8	29	76	116	142	139	115	91	69	42	10	14	19	24	26	25	24	28	28	18	13	29	31	55	122	195	252	261	224	166	113	78	60	49	36	28	37	47	42	34	33	28	14	6	8	13	18	18	26	33	40	68	99	104	101	97	53	10	18	12	7	4	6	4	2	6	6	7	6	3	3	4	2	4	7	
24	18	8	18	29	20	12	2	8	12	13	8	31	32	9	17	22	15	1	5	5	2	4	6	5	5	8	8	7	13	17	9	4	13	24	20	12	20	14	27	62	45	10	35	27	22	15	16	17	15	5	20	31	28	20	7	6	11	9	8	10	10	28	22	7	1	10	20	17	21	26	11	11	17	10	25	32	32	26	17	8	8	5	4	4	2	2	3	2	4	4	2	2	7	4	4	4	4	5	2	2	3	4	4	3	5	3	8	8	5	7	6	4	2	2	7	6	1	2	1	5	5	5	6	1	10	8	3	2	2	4	5	5	6	6	4	9	8	5	3	2	10	14	14	15	9	11	7	4	3	2	9	11	7	2	7	10	10	4	0	5	7	11	10	8	4	4	3	1	4	7	4	2	4	7	5	4	8	10	5	5	10	8	5	8	10	7	7	7	11	17	11	13	11	8	5	4	4	3	8	4	5	6	5	6	7	5	4	4	2	4	8	8	2	26	36	12	15	18	16	10	5	21	19	4	5	7	7	2	12	12	1	11	12	13	16	14	2	4	5	4	3	4	0	6	4	2	3	4	6	5	0	3	4	2	2	7	10	2	10	8	9	7	1	4	6	4	3	6	3	10	27	24	16	19	22	14	26	20	2	11	7	20	30	25	10	1	8	10	7	8	1	1	22	41	27	26	18	19	29	28	17	11	18	7	28	25	18	24	15	8	12	5	10	15	21	26	28	14	12	12	17	29	27	14	15	10	23	14	27	27	15	21	18	36	17	14	16	5	7	4	5	13	11	6	6	14	45	53	32	3	19	25	20	12	7	7	2	6	12	7	20	35	15	38	12	17	7	11	5	9	11	14	13	5	19	4	11	13	27	17	15	19	18	10	15	13	22	17	20	44	45	23	11	21	7	24	29	29	22	0	21	20	15	9	9	5	12	6	13	5	4	10	29	7	22	21	23	20	7	17	28	26	9	5	13	5	10	23	19	19	5	11	39	36	22	43	13	22	3	11	4	7	1	13	20	16	4	9	15	22	21	14	15	25	36	11	12	7	28	30	25	8	24	48	32	0	13	57	109	114	99	84	69	56	31	168	167	96	178	76	46	30	11	12	51	85	98	93	69	45	93	111	53	17	10	1	8	12	5	4	7	13	14	12	11	5	4	5	5	5	3	2	10	7	6	11	10	14	27	42	45	25	92	147	143	117	87	62	42	21	5	17	30	37	34	25	17	10	13	50	77	85	63	29	11	23	26	24	25	24	17	11	2	7	11	10	14	22	14	18	61	108	137	123	92	54	19	7	11	10	8	14	7	1	4	8	9	10	2	9	7	5	3	20	23	12	35	38	30	25	20	12	13	23	31	35	36	25	8	12	20	11	8	6	10	5	8	13	15	7	23	44	79	101	86	44	11	20	8	5	5	5	6	4	3	2	7	11	5	0	4	3	3	4	7	
25	31	19	15	21	4	17	8	12	16	18	11	30	28	22	28	23	24	12	7	5	5	6	5	4	5	8	8	2	13	16	11	12	15	19	19	8	13	14	25	56	32	15	34	30	28	18	18	15	8	28	35	33	41	34	18	11	8	7	10	10	11	34	24	23	13	13	20	5	24	29	9	3	18	20	6	15	17	14	9	1	6	4	2	0	4	4	3	0	4	6	5	3	4	4	4	4	4	4	3	4	5	4	1	3	4	0	7	7	2	8	9	3	4	0	7	5	4	3	5	4	2	4	5	8	14	5	4	3	4	1	5	9	5	1	7	9	2	5	6	5	1	10	13	8	3	7	4	2	2	3	7	8	8	4	6	9	8	3	4	5	5	10	10	7	4	3	1	0	4	7	4	4	3	4	4	3	7	8	1	7	9	7	4	7	8	6	10	7	10	14	11	12	8	7	7	8	5	5	7	0	4	5	7	2	10	5	9	8	7	5	5	7	5	16	34	17	24	21	12	11	2	16	21	9	4	12	10	5	13	12	3	13	24	23	27	30	20	13	7	1	4	5	3	4	4	1	5	5	3	1	1	3	2	4	4	3	8	12	15	15	11	5	6	5	4	5	1	6	4	22	37	28	17	14	13	5	12	17	15	4	13	21	25	32	18	3	5	7	8	7	7	17	39	51	27	33	35	8	20	34	21	8	17	8	27	33	20	17	9	5	9	9	9	11	19	38	33	21	23	4	26	34	24	23	25	2	18	22	31	24	11	19	23	26	8	15	15	5	7	5	9	13	6	7	11	31	50	30	7	21	25	14	9	7	7	8	5	4	11	14	29	32	16	52	23	25	13	15	13	10	11	12	8	10	18	5	13	10	25	11	5	13	8	14	30	24	30	26	30	43	31	7	8	11	8	22	29	28	15	18	31	20	11	11	7	10	10	11	15	1	4	7	33	2	32	15	34	26	5	7	17	32	31	19	18	4	14	16	12	8	7	9	28	29	10	31	18	15	4	14	12	11	12	23	21	4	13	10	21	34	32	19	11	24	41	25	17	14	28	27	18	23	24	40	60	38	40	60	86	100	109	83	47	74	37	195	170	101	232	125	75	82	17	41	44	26	24	21	41	80	99	91	56	16	10	11	12	17	15	12	10	13	16	20	20	14	8	5	8	12	12	7	8	22	21	10	3	10	16	17	14	14	40	101	148	170	170	161	150	132	95	47	20	25	32	36	38	29	48	101	120	135	138	130	109	71	32	10	8	7	21	36	26	28	27	22	5	18	59	110	141	141	107	52	12	12	14	10	11	12	10	10	6	4	4	5	5	2	4	2	6	8	5	14	24	1	30	30	22	16	15	21	21	14	5	6	18	19	20	19	11	4	4	3	5	2	4	8	5	6	13	33	33	9	27	30	17	3	15	19	16	5	8	12	12	10	13	10	3	4	4	1	3	4	0	
17	29	26	26	34	35	29	16	15	22	32	25	9	25	25	9	15	19	19	11	3	4	1	3	2	4	7	4	11	11	6	10	11	14	15	16	13	7	16	14	56	46	10	28	32	36	18	11	14	20	38	27	2	28	39	32	20	11	7	9	10	15	39	24	23	23	10	10	17	31	28	12	9	9	20	18	10	7	8	10	7	5	4	3	3	3	2	2	3	4	4	5	5	6	5	4	4	3	1	0	2	4	2	1	1	3	3	5	8	2	7	10	7	6	4	5	7	8	4	5	5	4	4	3	8	10	2	7	3	5	4	7	9	2	5	8	5	5	7	2	4	7	6	4	2	4	5	5	3	4	8	8	5	4	3	3	9	11	4	4	3	3	9	8	5	5	5	4	0	3	6	2	4	7	6	2	0	4	8	8	8	7	3	4	4	7	10	11	3	8	8	7	8	7	5	4	6	7	10	3	7	7	4	6	2	8	3	8	5	4	3	3	4	7	10	24	14	24	11	12	12	7	14	25	21	3	16	10	8	14	10	4	16	36	27	23	31	28	20	11	5	3	2	3	2	3	5	0	3	7	10	10	5	1	10	10	6	5	10	14	14	6	7	8	4	3	5	2	5	15	33	37	18	8	5	8	4	6	13	18	7	21	17	19	36	20	4	4	1	2	6	8	27	50	46	17	31	39	25	5	29	28	18	27	16	32	42	24	13	5	4	10	13	13	5	13	41	31	15	28	13	37	25	15	28	29	5	5	13	25	14	8	7	12	10	12	13	4	5	4	5	11	10	2	2	11	34	30	20	31	28	17	3	7	8	10	5	12	11	16	21	39	34	28	60	15	24	12	18	16	14	12	13	7	12	18	4	12	8	23	12	7	11	16	38	41	28	31	25	11	27	25	5	8	10	7	21	23	24	12	21	23	9	8	11	8	15	14	12	18	2	5	8	29	3	33	7	34	27	6	13	7	14	33	33	27	1	20	11	21	7	16	10	19	25	4	20	12	2	5	13	14	9	27	37	20	21	27	31	40	24	17	15	7	14	34	35	22	10	30	28	8	22	48	36	66	62	18	55	66	80	92	79	97	91	51	216	189	83	268	192	41	124	60	77	60	20	21	27	48	58	77	125	150	107	34	16	20	23	27	26	20	16	17	22	25	17	8	14	20	27	37	49	72	98	109	89	47	10	24	31	31	29	29	39	58	76	93	106	121	140	147	129	96	62	41	21	4	24	74	105	62	10	33	91	140	158	147	122	99	83	83	86	73	73	20	41	78	120	151	150	117	70	27	5	8	7	5	6	5	8	10	10	11	9	6	3	3	2	2	3	4	6	10	6	17	24	21	11	3	7	13	20	29	36	36	34	34	31	24	14	5	3	3	3	4	2	1	5	5	4	32	72	107	120	74	6	30	29	25	24	20	21	9	16	26	28	29	18	12	10	5	2	5	9	8	
17	20	12	21	29	29	23	15	10	12	19	28	19	8	11	23	25	13	15	15	5	4	3	2	2	5	5	4	7	1	5	5	5	13	19	20	13	1	19	6	43	49	18	36	40	34	8	14	10	13	37	39	21	9	35	41	27	14	11	15	8	19	41	24	8	14	12	7	12	22	19	8	9	5	12	24	21	11	8	7	4	2	3	5	2	5	5	6	5	4	2	4	4	5	6	8	7	4	4	3	0	4	4	4	4	3	3	4	8	3	5	5	6	4	4	4	7	13	8	2	3	5	4	1	7	10	4	7	3	4	3	7	8	2	7	5	0	4	7	8	10	11	7	7	6	5	4	2	4	8	10	7	5	4	5	4	7	11	3	4	2	2	5	8	8	6	3	7	2	4	8	3	6	4	4	4	1	2	7	10	7	4	4	6	7	5	10	11	4	8	4	4	5	7	7	4	2	11	9	6	11	8	7	3	1	4	2	7	4	1	2	0	1	2	5	13	12	21	7	20	13	9	12	25	31	16	10	8	11	11	7	6	19	43	27	12	21	21	17	11	9	7	4	6	7	2	5	2	3	10	14	20	19	12	9	3	2	10	15	17	14	7	14	8	2	3	5	5	9	21	35	33	12	13	2	7	4	6	12	13	6	22	17	30	42	17	7	7	7	10	10	18	44	49	20	9	16	29	38	19	12	24	24	37	17	36	46	24	8	4	4	13	18	12	0	5	33	38	31	21	22	36	12	10	34	33	8	7	14	22	8	14	9	8	8	7	4	5	7	6	9	10	5	6	4	15	25	14	26	29	21	7	2	9	8	9	4	20	19	22	26	49	31	37	53	4	19	5	10	2	6	8	10	5	10	18	16	10	13	22	9	7	11	42	50	31	12	17	28	14	31	32	17	12	16	22	28	23	18	7	16	18	15	15	15	10	16	21	14	27	13	13	15	16	3	20	26	26	21	2	17	18	26	10	41	31	7	19	14	23	14	23	7	14	29	8	17	13	3	3	11	19	21	28	27	5	39	31	33	59	38	5	7	8	7	16	25	15	15	25	22	17	21	43	63	54	44	14	35	36	28	68	121	132	62	88	213	193	49	247	260	93	140	47	88	63	10	9	15	44	81	110	133	158	177	127	69	60	58	52	46	46	50	51	51	65	79	85	79	65	55	57	65	75	79	75	85	78	40	21	23	22	23	21	14	5	10	13	7	17	46	89	122	134	124	116	116	113	101	84	63	61	80	74	48	19	73	114	125	113	98	100	98	100	121	98	129	145	139	114	71	28	5	8	2	6	7	4	4	7	7	5	4	7	1	4	4	5	4	4	5	5	2	1	4	2	8	11	7	3	3	5	8	12	18	23	24	20	15	7	4	3	0	1	4	2	4	4	5	4	3	38	72	51	84	130	89	17	28	18	16	10	28	26	23	34	37	42	27	17	15	13	9	10	11	13	
24	17	4	7	12	12	10	11	8	7	7	15	31	13	22	34	16	8	6	13	8	5	3	3	2	7	4	3	5	6	5	4	3	11	22	21	12	1	14	21	44	46	17	36	43	28	10	27	27	18	11	34	35	12	20	37	27	13	15	17	5	21	34	21	7	7	20	23	24	24	20	11	3	14	9	14	19	11	11	10	3	3	4	3	7	5	6	2	1	3	3	4	4	5	4	8	8	8	7	5	3	2	2	2	1	2	1	4	7	3	4	1	1	5	5	4	0	11	9	1	3	6	3	3	5	11	5	5	4	3	4	7	7	4	7	4	4	3	0	3	7	8	4	10	9	4	3	4	4	5	4	3	3	3	3	3	7	11	1	4	0	3	4	8	10	7	1	8	7	2	10	4	7	3	1	4	3	3	4	3	3	1	6	4	3	3	6	8	7	11	8	10	8	5	4	1	6	10	4	4	4	5	1	2	4	1	2	5	3	0	1	4	3	3	4	5	11	11	17	29	14	7	7	15	32	26	7	4	2	12	17	15	19	45	29	7	17	21	16	12	17	15	10	2	6	1	5	3	4	13	21	15	22	24	7	11	14	18	34	37	34	25	24	8	7	14	18	14	10	25	39	35	18	22	4	7	5	7	11	7	8	25	18	39	51	17	6	1	2	4	9	37	57	37	4	11	1	12	31	31	6	18	29	38	20	36	43	25	8	4	1	13	19	12	4	8	14	19	32	25	36	32	11	11	32	39	8	19	12	33	17	11	17	4	10	5	7	6	8	8	14	6	7	12	14	12	13	14	9	3	10	13	6	11	6	12	8	21	15	10	27	59	20	44	40	2	14	3	8	12	8	7	11	9	3	8	7	8	20	26	8	8	22	51	33	15	14	19	32	21	23	39	27	15	11	19	43	41	23	10	11	14	17	17	22	22	6	20	28	38	25	37	22	17	8	13	24	22	11	0	21	8	31	25	38	23	9	9	19	14	25	30	20	14	28	7	16	13	5	8	11	13	12	8	22	26	29	32	12	59	51	19	4	8	12	4	13	25	27	14	10	17	17	27	32	25	19	8	44	68	66	87	141	125	28	116	199	191	63	174	254	98	109	18	101	67	8	7	5	9	14	17	19	46	131	167	172	176	175	172	168	167	169	166	158	154	149	130	96	58	22	33	42	62	91	102	100	89	50	15	9	10	17	18	19	20	23	22	20	16	21	33	52	75	81	78	86	98	93	66	32	5	21	57	101	125	135	136	125	96	58	50	42	43	102	116	122	92	49	17	5	9	7	5	8	7	7	6	4	6	7	5	1	7	7	5	3	3	3	3	7	7	8	11	10	4	3	1	2	1	3	3	1	2	3	3	4	4	8	5	4	3	0	3	4	1	3	3	4	3	4	18	70	112	74	43	116	75	5	14	12	8	21	37	45	33	15	39	25	16	16	17	12	10	8	11	
29	11	9	9	4	10	10	12	12	1	10	6	28	14	25	32	8	10	8	15	14	10	5	2	0	6	5	0	3	3	3	5	9	17	21	16	12	3	4	18	50	46	28	41	60	40	17	32	12	24	17	21	31	31	33	32	26	19	16	12	4	19	22	17	13	19	13	19	24	23	21	13	4	14	10	11	14	12	22	25	14	5	4	7	7	3	4	3	4	6	4	4	1	3	1	4	7	5	4	7	3	5	6	5	3	2	2	2	5	3	1	1	4	7	5	5	5	8	10	2	8	7	2	4	3	8	6	5	5	4	3	6	7	4	7	4	4	5	6	5	7	8	4	8	8	5	4	5	6	4	1	0	1	4	6	5	5	8	2	3	3	2	4	7	8	9	6	7	11	1	7	8	7	2	0	4	4	4	4	3	4	2	5	8	5	2	5	3	7	11	9	12	13	7	2	1	9	7	2	4	7	8	7	4	7	3	6	4	1	0	3	4	3	5	4	0	9	7	36	38	22	13	6	7	22	31	19	5	15	22	25	27	28	38	23	8	10	25	21	29	29	32	18	8	7	3	5	4	7	21	26	10	22	22	18	18	15	28	43	37	28	35	33	14	21	37	40	33	12	35	51	36	24	32	10	7	3	11	12	5	9	23	14	37	57	23	6	21	32	33	29	51	56	23	12	3	7	8	27	38	18	16	35	29	16	28	31	27	10	8	6	14	14	11	11	13	8	11	15	21	46	26	5	5	22	43	13	28	16	37	34	14	18	6	13	7	12	2	4	5	14	7	5	10	18	17	8	8	18	25	22	14	8	14	14	12	13	21	21	13	34	57	13	47	26	3	13	11	8	12	13	16	18	18	4	8	6	4	18	34	12	5	26	47	13	28	30	22	25	17	17	36	35	26	13	22	69	61	29	18	9	10	9	7	18	21	3	10	20	20	29	51	22	19	16	15	14	10	6	4	12	24	6	17	29	11	8	3	19	9	31	33	15	18	16	6	14	10	1	5	2	2	1	7	12	16	11	26	10	40	57	36	17	10	23	15	7	25	32	11	4	6	8	24	8	10	18	10	67	79	32	45	145	122	27	156	201	170	65	113	208	99	82	32	111	72	12	11	5	10	11	11	18	13	41	94	126	134	136	140	143	145	146	144	132	113	93	74	94	97	44	19	29	42	72	95	82	38	27	61	73	74	76	76	65	44	29	26	29	44	69	83	87	94	111	130	153	170	182	194	199	193	192	206	236	279	328	354	320	238	163	133	110	39	27	47	41	21	14	13	9	3	3	6	4	3	2	3	8	6	4	8	8	1	2	1	1	3	5	2	4	7	8	8	8	7	1	2	0	3	4	7	7	3	2	4	4	2	4	7	4	1	1	5	7	8	10	9	7	7	10	9	10	65	118	91	65	82	35	7	6	10	16	38	61	59	36	33	13	10	18	21	18	14	9	10	
34	8	13	9	4	10	8	8	14	14	11	7	22	16	27	26	4	15	16	20	22	15	7	2	1	2	6	4	2	1	3	3	17	22	13	11	14	2	9	25	54	33	7	33	55	40	9	29	14	7	22	19	6	31	41	36	27	21	12	7	4	15	17	20	28	20	12	32	28	20	15	11	10	10	6	7	9	12	13	24	21	9	7	7	4	0	1	2	2	8	7	4	3	3	4	3	3	3	4	7	1	7	2	11	7	7	1	2	4	4	2	4	4	6	5	5	7	4	7	7	9	4	3	3	4	7	3	11	10	10	7	7	10	4	8	5	4	4	4	5	7	10	9	5	5	4	0	2	3	3	4	4	3	1	2	1	4	4	2	1	3	4	8	7	5	8	7	5	11	0	2	5	4	3	1	4	5	3	5	4	5	2	2	3	5	7	7	2	7	8	4	5	9	7	4	5	10	7	4	4	1	7	5	4	5	3	9	5	4	3	4	4	2	5	4	5	5	18	41	31	16	21	4	9	6	27	29	26	26	18	18	23	36	31	5	12	5	19	31	31	27	41	31	8	4	7	10	8	17	39	34	15	22	15	44	40	21	35	37	20	9	33	34	15	33	50	39	45	20	47	54	17	36	41	12	11	3	11	7	0	8	24	24	29	52	24	25	39	35	36	28	43	41	3	17	4	11	7	31	45	20	21	36	18	10	14	20	31	18	4	15	14	7	10	17	15	5	17	16	33	51	17	5	4	12	39	23	27	22	26	37	19	17	15	18	11	15	4	7	6	9	12	4	22	18	15	19	20	17	10	7	4	4	10	11	4	11	14	18	15	34	43	19	39	14	4	15	15	5	7	15	18	17	21	5	13	14	17	10	35	15	10	31	46	10	32	25	7	15	13	12	23	32	37	12	47	85	51	25	25	11	11	10	18	19	13	5	8	18	31	35	41	22	13	21	19	10	14	18	12	15	26	33	27	25	13	17	11	25	18	28	38	7	4	4	13	16	10	6	8	10	7	2	9	12	5	9	12	17	12	46	47	26	17	29	16	19	21	25	11	11	9	9	21	9	5	19	17	84	74	24	60	175	164	72	215	205	120	27	84	153	80	59	51	117	86	25	13	15	3	13	11	7	5	6	12	17	14	13	17	22	24	20	28	29	19	12	20	79	127	142	140	138	137	132	116	110	125	153	177	192	207	228	247	253	245	235	239	261	286	298	297	294	298	308	320	340	359	374	384	384	370	343	293	226	186	184	155	130	123	91	84	88	57	15	7	10	10	5	4	4	5	7	8	7	6	7	7	7	7	2	7	13	11	5	1	2	0	4	4	0	2	2	2	1	5	5	0	3	4	6	4	4	6	4	4	4	4	2	4	4	4	5	9	12	14	15	12	9	8	9	13	20	11	36	78	63	47	38	84	97	77	35	19	58	74	58	40	23	20	11	21	24	22	18	15	
38	12	19	10	8	13	7	0	8	13	12	13	21	25	27	17	1	19	20	10	24	18	6	4	3	2	6	8	6	5	1	6	20	22	10	16	27	19	22	17	62	44	21	44	46	30	2	22	21	14	16	20	23	19	19	18	15	13	8	4	4	10	11	19	36	29	21	32	22	10	6	8	5	1	6	4	8	1	10	16	18	10	4	0	3	4	4	4	3	8	7	4	3	0	2	6	8	7	4	5	1	7	4	13	3	10	3	4	4	8	6	8	5	7	8	3	5	3	6	9	3	4	1	1	3	5	4	14	7	13	10	7	11	3	5	5	3	1	2	4	3	5	8	6	4	3	0	1	4	2	3	3	0	3	3	2	5	4	3	1	1	4	7	5	5	7	5	5	9	2	2	4	2	4	4	4	7	4	7	4	7	7	7	4	2	10	6	5	7	5	6	10	12	8	5	9	9	5	1	4	7	9	4	6	4	5	10	8	6	5	4	3	2	3	7	11	7	32	39	19	3	16	12	5	4	15	27	31	23	12	13	18	32	23	19	2	16	12	15	13	12	31	40	17	14	17	17	12	30	61	49	55	37	45	57	60	35	37	28	15	13	32	33	7	38	44	13	45	17	45	45	8	45	38	6	12	8	2	15	16	8	14	23	21	36	22	41	33	9	13	5	28	32	17	18	7	15	9	27	43	31	47	31	0	11	2	17	34	29	4	14	15	10	12	21	17	5	11	22	41	42	5	11	7	5	30	21	17	23	9	29	19	18	26	27	9	14	7	7	8	10	9	4	22	21	4	6	7	1	9	11	8	5	3	6	8	8	13	15	7	27	25	22	32	11	10	18	20	8	8	13	10	22	18	5	16	21	24	29	27	4	13	36	45	8	23	20	17	20	13	9	17	30	44	5	70	87	35	28	31	15	3	8	23	19	19	22	22	23	21	8	23	32	17	15	19	16	25	19	13	29	14	31	48	32	6	29	19	25	24	25	36	6	10	11	10	5	2	3	5	6	8	9	6	13	15	9	4	9	7	33	48	22	22	25	6	12	20	8	12	20	21	13	10	10	14	25	19	85	69	55	85	179	220	85	228	165	47	20	64	110	60	18	34	104	124	90	17	27	13	18	10	9	10	8	4	9	11	14	15	15	17	17	15	13	5	6	1	36	89	131	154	159	161	173	180	176	170	164	158	160	176	202	227	255	284	305	321	341	352	349	340	332	316	286	257	241	237	240	235	205	150	81	103	168	209	248	284	323	296	226	164	102	46	13	5	9	8	2	5	7	10	14	16	15	12	8	5	5	5	3	3	5	10	7	4	0	2	3	3	4	8	10	8	5	4	4	2	2	2	4	4	5	8	5	3	2	4	3	2	6	7	5	8	10	7	5	8	7	4	4	4	10	21	16	13	26	19	50	109	145	178	166	105	23	35	41	28	27	38	26	2	13	16	21	22	
37	9	15	11	9	12	2	7	7	7	6	8	11	14	16	8	7	20	21	3	27	21	5	4	4	0	6	10	0	7	7	11	20	23	22	35	39	28	40	6	49	53	36	34	26	27	14	11	17	24	24	11	33	40	27	9	3	7	8	1	4	7	5	10	29	39	26	24	17	5	5	7	10	5	10	5	7	14	16	14	11	8	7	6	6	6	4	1	2	7	5	3	2	4	7	8	8	7	5	4	2	5	5	7	8	11	7	7	7	10	4	8	7	11	13	5	5	7	5	2	7	5	5	2	5	2	10	12	1	12	10	7	7	4	4	3	0	0	3	4	1	2	2	6	8	7	4	2	4	1	3	3	4	4	4	5	8	6	5	3	1	4	5	3	4	7	4	6	8	0	1	4	3	1	1	2	4	4	5	2	4	6	4	4	4	9	2	6	4	4	7	8	7	2	7	8	7	5	1	3	5	7	3	5	4	5	9	8	2	6	4	4	5	5	6	7	12	46	33	2	12	7	12	7	10	8	11	14	16	14	12	19	27	13	23	17	9	24	10	8	5	17	39	24	33	28	37	16	55	91	67	84	80	58	51	53	50	32	23	14	14	36	34	11	43	36	7	41	16	35	39	13	40	33	3	7	5	9	11	17	23	5	8	11	19	17	38	17	13	14	9	23	26	15	8	0	10	12	21	22	39	50	31	23	8	10	7	31	31	11	6	13	11	13	22	20	8	3	16	29	21	7	12	5	2	23	19	11	19	1	17	18	13	25	31	4	9	10	12	11	7	0	8	18	17	5	5	4	7	12	14	12	11	8	10	3	7	17	15	5	22	12	20	29	12	11	18	25	21	18	14	19	19	9	7	15	26	20	28	20	12	5	39	36	9	11	7	14	26	14	10	16	31	44	15	89	79	21	21	33	25	3	2	20	20	18	17	15	11	12	10	12	34	34	13	3	12	29	21	14	25	15	21	44	34	26	41	21	27	23	18	32	8	12	4	3	7	7	5	2	2	7	12	4	11	15	13	5	3	12	30	36	17	25	16	6	11	13	7	12	11	18	17	11	9	15	32	19	87	66	71	96	123	222	129	193	125	35	28	38	84	69	12	17	33	104	150	84	14	9	16	8	11	13	8	20	21	10	2	4	4	5	5	8	13	4	8	14	12	12	23	29	24	27	48	67	67	59	47	33	29	40	52	45	53	85	120	141	143	132	127	127	124	111	89	81	82	76	64	20	148	261	329	368	352	310	311	311	275	185	95	48	27	13	2	5	10	8	8	8	8	9	11	12	13	15	13	7	3	4	1	4	3	7	5	4	4	3	2	4	7	9	10	13	8	5	4	2	3	3	1	3	4	7	3	4	7	5	2	3	4	4	3	6	8	8	7	3	2	4	2	4	0	8	16	17	13	4	63	104	60	80	175	215	160	59	15	8	10	31	38	21	5	7	10	15	
41	33	16	4	4	9	4	10	5	4	3	4	4	6	7	3	10	20	21	0	27	24	6	4	3	0	5	8	7	9	5	6	16	27	29	33	21	15	42	17	26	38	27	1	24	36	24	7	12	18	30	22	18	45	39	13	3	5	10	12	9	2	5	1	5	21	24	16	9	4	4	7	13	7	10	4	8	16	12	8	10	9	5	1	1	1	8	10	9	2	4	4	5	10	10	8	4	2	3	3	0	2	2	5	9	8	5	5	5	5	3	5	1	7	11	5	4	5	4	2	7	9	13	9	10	10	11	8	1	8	7	7	3	2	4	3	2	3	5	5	1	2	3	4	6	4	5	4	4	1	4	3	6	7	5	5	7	0	7	5	5	5	0	6	8	11	11	10	9	7	7	3	2	4	4	3	0	4	2	2	2	3	4	3	4	7	2	4	4	5	2	3	4	6	5	3	7	10	3	4	7	4	1	4	4	4	7	7	2	5	2	6	9	11	5	2	27	49	21	11	3	5	5	5	12	8	5	7	8	14	7	16	19	6	16	21	14	23	8	14	12	9	24	30	50	39	60	16	82	103	55	59	83	54	24	21	38	25	8	10	5	31	37	31	51	35	20	42	29	19	34	12	34	31	4	10	8	6	13	2	20	15	4	12	11	23	31	8	21	15	3	19	21	8	5	7	4	6	14	4	34	21	32	34	13	10	7	24	26	17	5	8	9	12	20	24	13	8	19	16	12	22	18	13	2	18	24	22	18	8	9	11	12	25	26	4	7	15	16	12	9	10	11	17	13	2	5	5	15	19	12	12	7	15	17	11	2	22	17	11	26	15	25	33	16	4	10	12	17	26	29	26	11	4	11	12	30	22	12	17	17	15	39	19	8	7	4	18	30	9	15	12	26	40	41	90	57	8	11	31	34	1	8	14	14	10	9	6	2	14	11	15	24	28	22	13	9	24	17	11	12	14	26	29	17	28	37	15	35	29	21	42	34	21	8	5	4	5	7	4	8	4	8	14	13	6	10	14	10	14	17	21	22	16	5	7	14	8	13	15	9	7	2	6	10	19	36	14	83	72	66	89	49	146	144	147	68	17	21	16	58	74	54	27	31	41	157	152	24	23	29	34	22	4	47	61	51	32	5	4	1	6	8	16	33	24	23	11	3	7	17	65	100	88	41	9	12	13	26	36	45	56	69	65	56	53	46	50	50	39	41	41	25	20	28	53	59	31	87	205	349	395	344	260	153	68	53	52	41	22	47	43	22	4	2	2	7	7	8	8	8	7	4	1	1	5	11	9	1	4	1	1	2	4	4	5	7	7	5	4	5	7	2	7	7	5	7	7	4	3	0	1	5	10	12	11	10	7	5	5	4	2	2	3	5	4	7	7	4	3	1	4	4	3	8	12	17	15	27	95	146	135	44	91	171	130	41	7	3	13	34	32	18	18	14	5	
16	20	17	4	4	9	7	10	4	4	4	7	8	2	7	5	11	23	25	10	23	26	9	3	2	3	4	4	2	3	6	8	17	32	36	29	17	24	35	10	21	18	19	23	15	38	31	6	11	13	30	39	7	45	38	13	5	5	9	12	10	5	8	11	15	8	6	11	8	5	4	4	9	6	7	4	8	17	19	15	10	5	2	5	4	4	12	8	7	5	6	5	5	8	2	5	7	7	5	4	5	7	8	7	5	2	2	3	1	1	4	5	5	8	8	2	4	7	11	15	22	31	33	29	24	20	16	12	9	10	14	14	10	5	3	0	5	4	5	7	4	5	7	5	1	7	5	2	4	4	5	7	4	4	3	4	6	3	9	5	5	3	6	2	4	5	7	7	7	5	7	7	3	0	2	6	7	4	2	4	4	4	2	2	4	4	2	1	3	3	2	2	5	7	7	4	2	10	7	5	7	3	1	3	4	1	6	5	2	4	2	6	7	15	10	6	37	47	18	18	12	4	8	11	13	7	7	3	5	13	8	18	21	7	8	15	18	19	4	23	21	16	4	31	51	44	81	23	94	94	31	14	41	43	19	21	4	18	10	5	6	20	39	39	42	25	18	40	41	7	24	17	32	29	7	16	5	10	18	19	21	21	14	14	8	29	32	4	20	15	8	15	21	10	8	6	4	10	2	18	27	8	25	25	17	11	14	19	18	17	10	4	7	10	15	23	23	23	22	4	21	33	33	32	16	14	25	24	16	12	9	14	28	30	20	8	9	16	14	14	24	20	17	12	8	1	8	1	26	21	15	17	8	22	21	24	7	21	22	12	32	12	18	29	25	14	15	12	8	0	14	23	21	19	20	27	29	20	4	17	13	18	32	8	9	5	13	29	27	4	19	2	19	41	43	73	37	5	7	28	35	2	7	20	24	19	17	18	3	17	3	14	17	11	18	20	9	17	13	8	10	12	20	22	7	31	31	17	44	36	14	27	37	36	28	15	2	5	9	4	11	14	11	15	18	9	4	12	10	5	10	21	19	7	2	10	10	3	9	14	11	12	14	12	1	20	28	2	56	65	49	62	10	55	66	67	20	10	15	24	34	43	70	60	51	84	137	197	56	47	68	89	83	41	104	84	81	58	8	4	1	7	2	47	76	68	65	13	4	8	43	134	147	150	93	5	16	2	6	16	31	43	53	51	49	54	50	59	68	72	80	77	54	75	117	160	189	206	302	384	383	273	120	23	33	49	39	44	58	52	46	26	21	13	7	2	3	3	4	4	5	5	3	4	4	5	12	9	2	4	4	1	0	1	4	7	8	8	8	7	4	4	2	4	5	7	7	7	6	4	1	4	9	11	10	6	5	5	7	7	5	4	4	4	4	2	4	5	7	7	4	2	7	6	4	3	6	8	8	11	62	135	171	129	76	110	67	16	5	1	21	31	24	18	12	8	
26	22	14	2	2	5	5	10	5	6	11	15	16	10	4	12	7	21	25	20	18	22	10	1	2	4	4	2	3	9	9	10	21	28	26	29	14	23	28	8	28	26	20	16	3	41	39	6	11	7	29	37	13	43	29	11	4	1	2	4	9	7	11	18	13	18	10	4	5	4	4	5	11	11	11	7	3	8	22	29	17	7	7	4	4	4	10	7	11	8	4	2	5	5	8	15	13	11	9	8	7	5	4	3	1	3	2	4	5	6	7	5	5	8	12	16	20	25	29	29	31	34	31	29	23	18	18	16	14	16	18	16	14	8	5	4	5	3	4	5	3	5	5	3	5	8	2	0	1	3	5	5	2	4	7	8	10	8	12	5	5	3	6	3	5	3	1	1	4	7	7	7	3	0	6	7	4	1	3	4	2	2	5	7	7	4	1	1	5	4	5	4	4	4	3	6	2	8	5	8	8	5	4	3	6	2	7	5	3	5	4	6	2	12	13	4	40	53	21	18	20	13	8	18	16	2	10	4	8	18	20	27	37	25	2	8	12	8	18	32	22	21	24	32	45	36	91	46	84	88	23	7	22	55	49	29	26	21	35	29	24	22	30	31	24	15	4	30	38	13	11	13	25	24	5	17	18	24	22	24	27	23	12	5	1	27	30	8	19	12	2	9	15	14	16	15	8	13	15	32	14	12	19	13	5	7	19	20	13	10	8	4	7	13	12	15	32	38	14	18	32	31	27	41	34	13	2	7	3	6	10	22	32	26	10	3	7	15	10	19	38	25	17	9	5	7	7	11	31	13	22	17	17	23	12	28	24	19	38	31	37	11	20	20	17	6	11	11	15	17	21	18	28	42	30	41	35	12	4	13	5	20	25	7	10	16	30	33	16	12	17	11	15	27	26	54	29	4	6	26	31	5	3	20	20	10	9	29	13	27	10	21	15	14	24	29	17	10	12	5	12	12	32	35	10	35	32	19	51	36	12	1	10	21	34	26	8	9	12	8	17	16	26	15	5	15	4	5	2	3	9	5	19	13	5	11	7	6	5	10	5	11	12	13	14	20	17	9	29	34	34	40	6	16	16	18	9	17	15	28	26	20	54	58	77	111	115	217	83	66	93	89	121	54	131	66	122	83	10	9	3	12	8	74	95	75	108	42	4	5	83	183	94	177	134	7	21	3	2	6	14	39	56	62	71	86	91	88	67	52	54	30	66	200	278	292	331	329	349	309	200	76	24	40	24	12	7	0	15	19	19	9	17	14	10	7	3	0	1	1	5	6	8	7	8	8	14	14	11	4	4	4	4	3	2	4	4	5	5	4	3	1	2	2	6	7	4	4	3	4	4	5	9	1	6	3	4	3	3	3	3	6	8	6	1	4	3	1	3	4	4	3	7	7	5	7	10	6	7	17	18	15	74	125	114	77	55	18	10	10	5	15	20	17	15	17	
26	23	15	5	3	2	5	10	5	5	11	12	17	16	8	12	5	15	21	17	3	17	13	3	1	6	3	2	5	6	4	20	41	50	44	41	33	38	37	10	29	13	3	8	5	35	43	7	7	12	37	26	22	41	24	11	5	5	8	10	8	4	12	23	8	16	18	4	4	6	7	8	16	13	15	12	10	12	11	31	22	17	13	11	8	3	5	8	4	5	5	1	5	2	15	14	8	7	8	10	7	2	1	3	4	5	8	13	14	14	15	16	21	27	32	34	32	31	31	24	16	14	8	16	16	8	8	7	7	4	4	10	14	8	5	1	3	3	4	3	0	3	4	1	5	7	4	4	3	1	4	4	4	8	15	18	15	12	14	8	8	7	2	1	4	1	2	3	4	7	7	3	2	3	5	7	7	4	1	5	7	1	10	7	4	4	4	4	5	1	5	6	4	3	4	4	2	4	4	7	4	1	1	2	6	3	8	7	4	5	5	1	2	8	11	2	39	62	20	21	24	16	2	16	21	12	8	14	13	22	25	25	38	40	17	2	5	5	29	36	18	18	32	45	54	19	76	60	64	81	21	17	32	58	55	27	55	28	37	37	28	19	17	17	11	5	18	34	33	17	5	1	19	21	5	8	15	18	16	14	11	7	2	4	8	23	24	5	21	11	7	6	7	10	14	19	7	12	31	35	14	27	17	15	14	16	24	23	12	5	6	10	4	17	17	21	41	40	2	28	33	23	10	36	37	22	15	15	11	11	11	16	30	38	22	4	7	19	10	21	46	27	8	10	15	15	9	17	29	13	21	14	18	23	4	25	40	18	30	38	38	24	32	27	22	14	17	16	12	14	33	28	19	56	60	29	20	15	5	8	14	21	11	10	15	28	32	19	8	13	12	20	17	20	22	40	24	7	11	28	25	2	5	22	19	8	17	40	20	37	22	12	20	34	35	41	30	2	12	4	12	12	19	36	20	29	27	22	56	32	4	17	18	12	30	33	15	10	13	7	17	4	25	23	11	12	3	5	6	8	17	17	21	14	9	15	13	13	15	18	13	21	12	14	24	19	7	9	17	9	24	21	6	8	13	11	6	20	24	18	11	22	39	24	83	96	98	217	89	67	99	45	127	29	136	36	158	103	15	19	9	27	30	75	108	22	115	71	21	14	118	203	43	205	160	11	47	44	44	8	10	36	59	77	112	129	123	80	51	167	243	247	281	359	356	272	263	215	157	78	35	49	39	14	7	21	15	11	4	0	5	7	10	10	10	10	4	2	4	4	10	4	9	15	19	20	22	26	27	21	10	8	7	7	4	2	3	4	3	1	3	3	1	3	4	2	3	3	1	4	6	3	6	4	4	4	5	4	1	0	3	4	4	4	6	4	0	3	3	1	4	4	4	7	11	9	2	1	11	10	7	17	14	12	46	47	29	10	12	14	11	2	5	10	16	23	
27	7	13	9	2	3	11	12	10	7	8	6	9	17	8	7	7	5	17	19	9	15	18	5	0	5	4	2	5	8	5	21	56	53	41	46	38	45	52	8	29	20	8	7	14	24	41	11	5	15	39	15	36	38	14	6	4	5	5	4	3	1	10	22	14	9	17	11	10	13	14	18	24	9	11	8	8	19	3	26	15	6	9	15	16	10	2	4	11	16	15	11	10	16	19	10	5	7	13	15	13	13	15	16	16	17	19	20	18	17	20	23	24	24	25	25	20	13	8	4	5	10	5	11	13	10	9	8	9	3	6	8	12	8	6	3	3	6	4	0	2	0	4	4	3	5	3	4	4	3	3	4	7	10	9	10	9	12	15	12	12	11	3	5	7	7	5	5	5	2	2	5	7	7	2	5	5	4	6	3	10	4	10	8	1	1	3	2	3	6	3	4	7	8	7	5	5	8	9	5	1	3	3	2	3	6	8	5	1	0	4	4	5	5	7	6	37	66	19	29	22	11	10	3	17	23	4	12	20	32	28	10	26	41	31	15	5	16	31	29	10	7	25	55	63	20	46	52	56	68	13	29	34	50	53	18	68	40	10	10	5	0	2	6	8	20	38	37	25	14	8	5	16	19	8	2	9	13	8	12	7	10	10	14	19	24	16	9	23	11	14	11	4	2	13	20	6	13	34	37	18	31	10	7	11	15	20	15	8	2	1	11	5	13	24	34	46	31	12	30	31	20	18	29	27	17	11	12	17	24	20	5	14	35	34	10	7	14	15	15	45	31	12	8	21	17	10	15	30	21	13	8	15	20	9	23	45	24	4	10	4	24	38	39	26	18	32	24	12	17	36	35	3	53	75	31	23	21	5	10	21	17	7	9	7	26	27	5	11	14	4	20	18	24	28	27	15	7	11	28	20	10	13	31	27	9	30	47	18	39	28	4	19	31	19	39	40	17	5	11	7	15	9	23	17	18	13	29	58	22	23	26	30	23	24	29	19	5	14	4	11	14	13	14	10	7	4	2	9	8	10	20	25	23	24	28	23	14	10	4	12	25	4	26	28	17	9	13	13	5	15	8	14	8	12	8	2	22	31	17	16	29	26	12	74	71	91	214	103	68	116	15	131	24	144	29	175	128	17	25	58	94	108	67	97	7	116	97	48	44	159	210	43	217	180	5	91	85	96	64	24	55	87	108	121	93	65	103	254	315	332	307	281	293	214	79	86	50	20	60	62	45	34	25	15	20	11	12	5	7	16	20	13	12	17	13	8	5	4	4	12	8	10	15	16	17	19	20	23	28	20	5	3	4	4	2	4	3	0	4	4	4	1	4	4	3	5	3	3	3	3	4	4	3	1	3	4	1	2	0	3	4	4	4	7	4	2	2	2	2	3	4	2	4	7	6	9	11	3	11	10	4	11	23	17	4	4	10	11	10	14	13	11	6	7	11	
34	11	17	18	13	9	9	10	3	7	3	7	4	12	9	4	11	8	13	25	11	12	20	10	1	4	3	5	9	13	11	11	58	69	39	36	25	41	55	18	27	26	10	17	20	23	29	10	10	9	33	15	34	24	15	17	10	4	4	1	0	0	5	17	20	11	7	8	7	8	2	18	27	13	6	8	11	18	0	20	18	7	7	11	17	18	15	15	21	19	22	26	29	31	27	18	14	16	18	18	21	26	26	22	20	20	19	15	9	7	11	13	9	7	8	7	7	4	10	10	7	8	8	4	7	12	14	14	16	7	1	5	9	8	8	8	7	1	2	3	2	3	2	4	1	4	1	0	4	5	3	5	8	11	10	5	0	7	13	13	12	14	4	6	0	4	4	5	7	6	2	9	6	6	6	0	0	4	6	4	6	5	5	7	2	2	1	3	5	7	7	4	0	3	4	4	4	2	4	4	5	7	7	5	4	3	5	3	3	3	3	7	4	3	2	5	39	64	14	33	18	4	8	7	11	26	7	25	33	34	19	1	14	32	38	27	15	21	21	19	15	8	14	57	67	22	22	33	51	39	13	44	44	44	42	5	53	50	32	24	20	14	5	15	22	29	35	23	14	11	10	9	17	17	7	4	11	12	13	31	22	16	8	18	24	22	7	18	22	7	8	12	8	12	29	27	18	16	26	34	21	20	10	11	13	16	13	9	6	6	9	13	14	0	25	48	51	25	16	34	27	13	25	28	14	8	13	13	21	22	21	14	6	33	39	18	9	7	12	8	33	30	28	31	22	11	10	6	23	21	4	7	12	17	10	18	43	33	13	5	31	42	37	31	18	16	39	28	7	22	36	36	7	52	72	22	28	18	11	19	16	6	20	4	11	28	36	18	6	19	4	27	17	21	20	9	9	11	10	30	17	14	14	41	45	10	49	50	10	41	28	18	26	15	15	27	33	31	9	16	8	11	5	11	18	21	10	32	45	20	46	32	33	31	26	20	17	5	17	18	8	8	6	4	10	13	15	13	4	8	11	15	24	28	28	28	28	11	4	14	28	23	11	27	22	13	12	21	19	4	13	9	14	12	18	12	5	23	41	26	21	25	18	16	63	73	63	199	137	46	142	59	127	75	136	78	151	181	89	28	132	141	122	100	80	25	124	104	36	59	197	217	40	220	206	23	137	131	123	141	52	50	75	69	100	194	275	317	357	265	167	126	86	158	88	48	90	63	27	17	23	20	15	25	30	26	7	15	8	17	22	20	15	17	19	9	7	6	3	7	13	13	11	8	6	9	12	10	8	19	32	30	29	11	6	5	4	2	4	4	1	4	2	4	4	3	6	1	3	4	3	5	4	1	1	3	2	2	4	3	2	3	4	3	4	4	2	3	6	5	4	5	4	3	3	10	12	4	8	3	7	5	4	7	17	15	13	12	10	7	10	12	12	13	17	7	
42	15	17	17	8	8	5	17	18	12	7	8	10	9	8	5	5	10	14	23	9	9	17	13	3	3	4	9	11	14	18	5	43	82	70	26	25	58	55	24	28	34	21	29	26	26	15	5	11	9	25	13	26	35	30	26	15	3	4	3	0	0	1	7	13	10	9	4	1	8	17	22	20	10	7	10	8	14	10	14	32	31	22	18	22	29	31	29	30	26	28	32	34	30	22	18	16	14	10	10	15	17	13	9	9	11	10	6	3	3	5	2	2	4	6	3	10	5	2	4	6	2	5	5	3	4	4	10	16	12	9	8	11	10	8	10	13	10	6	4	1	4	3	5	4	5	4	3	5	5	4	8	7	8	9	7	2	2	2	6	13	15	6	3	5	4	1	3	7	8	6	7	4	5	5	1	3	2	4	8	4	2	3	5	1	2	3	4	6	2	4	3	3	4	1	1	4	7	6	3	4	5	7	6	1	3	5	4	5	6	4	7	4	1	3	11	47	58	2	38	21	12	6	5	17	28	8	31	28	22	10	1	5	20	36	27	18	17	7	11	13	8	10	53	68	23	8	23	28	10	51	64	55	37	20	5	27	36	19	5	4	17	3	22	22	19	23	11	3	4	7	2	18	20	14	13	15	2	40	58	44	36	0	22	23	10	16	25	12	12	23	21	22	37	48	31	33	21	18	29	24	15	2	9	20	21	13	8	1	10	13	13	17	12	17	47	56	32	16	38	23	4	20	17	5	7	10	16	25	14	25	17	15	34	33	20	7	8	1	12	16	10	21	45	23	12	9	5	25	25	7	7	8	16	12	9	38	47	25	13	30	19	18	28	29	26	38	26	3	21	35	35	8	51	63	13	22	7	13	21	14	18	19	14	20	22	34	27	4	24	7	35	26	11	8	2	7	13	7	30	15	18	19	45	65	7	60	50	10	38	30	32	31	5	22	15	24	41	22	15	11	5	5	3	19	20	26	37	29	46	52	31	27	29	28	20	7	10	6	11	21	15	8	6	8	14	17	18	10	3	13	26	25	19	14	17	29	14	11	28	26	9	16	22	25	27	15	20	27	10	14	3	10	5	17	15	8	24	48	32	12	13	18	6	34	65	15	159	173	64	136	100	104	132	90	142	75	190	139	70	181	129	72	61	52	48	121	121	119	121	189	199	17	203	225	55	180	184	131	202	131	96	140	211	254	255	229	215	224	94	150	130	75	156	73	42	68	36	24	37	32	22	13	16	32	28	15	17	28	28	25	14	16	14	12	2	3	3	7	15	14	8	7	7	5	7	5	10	6	34	91	93	85	43	3	9	4	6	7	1	3	4	1	4	5	4	8	9	6	5	7	4	4	1	3	4	4	6	4	4	4	3	3	1	2	2	2	5	4	4	4	5	5	4	3	9	11	8	6	2	4	6	3	5	5	4	7	7	7	7	7	7	5	7	14	11	
48	21	13	14	6	11	14	16	22	23	22	21	15	5	4	8	6	2	9	17	13	16	17	12	3	1	4	8	7	1	12	16	20	76	94	41	44	61	43	17	20	28	24	35	23	16	10	13	5	7	22	26	25	31	30	36	17	2	3	4	4	4	4	5	8	3	7	8	3	10	15	15	7	8	18	20	11	3	19	18	20	31	31	29	28	27	28	34	40	35	29	25	22	15	9	8	7	4	2	4	5	1	5	4	2	2	3	3	3	3	4	2	2	4	3	5	7	2	7	7	7	5	1	5	5	5	6	7	9	8	5	5	8	7	4	8	14	16	10	5	4	5	5	7	3	4	3	4	7	9	15	15	12	8	7	7	1	5	6	5	11	13	11	7	3	4	3	1	5	7	5	2	2	3	4	4	4	2	6	4	7	3	0	3	1	1	3	3	5	8	10	8	4	3	3	2	4	4	5	8	3	3	3	3	5	2	5	2	5	3	4	5	6	8	11	26	58	42	17	43	21	13	8	7	27	31	21	40	32	18	5	3	4	14	33	19	7	6	2	7	11	7	8	44	62	32	20	28	5	45	61	54	38	21	11	7	20	37	27	13	10	16	2	24	22	14	18	12	15	18	16	12	28	22	2	8	15	14	63	57	43	54	15	20	28	10	20	29	8	24	30	32	33	43	39	25	49	29	15	22	15	9	9	4	22	26	16	11	2	14	12	10	23	16	20	53	51	24	9	32	26	7	21	14	7	9	2	14	21	10	27	12	18	24	23	22	13	1	8	16	17	24	41	44	12	12	4	7	27	22	10	14	11	17	15	5	25	50	43	20	17	18	20	24	24	16	34	17	10	21	31	30	10	48	53	16	18	18	14	12	10	18	7	22	18	20	33	29	11	28	10	38	33	5	7	6	4	14	9	22	14	21	22	37	69	22	58	43	8	27	30	46	41	6	24	7	23	50	29	8	11	7	10	8	24	8	29	38	25	45	32	24	21	19	16	13	11	13	23	11	11	20	12	4	7	11	4	18	14	5	10	27	31	23	10	14	28	22	22	43	24	9	17	12	12	28	34	27	26	5	15	5	8	5	15	24	29	35	41	27	10	4	15	28	28	42	13	92	150	127	127	95	72	147	77	155	22	180	142	58	186	86	70	38	41	50	92	114	165	167	141	140	36	141	210	153	203	171	60	170	122	57	149	196	147	51	56	95	139	12	166	120	70	145	72	22	57	56	45	42	28	23	23	21	20	29	32	27	32	26	18	10	13	8	5	2	4	8	11	24	15	6	1	9	13	17	12	1	7	75	145	98	117	83	7	16	5	7	7	0	3	4	4	4	5	3	4	7	8	7	5	1	4	1	4	2	4	6	4	5	7	3	3	2	3	4	3	4	4	3	0	4	4	7	8	11	10	9	4	3	7	5	1	3	1	2	5	6	7	5	5	7	5	4	8	11	
50	29	7	9	6	7	11	8	3	5	15	22	23	15	5	9	8	5	8	14	19	20	13	7	1	1	4	6	6	13	14	10	12	53	87	46	39	54	32	16	11	15	17	22	4	8	2	14	15	5	22	27	1	21	36	39	13	4	5	7	7	5	5	8	8	5	4	6	5	10	17	12	6	11	18	20	24	21	17	17	12	2	14	27	30	24	11	17	21	16	17	16	15	15	15	11	8	5	4	4	1	4	1	4	3	0	4	0	3	3	0	1	2	4	2	4	2	3	5	3	3	5	6	3	2	5	7	7	5	5	4	4	8	7	4	10	11	15	11	5	9	13	12	8	5	5	1	5	10	12	14	13	15	14	9	5	1	6	0	1	7	11	13	14	11	7	4	2	5	5	4	4	4	1	7	9	5	5	7	2	6	4	4	4	4	3	0	2	0	5	7	6	7	5	5	5	8	6	4	10	2	3	3	4	5	1	8	4	7	1	7	5	10	14	7	43	59	21	36	38	12	10	15	22	35	18	25	46	34	14	3	6	6	17	33	17	9	5	5	7	11	10	6	27	53	59	53	52	6	57	52	30	12	5	9	13	26	42	32	1	8	9	3	20	22	17	17	1	12	13	8	11	32	18	42	52	50	31	63	41	29	48	31	21	25	17	18	34	14	22	25	11	14	30	25	24	56	35	6	16	10	7	12	6	15	25	25	24	12	16	18	9	29	15	32	65	52	25	18	29	35	16	16	11	8	8	4	14	19	11	22	7	13	12	18	29	25	8	8	21	22	27	35	21	1	11	5	8	21	17	19	16	17	21	15	6	14	29	32	32	27	19	17	19	17	10	32	10	18	19	25	23	14	40	41	22	2	8	11	13	11	12	3	23	14	22	36	33	11	32	10	38	32	7	7	13	7	10	4	14	10	16	22	26	60	21	44	34	5	17	24	46	45	9	22	3	19	52	31	4	5	11	21	17	34	12	20	32	27	31	14	16	21	15	8	9	14	10	8	18	6	13	15	4	11	6	16	24	12	2	11	28	33	28	18	17	26	21	30	51	22	22	19	8	2	7	21	19	13	6	10	9	11	16	30	40	38	26	17	20	19	5	10	17	27	21	7	34	86	100	80	56	39	112	95	128	27	201	160	84	202	76	73	60	54	56	66	60	82	89	78	73	26	66	123	154	157	67	111	185	117	47	128	19	143	199	169	182	180	21	119	107	124	115	53	10	38	55	33	31	33	30	18	9	11	36	52	33	25	11	11	12	15	14	10	9	10	8	12	31	25	13	14	11	17	24	26	17	33	126	157	51	126	112	18	17	12	9	4	0	1	3	4	3	2	4	4	2	2	3	1	3	5	3	5	0	4	3	3	4	4	4	7	4	2	4	4	5	6	6	7	6	2	6	1	8	5	3	5	5	6	4	5	7	8	7	4	3	7	8	7	7	8	7	11	16	
48	32	1	6	2	8	17	27	33	31	22	8	18	26	15	2	7	2	5	8	5	1	0	2	1	2	4	4	8	11	7	4	27	56	72	33	38	49	24	9	4	7	10	17	15	10	7	7	19	18	33	24	17	32	31	28	11	12	11	8	5	3	4	10	7	7	7	2	9	5	17	19	11	8	14	13	14	28	24	6	8	14	19	25	28	37	21	19	26	14	6	0	5	13	20	21	17	13	5	0	5	6	5	1	1	2	3	3	2	3	2	3	4	0	5	5	3	4	4	1	1	3	4	3	0	3	5	6	5	4	3	4	8	5	4	7	2	13	12	7	11	14	15	12	11	10	8	10	11	11	10	8	7	7	5	4	5	8	6	3	3	5	7	11	14	12	8	7	8	4	0	2	3	5	7	6	7	6	5	6	4	1	0	3	7	2	5	6	5	7	7	3	3	2	4	1	8	6	5	7	3	2	4	4	4	6	9	4	9	2	8	3	11	17	9	51	47	18	39	22	5	6	11	31	45	9	38	44	24	8	10	8	6	20	31	16	12	14	11	8	7	10	10	5	30	44	61	69	4	57	45	29	21	8	8	4	22	42	43	32	11	18	17	24	25	22	17	6	11	10	17	20	18	28	59	43	46	23	45	24	25	23	23	23	22	14	8	28	20	11	31	24	17	28	27	23	52	36	3	15	7	7	13	9	5	12	22	25	12	24	22	15	32	15	41	63	43	10	11	19	27	16	12	18	19	22	16	19	29	25	17	3	13	7	1	20	30	20	10	22	36	38	37	34	17	6	10	7	12	8	11	4	26	27	13	6	22	17	7	20	21	12	8	14	10	17	31	5	20	16	21	19	14	33	26	30	31	26	21	15	16	22	6	18	12	18	36	35	3	36	7	42	30	10	8	17	16	7	3	11	9	12	21	16	51	20	32	34	4	13	20	41	45	18	15	14	39	55	28	8	6	15	29	17	42	20	7	18	24	18	7	4	12	20	15	4	12	25	20	10	13	7	20	5	11	9	24	14	4	14	20	28	31	29	20	10	22	17	31	43	30	44	28	10	4	7	8	7	2	3	11	11	7	14	25	29	32	18	7	22	32	21	8	23	13	0	3	10	33	42	20	23	5	49	39	74	18	192	185	68	195	105	36	55	38	48	58	28	33	15	24	34	4	36	27	25	41	20	124	134	51	75	111	41	196	204	89	216	215	8	69	83	115	123	121	121	115	104	55	28	21	16	6	4	15	47	66	34	37	12	9	5	10	13	9	7	13	12	12	32	30	4	29	22	20	19	26	20	71	157	125	20	108	124	69	10	9	7	2	0	0	0	0	0	0	1	3	4	4	4	4	5	7	5	8	4	2	4	2	4	7	7	4	3	1	4	7	7	5	3	8	12	10	10	7	10	9	7	4	4	8	6	3	5	6	6	5	3	5	9	9	5	5	7	9	12	
47	39	7	11	7	8	12	25	33	38	40	23	7	24	20	4	7	0	2	6	7	8	5	4	4	5	7	7	5	4	5	10	32	63	59	8	41	43	22	10	5	7	9	15	14	11	13	9	17	31	42	23	40	36	19	15	6	10	10	10	8	6	5	11	1	7	8	5	11	11	5	11	8	5	9	15	20	22	32	30	18	14	23	32	9	43	38	12	26	22	20	19	15	8	3	11	15	15	8	4	5	1	6	1	5	5	2	4	2	4	2	4	4	3	6	3	3	6	3	0	1	3	2	2	3	4	7	4	4	3	1	4	8	4	3	5	5	7	11	8	7	2	4	7	11	12	11	8	6	6	5	5	3	3	4	5	8	10	9	4	0	3	4	6	10	11	10	13	12	4	4	4	2	4	8	2	6	7	6	6	7	8	8	8	9	4	10	2	4	4	7	7	0	2	2	4	7	3	3	4	7	4	2	5	5	7	9	3	9	2	6	3	8	13	13	48	30	25	26	5	3	7	5	41	48	8	43	38	18	7	10	9	10	26	32	22	20	22	15	12	3	4	10	15	10	24	68	69	4	48	43	30	22	18	15	8	10	34	48	43	35	24	8	30	28	23	13	12	5	21	24	15	5	37	37	12	35	12	32	1	19	7	7	16	12	1	10	20	22	3	17	22	21	29	29	25	45	28	7	17	8	4	10	5	3	5	22	31	5	27	17	18	31	28	41	44	40	20	10	25	29	20	16	33	28	43	44	34	28	24	24	23	23	7	8	16	31	28	11	13	24	24	33	35	29	4	17	7	5	5	5	3	24	32	14	14	20	4	12	12	19	17	14	18	9	20	28	5	25	18	21	13	21	29	6	18	26	24	31	34	2	24	8	12	17	18	29	34	4	38	3	48	32	8	1	11	14	10	7	11	13	15	20	14	52	30	29	40	7	12	14	36	48	28	2	30	57	53	29	24	13	17	34	6	45	26	2	1	10	9	3	7	15	23	17	5	16	15	24	10	12	2	18	16	6	12	14	10	23	26	24	17	21	31	27	6	25	26	31	20	37	48	43	31	24	26	20	14	3	12	16	16	7	17	32	18	17	29	21	12	31	36	21	15	14	7	8	12	15	32	12	16	10	26	9	52	14	135	171	84	151	106	11	22	16	34	56	33	17	18	21	30	14	38	38	52	71	47	85	124	112	99	61	29	176	220	40	224	235	33	36	33	53	105	134	143	136	141	96	29	11	23	14	8	25	51	76	34	55	28	8	14	7	7	24	38	41	35	21	23	23	17	36	25	14	10	29	5	106	154	73	18	59	110	121	63	10	6	3	0	1	2	1	0	0	0	0	1	4	7	9	10	7	3	5	8	4	3	5	3	3	2	2	4	1	3	4	4	7	2	9	5	8	8	7	9	8	4	4	3	6	7	4	3	1	2	1	3	5	4	10	7	2	2	3	3	
47	52	21	25	22	21	24	23	12	24	41	28	11	23	15	2	5	3	1	8	5	6	7	4	4	1	2	3	2	6	7	4	31	72	60	16	50	45	24	5	12	10	3	5	8	7	8	8	8	34	48	11	47	43	17	10	4	7	0	7	8	10	1	12	4	8	7	1	5	7	7	5	6	2	5	13	31	27	22	32	19	8	15	29	16	41	41	6	13	16	15	15	19	22	20	16	13	10	10	7	6	8	5	4	6	2	4	4	4	6	7	3	2	2	4	7	7	5	1	1	5	6	4	1	3	3	7	7	4	5	6	7	9	5	1	3	4	2	9	10	4	2	4	2	6	5	0	1	3	3	4	5	5	7	7	5	5	5	10	7	2	4	8	10	9	8	8	12	15	8	2	0	3	3	8	7	1	4	4	2	5	5	2	5	6	4	11	4	7	6	5	8	5	5	2	4	6	3	2	1	2	6	5	2	7	7	5	1	5	6	4	1	7	9	10	39	23	22	16	4	2	6	10	45	45	5	43	36	18	3	6	5	15	32	32	24	15	14	23	18	6	12	8	17	29	60	76	51	9	38	43	31	16	10	14	15	17	24	35	49	43	22	25	30	24	21	8	16	10	31	19	3	19	34	19	24	15	28	26	20	16	10	13	6	10	16	18	22	15	5	14	10	8	22	26	20	36	19	10	17	12	14	7	5	10	6	29	37	8	34	11	11	17	21	24	21	36	33	9	33	31	17	15	40	30	9	10	19	22	12	17	27	43	38	29	26	36	29	7	22	24	14	21	40	31	5	21	5	5	12	11	8	18	34	19	12	16	3	15	11	29	27	4	17	8	20	23	13	27	17	17	3	28	25	5	8	8	9	21	42	10	30	18	14	15	13	25	31	8	36	15	45	35	7	6	6	5	10	10	12	14	14	18	15	52	36	37	43	10	13	7	22	46	42	12	47	70	38	16	28	26	27	34	7	44	23	13	15	17	4	12	9	14	18	17	8	24	10	15	13	11	7	11	15	17	17	12	16	19	16	11	9	13	23	27	8	25	31	27	8	47	33	44	58	40	17	28	23	4	23	20	22	27	18	42	42	3	32	31	9	14	26	19	4	8	8	14	9	24	38	16	20	6	22	6	39	26	85	112	60	108	80	21	10	15	31	57	61	32	6	12	23	12	35	41	21	37	54	34	46	61	56	30	34	144	259	119	192	213	74	53	40	72	124	94	36	49	120	114	42	21	33	9	18	23	49	85	30	60	49	14	20	17	15	43	48	36	41	33	18	6	17	31	24	12	27	33	26	134	134	36	15	15	57	118	96	24	8	4	2	2	2	2	1	0	0	1	3	4	4	5	7	5	4	4	7	7	1	4	5	5	2	4	1	0	2	5	5	6	5	8	1	4	5	7	7	5	2	1	1	4	4	2	3	1	4	5	3	4	2	8	10	5	4	3	3	
50	62	25	13	17	28	38	24	2	21	35	29	10	18	9	1	4	7	5	8	9	13	11	4	2	4	4	5	5	6	3	4	24	72	79	16	49	56	27	2	13	8	9	7	3	7	7	7	7	28	52	37	43	38	17	11	9	13	11	7	4	12	2	13	3	9	6	5	11	11	10	10	11	4	10	17	36	40	7	29	24	7	16	28	29	31	30	11	1	7	8	9	13	18	21	22	19	11	2	9	12	10	5	8	6	6	5	2	4	4	7	5	1	2	3	4	2	2	5	7	8	4	5	7	10	7	2	7	8	8	7	8	11	9	4	1	4	7	5	10	12	8	5	4	8	8	7	7	5	4	7	7	5	4	5	1	4	3	8	9	8	9	10	8	7	6	4	10	15	14	9	8	8	7	4	4	5	2	4	1	6	2	5	7	7	3	8	6	8	7	8	9	5	4	5	4	5	4	5	7	6	3	5	7	1	2	1	0	1	3	4	4	9	7	9	29	20	11	8	4	5	6	12	41	44	16	41	34	16	5	9	9	21	29	15	17	25	22	22	17	4	14	7	3	22	54	45	18	11	34	49	43	30	21	15	20	15	1	32	58	36	19	29	23	21	21	4	22	10	39	21	7	20	25	14	12	11	33	10	31	11	24	19	18	19	14	15	18	6	15	15	11	6	14	20	11	34	17	13	25	19	18	12	5	10	5	30	32	8	28	14	8	2	7	4	14	41	43	10	36	27	17	4	31	52	64	62	54	43	33	40	14	22	19	18	36	38	23	2	22	20	17	29	34	10	24	27	15	16	13	15	10	17	34	17	16	19	12	19	10	23	35	17	13	3	20	16	17	27	13	8	7	24	21	8	5	14	16	22	43	11	39	26	10	8	8	26	29	11	30	22	38	35	10	12	8	7	5	4	5	7	8	11	12	40	33	42	35	13	17	9	12	40	50	21	61	65	23	1	17	44	59	41	32	44	10	17	15	29	4	20	12	8	17	22	9	27	14	11	7	10	4	5	5	14	13	6	5	10	15	8	14	21	21	22	5	25	37	21	27	49	24	35	69	61	26	22	20	13	27	21	23	44	23	32	56	22	31	39	15	13	23	20	9	10	15	17	5	26	39	10	20	4	21	7	23	25	53	67	51	81	60	23	10	11	26	38	59	51	33	31	27	12	30	35	29	24	8	32	36	17	18	26	39	91	253	171	141	142	101	117	95	125	131	66	21	17	85	110	62	32	31	16	9	22	58	101	45	50	60	27	14	21	18	46	34	2	17	19	21	20	16	28	22	25	35	21	51	145	113	20	11	17	33	111	104	26	5	4	7	7	7	4	3	0	1	4	4	5	8	8	5	1	5	5	8	7	2	3	4	7	3	4	4	4	17	24	15	5	8	7	5	8	11	11	9	8	6	5	2	5	2	3	4	2	2	4	4	7	10	2	8	8	5	4	3	
52	60	20	24	20	31	43	21	7	21	28	27	8	21	18	5	6	8	8	10	5	3	4	5	1	3	3	4	3	2	2	5	8	57	86	50	60	54	17	4	6	4	4	7	13	17	15	9	4	11	38	39	33	24	17	14	5	8	11	9	3	11	3	13	4	10	7	6	10	10	18	21	24	14	5	13	36	50	26	18	34	19	12	22	25	21	14	10	7	0	4	7	8	8	8	5	4	5	5	2	5	5	7	10	7	6	7	2	4	7	3	7	3	5	4	3	4	5	8	9	4	3	1	9	10	9	5	3	4	3	3	5	7	11	10	5	4	6	5	2	4	8	4	1	10	10	2	2	3	4	6	7	7	4	7	4	5	1	5	5	6	5	2	7	11	5	2	4	10	13	15	16	15	12	6	2	2	5	7	5	7	5	2	8	6	1	5	4	5	4	4	5	1	5	8	7	3	2	4	3	3	6	1	7	7	4	3	1	0	0	1	4	7	7	15	23	11	3	2	7	9	3	13	29	36	20	35	29	15	12	15	21	34	25	10	25	31	22	7	12	7	7	14	15	32	53	41	27	29	33	45	47	27	18	14	11	12	20	21	51	37	7	9	5	17	16	8	29	11	44	23	8	17	18	10	1	15	21	17	39	11	37	21	30	35	26	17	9	11	23	12	7	1	21	25	20	39	18	16	34	24	15	22	10	20	26	32	17	8	18	8	2	5	7	8	12	44	49	15	37	22	12	5	10	25	32	27	18	14	21	46	35	35	44	53	48	31	16	5	22	24	14	16	27	29	35	26	23	30	16	5	13	22	31	10	25	25	22	31	28	14	22	13	5	4	18	7	22	27	11	0	5	10	22	23	11	19	18	18	33	13	48	27	10	7	13	27	25	5	18	11	33	29	4	8	5	4	3	1	3	6	8	5	13	23	19	32	24	16	20	17	13	38	45	42	62	36	17	20	1	65	88	35	64	51	7	18	20	34	8	28	12	3	20	27	9	36	18	15	8	6	1	9	17	25	20	13	7	10	18	23	24	14	14	17	3	26	40	15	39	48	17	24	54	62	52	24	10	18	19	19	19	48	32	13	54	37	27	47	21	21	30	22	8	3	15	19	5	24	32	13	22	6	23	15	18	23	19	38	56	65	43	11	11	12	32	6	37	37	27	29	22	21	35	31	17	19	31	37	33	57	21	15	34	21	195	176	86	58	87	99	181	189	113	35	10	4	54	97	89	46	16	19	17	25	53	114	61	43	68	37	21	38	39	39	24	5	9	15	41	33	16	26	19	37	26	43	84	125	92	25	5	12	36	115	107	30	10	5	9	0	3	2	3	1	5	7	4	3	5	7	7	5	1	9	10	5	2	3	4	7	7	10	13	18	52	50	52	16	12	9	8	9	11	12	12	11	10	17	18	20	12	8	7	2	5	9	6	28	31	24	5	11	5	4	4	
52	57	7	24	28	34	39	19	10	26	31	33	21	19	25	11	4	7	4	6	8	12	11	4	2	4	3	4	4	8	9	5	1	40	67	32	53	32	2	5	2	3	4	4	12	8	5	9	7	7	12	23	18	10	13	17	8	0	2	7	6	9	9	7	8	8	9	5	13	14	13	9	23	22	14	3	24	46	41	7	37	39	21	2	7	9	5	5	8	5	1	2	3	2	7	8	10	8	7	7	7	8	11	11	10	4	7	1	1	5	6	4	1	4	4	4	6	6	6	3	7	8	8	13	7	9	7	0	0	0	3	4	2	5	8	5	6	3	4	9	7	4	3	1	7	11	8	7	5	5	4	4	6	2	6	2	5	8	9	6	4	4	4	10	8	1	3	1	5	8	12	14	14	12	7	7	4	3	7	4	4	2	4	8	4	2	5	7	4	8	4	3	0	6	10	4	2	2	1	3	4	4	3	7	5	0	3	4	3	1	3	5	2	5	18	20	6	4	3	3	8	12	26	26	17	4	22	27	19	16	8	18	43	28	11	17	12	16	11	11	12	7	5	4	23	47	39	8	14	24	31	44	31	3	7	3	10	9	1	40	48	15	26	21	24	11	22	31	18	50	24	11	18	16	10	3	11	26	36	31	15	42	20	14	29	29	24	9	11	23	7	12	7	28	24	21	43	16	21	34	17	17	29	18	21	24	21	5	10	11	8	6	14	15	21	13	38	46	6	36	20	6	5	8	15	25	29	26	21	8	27	35	44	50	51	37	21	13	9	24	27	14	22	31	32	26	15	17	33	27	8	21	26	25	4	26	23	15	33	42	31	20	8	1	10	12	8	28	27	15	14	16	23	28	29	30	27	16	11	18	28	51	23	18	8	17	22	19	3	14	5	30	21	2	4	2	5	5	2	5	8	10	7	14	14	18	26	18	15	15	14	15	35	37	47	40	8	7	24	16	77	105	0	80	54	4	13	24	31	12	33	10	7	24	31	17	45	19	21	17	8	1	17	25	20	12	15	11	2	5	27	32	16	13	13	10	24	36	11	43	42	6	20	28	35	47	50	24	14	2	19	19	37	32	8	38	41	27	47	24	23	38	20	10	14	16	19	2	29	23	13	25	20	30	21	11	13	9	28	51	50	27	5	16	16	36	4	33	21	11	9	4	11	33	37	21	7	14	57	38	53	26	15	27	26	128	146	36	5	89	66	252	220	73	12	2	8	23	79	117	73	5	15	36	42	56	127	83	61	95	73	87	120	121	88	50	25	18	27	57	41	34	31	19	45	34	102	120	93	54	32	18	12	31	116	123	45	21	11	5	3	5	4	3	4	7	5	4	5	5	6	8	4	5	7	8	5	4	4	1	6	8	10	11	37	92	59	97	44	11	11	9	6	4	5	7	8	17	43	45	49	36	27	23	4	5	8	25	60	49	59	17	18	13	7	9	
52	61	7	25	20	25	33	19	12	38	43	32	10	17	26	10	10	12	11	10	11	4	6	7	6	5	4	5	2	8	8	12	8	45	56	5	37	10	8	1	3	4	5	7	11	6	14	15	11	16	15	14	10	7	10	16	10	4	4	6	7	1	10	4	7	5	11	3	13	19	18	13	19	21	17	2	23	45	45	16	23	37	35	23	11	8	8	9	12	13	9	9	10	8	8	10	10	14	17	18	17	16	18	16	12	8	8	5	2	3	6	4	3	3	4	4	5	4	7	10	8	8	8	15	14	7	3	4	3	2	2	4	4	4	6	4	7	7	6	2	6	1	4	5	8	12	9	8	7	5	5	5	3	1	4	5	3	10	9	8	7	5	0	8	8	7	4	2	4	7	8	7	11	12	10	10	11	13	11	7	4	1	4	8	7	2	7	7	3	9	4	2	1	4	10	8	4	2	3	4	4	2	5	7	6	6	4	1	3	4	5	7	1	8	17	13	4	7	2	4	9	20	36	28	16	4	14	26	22	16	14	12	46	40	24	34	29	18	8	16	16	3	10	11	18	46	50	19	31	32	25	25	33	19	5	10	15	14	12	34	56	31	4	29	38	13	35	28	29	57	22	18	23	17	7	8	21	29	27	9	24	32	21	25	25	19	24	21	7	27	17	12	3	27	26	22	43	11	26	27	13	24	25	15	8	8	4	7	4	11	17	19	24	13	17	17	34	41	6	35	21	5	5	5	21	30	27	23	25	12	5	14	15	27	31	14	10	8	5	23	27	12	15	16	14	8	5	7	28	29	6	26	24	17	5	23	31	19	6	23	19	13	9	7	14	1	21	30	22	16	18	21	24	19	35	47	32	14	14	9	34	48	22	28	12	18	17	13	1	8	12	29	17	5	7	7	7	7	3	7	10	7	8	12	10	17	18	9	11	11	3	8	25	24	24	14	13	19	34	14	80	103	16	83	47	9	8	27	25	16	30	7	16	28	36	25	44	20	20	23	16	11	22	19	11	13	5	11	2	2	20	31	19	14	14	13	17	29	6	39	34	5	17	16	12	31	67	53	5	19	21	26	16	26	14	18	35	19	41	27	26	47	18	6	13	19	16	11	38	16	30	25	24	35	32	18	12	32	42	42	27	11	18	13	26	36	11	30	14	13	11	14	14	21	36	31	9	16	49	80	79	42	28	14	3	99	123	11	17	88	74	273	219	55	17	18	17	9	51	132	122	51	57	18	56	68	124	84	62	134	140	140	150	144	117	76	47	36	36	66	46	55	49	30	51	65	125	88	52	18	22	27	24	12	107	142	67	5	13	7	5	5	4	2	7	7	4	0	5	7	7	7	4	7	4	4	4	4	5	5	2	2	4	7	49	120	48	122	82	5	7	6	4	2	4	4	6	24	73	53	58	50	46	49	13	3	8	44	89	56	101	45	15	17	4	17	
50	65	31	47	64	66	55	29	14	51	44	16	14	18	17	8	5	4	4	3	6	6	11	8	2	2	3	6	0	9	9	4	19	51	51	6	36	13	5	3	7	7	7	4	8	7	11	8	7	19	39	44	29	15	12	13	7	6	3	2	7	6	5	2	7	5	13	7	7	16	20	20	20	17	11	12	33	48	37	6	18	17	19	24	16	12	12	12	13	17	19	19	16	13	10	10	11	15	18	15	9	7	12	18	16	7	4	3	5	4	4	7	4	0	3	4	7	4	3	3	0	5	4	6	7	4	2	4	4	4	4	5	5	2	4	9	8	8	9	8	10	9	10	9	8	11	8	8	8	7	5	3	1	4	6	7	10	8	1	2	4	7	3	5	7	5	4	3	1	2	1	4	7	7	10	10	11	14	15	9	4	3	2	9	9	1	6	5	4	4	7	5	4	3	7	7	3	3	4	5	7	7	4	5	4	4	5	5	5	2	3	7	4	6	13	14	8	2	8	11	11	25	37	18	17	13	18	25	19	10	10	11	46	53	24	24	15	3	8	22	16	4	16	18	22	45	52	4	50	47	24	13	24	27	11	9	15	14	8	27	46	50	32	32	42	3	43	25	34	58	18	23	29	17	2	17	17	7	2	8	25	25	13	14	10	7	22	34	15	21	13	8	8	19	20	19	37	8	29	19	6	11	12	18	13	4	6	5	5	7	11	21	34	29	12	8	28	39	6	33	19	8	7	8	22	13	2	11	20	14	5	1	8	28	41	37	27	15	9	19	18	11	10	9	11	8	5	5	26	30	17	22	13	16	14	10	29	28	17	12	13	21	24	28	23	17	28	22	17	13	8	7	10	8	40	55	30	11	19	15	53	54	13	31	10	19	20	15	10	10	18	26	15	9	10	7	9	6	1	9	11	4	10	11	7	7	9	8	5	13	3	2	14	15	8	6	6	18	26	11	80	87	7	75	44	10	8	27	16	21	22	6	13	21	31	28	39	22	17	22	21	23	21	12	12	12	7	4	11	10	22	29	18	8	3	5	8	24	8	30	29	10	10	15	7	22	67	85	17	37	27	20	12	19	22	8	31	13	42	34	26	54	20	13	12	8	7	19	41	7	43	25	25	33	28	17	20	45	44	28	14	11	22	13	34	31	17	28	12	11	17	22	14	8	27	39	30	29	25	32	42	47	52	53	55	115	124	29	33	86	79	263	208	53	31	32	25	31	22	150	203	121	143	74	48	52	100	74	28	149	209	140	41	51	65	68	69	51	38	69	56	58	59	41	54	78	118	26	13	8	7	17	33	17	72	141	114	39	4	8	5	7	8	4	7	5	3	3	5	7	7	5	5	8	8	7	4	2	5	4	2	4	3	5	60	128	35	123	101	12	5	6	7	4	4	5	15	26	97	56	39	36	47	74	27	7	11	57	115	48	127	90	6	20	7	31	
44	69	66	53	48	65	67	43	17	57	36	13	22	17	7	3	5	7	5	5	7	7	7	2	2	0	4	8	10	7	7	8	18	47	48	13	28	10	6	8	5	7	7	5	5	6	4	10	17	28	35	29	39	31	16	10	2	2	5	3	5	7	7	5	8	3	12	11	2	7	10	6	5	7	22	42	46	36	23	7	13	7	11	20	14	5	4	4	6	12	18	18	16	12	11	10	13	15	10	4	6	3	4	13	16	9	2	2	4	7	8	8	7	5	1	3	6	3	6	3	4	5	5	5	7	5	3	0	1	1	2	5	7	6	10	10	8	8	10	9	10	8	8	6	3	7	5	4	5	7	6	4	1	7	5	5	13	11	7	6	7	7	3	1	4	5	4	4	2	4	7	6	1	3	5	7	7	8	12	6	3	4	5	11	5	4	4	1	2	1	4	7	7	0	6	8	4	4	4	3	3	7	0	7	4	4	4	3	2	5	4	5	5	4	10	11	7	6	8	4	8	32	35	10	23	28	28	22	14	10	8	14	48	55	14	25	21	5	8	25	17	8	23	22	15	42	55	18	63	51	10	10	19	24	14	2	5	4	5	15	28	43	35	17	33	19	45	16	36	52	17	24	34	16	14	23	10	2	6	10	28	31	12	14	9	5	7	26	24	27	24	20	13	7	18	17	24	9	33	25	22	21	19	27	21	5	11	1	7	9	2	10	19	24	10	7	20	44	12	27	20	14	10	12	25	12	2	12	21	15	5	6	10	16	33	45	49	40	26	20	8	4	5	8	11	11	6	10	25	37	33	21	4	11	21	11	18	19	16	12	27	31	31	32	26	36	32	18	15	11	2	2	6	7	36	50	35	36	43	10	63	60	5	30	10	19	18	10	8	12	18	19	11	4	6	8	13	9	6	12	14	5	5	10	4	2	5	8	5	11	4	5	5	10	4	3	5	18	16	27	78	74	3	66	50	8	18	22	7	20	17	10	11	10	19	20	29	16	7	13	24	31	16	6	10	12	8	11	16	19	34	30	15	8	6	3	4	15	11	20	23	13	5	15	8	20	50	100	38	46	39	15	14	23	18	27	56	46	60	60	27	48	20	7	12	16	17	26	39	9	50	22	36	41	19	8	26	41	38	17	10	15	23	11	29	27	17	29	8	3	12	19	21	11	14	28	28	16	6	15	22	17	41	45	44	120	136	62	55	89	92	254	189	40	40	33	38	39	49	180	249	104	183	158	55	62	72	56	7	126	232	161	53	97	110	99	80	55	38	63	72	38	38	44	45	70	100	25	12	10	17	9	17	33	18	95	127	80	16	17	7	1	7	7	8	5	2	2	5	5	5	4	6	7	3	3	5	5	9	3	3	5	9	9	78	125	11	127	95	10	10	8	7	3	4	9	21	25	109	65	25	12	31	87	44	18	15	74	133	49	120	123	27	15	18	35	
34	72	94	41	46	68	64	45	21	61	30	10	10	4	7	8	9	7	4	4	4	0	4	3	1	2	2	2	6	6	4	10	14	39	40	8	18	5	3	10	5	6	4	9	8	12	1	8	18	44	41	17	47	37	14	8	7	5	5	2	3	4	4	7	10	4	9	8	5	5	8	4	4	8	32	49	43	21	7	8	7	18	18	22	16	4	4	4	4	7	7	10	12	8	8	8	10	11	8	2	7	5	6	12	15	13	7	2	2	3	3	3	1	5	4	5	8	9	7	5	5	4	3	4	6	4	2	1	4	8	12	15	15	12	10	5	5	7	7	2	5	6	4	2	5	8	5	2	4	4	4	7	1	7	5	1	9	8	4	7	10	7	3	3	4	5	3	4	4	2	2	2	5	4	2	3	4	6	10	10	6	8	12	11	2	8	8	10	7	3	4	10	10	3	5	8	4	3	4	5	3	7	3	7	5	7	4	5	3	0	2	5	7	4	10	12	13	11	5	11	20	43	29	16	39	41	24	7	7	11	6	17	47	51	20	35	18	13	5	29	19	2	23	27	18	48	60	15	63	64	36	13	14	16	13	6	9	7	3	6	17	39	41	8	22	23	39	6	43	39	13	25	32	7	22	24	8	9	11	13	31	50	28	28	25	16	22	14	5	13	16	8	18	8	12	10	15	4	36	28	22	23	22	38	20	9	12	4	7	10	8	24	26	22	15	11	4	38	25	15	24	23	17	19	31	19	13	21	30	23	8	7	11	2	2	11	24	31	23	19	13	11	8	6	8	10	4	10	12	23	24	20	19	6	18	8	10	12	19	21	14	3	2	3	18	39	34	20	12	8	6	5	2	9	29	33	24	32	53	33	62	52	5	23	11	13	12	10	4	9	15	13	9	5	3	8	12	14	6	11	17	14	6	7	3	0	3	5	2	5	7	0	5	5	4	4	7	18	17	26	70	69	12	61	54	14	10	12	4	20	14	11	10	6	11	10	20	11	7	10	21	36	22	14	16	12	11	15	7	21	36	29	18	13	8	12	17	14	6	16	18	14	5	14	8	16	38	87	45	62	41	25	13	26	3	60	70	45	56	71	53	32	10	6	1	7	10	27	34	12	52	26	34	38	18	24	27	30	31	19	7	8	18	5	24	30	10	32	19	10	10	12	19	16	3	13	23	22	14	8	31	24	18	13	15	93	120	42	53	73	114	251	163	18	44	19	38	28	85	184	218	58	191	198	47	34	40	30	14	84	201	184	35	91	110	83	62	48	33	48	74	18	38	44	21	60	70	19	16	26	13	18	10	14	24	43	110	112	42	17	13	1	1	4	2	1	1	2	5	7	7	4	6	8	3	5	15	13	17	7	7	5	21	14	101	126	17	134	83	4	6	2	7	8	11	12	18	28	111	68	20	4	31	93	56	17	24	104	129	46	93	140	62	17	20	20	
22	60	104	54	56	65	55	38	24	63	35	16	26	17	7	10	9	3	3	3	5	4	3	4	3	3	6	7	5	4	9	3	12	40	36	7	15	5	3	7	7	3	4	12	7	18	4	13	4	35	50	12	38	40	20	6	6	5	5	3	2	2	2	5	11	8	11	8	4	4	8	1	6	10	36	43	16	15	10	11	14	3	19	29	20	8	4	1	3	9	7	4	7	7	8	7	5	7	10	7	12	13	16	21	22	18	17	12	8	4	1	2	4	0	6	10	14	15	13	13	15	14	9	7	8	10	9	9	12	12	11	11	13	12	5	1	0	4	10	8	10	11	8	5	8	8	4	7	8	4	4	7	4	4	8	4	7	9	1	6	2	4	2	4	4	7	3	4	4	1	4	7	5	4	2	2	4	5	12	18	16	14	16	13	12	12	7	3	6	3	4	6	8	4	3	7	4	0	3	5	4	5	4	5	4	4	2	3	1	4	3	7	6	4	1	9	20	12	7	6	32	50	21	30	53	36	9	6	8	14	12	17	38	40	17	21	5	11	22	31	13	2	16	25	27	51	50	28	42	41	40	27	14	10	11	4	5	6	6	11	16	40	52	24	19	34	33	28	47	22	4	17	23	19	24	21	4	10	8	16	37	59	32	35	48	25	13	15	13	17	24	14	16	10	12	10	16	4	39	34	7	21	38	47	15	15	12	0	7	8	10	26	14	4	10	14	7	25	28	22	28	28	18	17	37	32	13	9	26	28	19	9	7	7	14	21	27	25	9	3	6	17	15	6	11	9	4	8	3	6	5	18	28	8	18	7	8	8	15	29	37	31	19	18	31	36	34	22	8	5	8	4	4	5	23	29	13	18	29	29	48	32	8	13	5	4	7	12	10	13	14	9	7	4	2	7	10	15	9	5	10	11	4	5	2	0	2	5	7	0	7	7	7	5	7	2	8	12	13	16	55	66	31	59	49	7	5	10	5	19	9	12	11	8	8	5	12	11	4	5	17	43	44	19	10	7	13	11	12	31	28	22	22	21	6	32	33	23	21	13	16	17	8	14	5	10	30	56	42	57	27	36	17	24	16	70	51	5	26	42	44	29	10	7	3	5	8	25	23	14	49	22	27	29	10	15	20	27	26	12	6	10	12	5	20	31	6	24	31	29	23	20	25	25	5	25	28	41	20	12	32	28	5	11	9	84	132	62	36	43	138	225	132	8	39	15	36	3	107	162	149	74	181	174	41	25	29	20	10	51	146	205	112	114	178	76	29	30	20	33	69	17	50	33	18	55	47	7	10	32	15	9	16	11	10	10	76	126	87	15	14	7	1	1	3	3	3	7	10	17	15	10	10	9	4	11	18	6	19	9	7	1	30	4	117	141	31	147	89	8	12	11	13	16	19	10	13	31	109	67	18	5	33	97	60	4	68	124	97	34	54	146	114	22	18	12	
19	45	91	49	42	57	52	35	21	58	52	20	11	24	20	10	7	5	4	4	7	9	4	1	3	1	2	4	4	4	4	7	18	47	34	9	20	10	6	2	4	4	11	12	11	20	7	9	13	14	51	37	45	62	43	21	5	1	5	2	7	5	7	2	8	2	8	7	6	7	9	3	9	8	32	57	43	7	20	5	17	11	22	27	18	9	11	6	1	5	8	3	3	7	8	6	3	7	13	9	9	12	17	21	25	20	20	22	17	11	4	2	0	4	3	5	8	11	12	14	18	19	17	14	15	16	16	15	12	7	3	2	2	6	8	2	3	4	12	10	1	5	5	3	8	3	5	11	8	4	4	7	9	4	4	6	4	11	2	8	4	9	8	7	6	8	2	3	4	4	4	4	1	4	1	3	5	8	12	15	16	12	10	5	16	14	7	7	9	7	10	10	4	3	0	5	5	3	0	4	4	4	4	4	4	2	6	6	1	5	9	8	0	6	9	8	27	15	14	4	32	49	21	35	52	25	7	8	2	9	13	22	33	24	5	7	8	18	33	28	14	8	9	24	42	57	45	35	41	36	40	30	12	7	9	6	0	3	5	11	11	25	48	34	21	46	32	38	44	13	10	20	30	26	17	13	1	14	12	23	35	53	33	24	56	36	7	1	1	7	20	19	4	13	20	18	25	12	30	38	17	11	46	57	17	15	14	8	11	7	15	22	15	24	29	25	13	19	22	40	37	22	12	5	31	38	25	18	18	14	18	16	15	17	18	31	39	34	29	27	22	19	15	4	12	9	6	3	4	5	4	20	30	5	19	8	7	6	3	13	24	31	20	12	25	27	30	18	1	4	9	2	0	4	15	31	30	24	8	20	23	14	5	5	5	4	8	15	12	12	12	5	1	6	7	7	13	17	7	9	12	9	4	4	3	0	3	4	9	7	8	10	7	7	5	4	13	9	5	8	36	58	47	46	32	6	8	12	9	14	4	14	10	3	5	5	7	11	4	5	11	36	63	36	9	10	17	5	23	31	20	19	24	23	6	51	30	28	29	10	16	20	1	13	17	16	14	26	36	33	16	40	23	14	27	50	43	32	18	9	16	24	12	10	8	9	10	25	11	36	55	22	35	31	9	20	27	29	25	14	10	7	8	7	19	27	12	9	23	31	29	24	28	25	14	34	22	50	26	7	28	21	23	15	9	73	138	97	49	51	159	188	91	9	24	7	31	9	118	145	104	103	147	120	20	23	41	26	3	34	105	217	191	70	236	110	23	15	20	32	66	15	50	27	27	47	35	8	7	22	22	12	8	17	8	8	35	108	110	40	11	15	5	2	3	5	8	8	8	31	24	18	22	16	10	16	20	2	20	14	6	8	31	12	123	153	29	157	113	16	21	26	17	27	26	10	9	37	107	60	18	3	32	102	57	41	102	112	55	27	16	125	161	64	14	55	
22	41	76	47	36	47	53	36	13	41	44	41	30	19	22	13	1	5	4	4	3	8	7	4	4	2	3	4	1	2	1	5	21	51	38	15	29	21	18	12	6	7	11	8	8	21	18	3	12	11	57	53	25	58	53	29	17	13	11	11	15	11	14	5	11	13	15	15	3	13	15	11	14	13	12	42	41	13	21	4	13	1	14	34	43	26	3	16	17	13	11	7	2	1	0	1	4	8	10	8	7	8	9	7	16	15	15	15	17	15	7	1	3	4	4	6	6	5	6	6	8	11	14	10	8	8	8	7	5	4	2	3	4	5	9	0	5	4	12	11	12	15	11	10	8	4	7	8	4	2	3	7	11	9	4	7	2	11	7	5	9	7	10	8	5	8	4	1	2	4	3	1	0	3	2	2	2	3	4	3	7	4	4	8	11	11	10	9	8	5	4	3	3	1	2	3	6	4	0	4	4	3	4	3	4	2	3	2	7	8	10	7	5	2	4	20	34	19	20	9	22	42	26	29	40	21	11	4	2	4	6	23	30	12	5	11	18	26	23	12	13	12	3	10	34	54	38	11	20	19	31	27	12	7	7	4	3	4	6	7	9	7	23	28	28	58	27	40	42	17	16	19	23	20	9	8	6	17	20	18	28	40	25	25	53	35	5	7	11	11	7	12	16	17	12	13	24	21	16	29	26	20	37	53	25	5	11	14	14	8	19	12	19	27	24	20	21	22	19	29	23	14	7	3	21	35	26	19	18	9	6	12	24	36	43	27	21	14	15	22	24	16	10	3	9	12	13	10	8	8	9	22	32	8	14	8	3	8	6	12	0	26	25	7	22	25	29	17	3	5	10	4	3	5	3	21	39	41	22	17	7	11	14	16	14	12	13	13	8	11	11	5	3	2	4	8	16	19	9	19	12	4	1	4	4	0	4	3	6	4	6	9	6	1	5	11	11	8	5	7	18	35	35	26	16	2	4	5	1	7	10	14	5	8	13	10	8	11	10	6	4	18	60	56	17	20	20	12	26	38	35	29	25	19	17	56	22	37	30	10	15	16	15	25	22	12	2	12	23	20	24	41	31	21	29	11	30	34	20	10	8	24	10	14	13	14	10	28	7	51	46	18	48	31	13	37	32	22	16	7	12	15	17	16	22	23	10	5	4	15	23	34	28	12	12	33	11	53	34	7	26	13	13	5	18	48	101	96	86	72	167	156	54	16	14	7	29	8	105	126	93	100	84	74	18	18	39	33	14	32	88	214	229	42	269	141	50	14	23	40	67	19	46	32	21	43	34	5	5	14	18	12	8	15	12	12	2	83	127	64	6	16	8	5	7	7	8	8	13	45	33	32	42	24	18	23	23	18	28	31	12	17	31	8	124	155	12	153	139	28	23	37	18	35	37	15	4	58	109	47	18	18	41	103	41	79	99	76	29	21	22	72	162	106	57	104	
18	38	63	42	38	39	46	31	13	35	27	20	29	20	8	17	11	2	3	4	4	8	4	1	1	1	2	1	1	1	2	4	15	42	34	15	26	16	11	15	8	5	14	13	5	14	24	7	14	14	60	51	7	48	49	21	10	11	12	23	31	26	25	14	24	22	22	19	12	19	15	8	15	13	24	51	32	15	24	20	18	13	11	25	59	89	86	61	33	13	5	14	21	19	12	6	11	12	6	3	11	16	18	7	7	14	18	20	27	31	21	13	9	8	8	8	5	6	2	1	7	3	10	7	2	4	3	1	2	2	4	1	0	3	7	3	6	4	11	12	11	8	5	10	11	7	3	5	4	3	5	1	7	8	4	5	4	8	10	4	8	7	7	6	4	7	6	1	2	1	1	3	4	5	6	4	4	4	7	6	3	6	7	7	2	6	10	8	7	5	1	4	5	5	7	6	4	3	3	4	3	1	4	3	3	1	4	4	9	6	3	2	4	7	9	26	29	9	19	10	14	31	18	20	27	14	5	4	7	8	14	32	33	14	17	10	13	17	18	8	13	14	6	17	48	59	39	16	22	23	31	31	20	11	6	4	5	4	6	4	7	5	4	12	38	63	17	43	37	18	16	7	13	17	3	15	19	26	38	29	32	28	8	42	54	34	11	11	11	24	37	42	36	19	5	3	12	16	8	15	20	34	36	35	20	10	5	13	15	14	26	4	22	18	12	12	15	18	7	18	5	6	1	4	8	26	28	23	21	20	12	16	26	34	66	38	8	3	1	1	5	6	4	2	4	8	12	14	13	13	14	24	34	16	2	11	8	7	8	11	12	21	35	14	17	30	31	19	8	12	11	5	4	4	4	10	27	38	18	2	4	21	24	16	14	13	13	10	7	8	8	5	2	2	7	8	11	15	4	19	16	5	1	4	4	0	3	4	8	4	7	7	5	10	12	7	5	8	6	4	7	18	14	10	11	8	7	6	6	7	10	11	6	15	16	12	11	12	12	8	8	8	49	66	37	18	15	18	32	46	49	44	30	21	34	57	23	38	37	24	17	15	22	24	15	7	12	14	11	6	22	43	45	39	19	23	16	31	21	21	8	18	14	23	18	22	19	33	25	67	35	25	49	27	16	32	25	15	10	8	7	15	20	21	17	14	6	3	1	11	31	42	20	0	17	36	15	62	36	7	27	20	20	21	9	44	68	52	89	97	150	125	19	23	7	18	29	11	84	96	55	44	24	55	36	22	26	31	18	14	76	207	236	67	282	147	62	35	19	45	66	20	33	26	24	42	30	2	10	13	17	8	8	14	14	10	19	60	138	88	16	22	17	13	8	6	8	8	18	58	43	45	65	22	22	34	32	26	25	39	14	18	33	16	118	148	18	140	153	43	23	46	34	38	55	24	21	86	108	32	20	25	57	103	20	88	67	39	25	18	32	33	127	98	75	119	
13	34	50	21	31	34	31	21	5	31	31	13	16	12	4	12	13	6	5	5	7	9	4	4	3	4	4	3	5	5	5	4	23	38	21	5	15	21	13	7	16	11	15	22	11	25	50	36	37	13	67	48	10	47	47	21	10	8	7	21	27	27	35	15	30	18	31	17	11	14	5	5	15	10	25	59	43	54	47	12	10	20	30	41	47	100	168	201	191	151	101	54	16	7	16	24	26	24	23	20	14	3	14	9	8	16	27	43	58	67	58	40	24	14	8	7	6	5	2	2	7	1	8	10	7	5	4	3	0	1	4	3	0	1	5	6	7	4	7	7	7	4	6	5	4	10	7	4	4	2	4	4	4	7	5	3	8	8	13	14	11	8	6	1	2	4	5	5	1	3	4	3	1	3	4	4	7	3	2	3	0	6	9	5	4	4	5	5	1	3	5	4	4	4	3	3	1	4	7	6	2	0	2	1	3	3	2	2	5	5	4	2	4	7	16	35	25	6	20	9	13	28	12	17	22	11	4	5	9	9	8	41	49	20	31	28	16	17	22	14	12	12	5	34	76	76	47	27	24	23	25	24	23	18	12	11	8	10	7	3	2	6	3	8	42	54	15	39	28	15	13	6	17	16	6	22	21	29	55	53	42	23	35	52	42	21	12	18	17	19	25	35	34	25	17	13	13	9	4	6	5	7	16	22	12	8	12	11	8	15	32	7	25	15	6	11	13	14	0	10	8	3	6	7	11	14	8	24	29	32	30	33	38	20	61	46	17	2	2	3	6	5	3	1	1	4	5	7	10	8	8	21	31	21	14	14	21	8	20	21	26	25	42	33	16	40	33	19	10	7	4	2	3	3	3	2	18	32	22	7	10	31	21	10	8	7	10	10	12	12	7	4	3	4	10	7	5	11	8	8	14	11	5	4	3	1	4	7	7	3	7	7	8	9	5	2	3	7	6	4	2	16	15	11	14	8	1	4	3	2	7	5	13	22	12	8	12	12	9	5	5	1	40	76	52	10	5	15	6	28	41	39	32	26	45	48	14	28	30	30	20	7	10	9	5	8	18	13	4	5	11	34	58	55	2	41	16	31	27	33	25	4	11	14	8	18	37	34	53	81	31	37	49	25	14	32	37	23	8	11	11	7	13	20	16	2	8	8	5	11	35	47	28	6	28	41	32	75	29	12	25	26	7	8	10	41	65	52	65	72	103	81	32	32	14	20	23	1	60	77	42	27	11	50	41	8	15	26	22	7	49	180	245	125	266	120	68	44	17	48	60	15	30	15	23	43	25	15	10	12	15	8	2	11	14	5	28	34	129	96	33	42	37	32	24	4	2	7	22	63	50	42	79	30	23	42	37	22	12	35	13	25	35	47	105	126	25	117	159	69	18	64	57	48	79	32	38	107	104	17	14	20	60	105	17	85	44	21	18	4	15	24	96	70	49	95	
14	34	41	13	32	27	14	12	7	22	46	41	33	19	4	12	8	3	5	2	1	5	3	6	4	4	4	4	9	4	6	4	29	34	7	8	0	14	26	23	19	3	21	29	8	49	83	67	87	30	78	63	34	60	56	31	20	12	15	22	25	9	39	12	29	3	36	18	13	15	4	13	13	12	21	78	83	97	152	143	94	54	29	27	76	92	92	143	213	247	239	207	165	130	108	83	53	35	39	50	52	34	22	15	8	7	18	29	33	48	57	51	43	37	24	10	7	6	3	2	4	2	4	7	8	8	7	5	6	4	4	4	3	1	1	5	10	8	7	8	12	13	14	5	8	14	18	14	11	9	7	7	8	12	13	7	10	13	12	17	15	12	9	8	7	6	7	8	8	2	3	4	4	2	2	5	7	2	5	7	4	8	5	5	6	2	1	4	6	8	7	1	4	7	6	5	3	2	2	5	6	4	2	5	6	5	4	0	2	4	5	4	3	2	16	38	25	9	20	7	16	27	7	22	23	11	7	8	4	8	6	35	56	27	15	30	17	13	21	18	13	18	23	57	88	48	25	33	28	21	20	21	21	13	9	16	12	4	7	8	6	3	3	12	34	40	28	32	20	13	8	7	14	12	10	26	18	13	57	76	45	19	67	51	17	4	4	11	22	37	47	42	23	23	25	10	1	7	11	7	8	15	24	26	8	3	11	15	10	10	32	15	20	17	5	12	14	9	6	8	7	5	10	11	10	17	15	22	7	11	21	41	56	39	35	41	32	21	21	20	13	5	4	4	4	5	4	4	7	3	1	17	30	24	22	4	29	22	16	16	20	4	49	46	20	50	31	14	11	7	4	4	4	4	5	6	15	24	27	21	10	36	19	10	8	6	7	4	7	7	6	3	2	5	8	4	5	8	8	3	8	9	5	0	3	5	7	6	2	1	5	7	4	1	2	3	3	5	4	5	4	20	33	34	39	31	14	7	5	1	5	7	10	25	16	7	15	12	8	5	4	3	30	80	62	8	1	10	27	55	51	33	19	10	38	19	21	29	21	24	22	8	13	13	12	7	17	13	1	4	7	18	54	67	25	47	19	30	39	43	38	16	8	11	16	10	40	22	83	94	24	48	58	34	12	32	48	28	7	10	11	8	13	15	21	18	5	7	12	8	21	39	35	12	36	44	44	85	25	15	16	25	23	13	9	24	61	57	40	21	56	54	27	21	25	26	28	17	32	61	53	46	29	42	31	8	15	25	18	7	20	123	208	107	212	74	73	41	24	46	52	9	34	22	37	51	22	14	15	5	10	12	8	13	21	7	20	35	111	77	36	48	39	47	38	3	11	16	28	60	46	38	78	33	23	50	51	38	33	41	27	41	44	61	87	92	26	80	155	121	27	89	75	62	104	42	48	118	103	13	13	16	40	96	35	68	57	25	19	12	4	18	76	63	36	93	
19	32	30	11	25	14	3	5	11	27	62	48	11	26	16	13	6	6	2	6	5	10	10	5	3	0	0	1	8	8	5	6	40	44	27	27	10	8	18	29	21	12	23	22	5	61	105	61	109	95	133	117	85	95	70	31	11	17	21	20	27	7	46	27	35	17	32	26	13	24	12	24	14	10	5	70	135	123	152	207	208	178	144	88	44	95	122	108	48	74	155	214	259	267	221	147	80	29	33	43	56	41	21	12	4	10	26	38	32	18	18	35	49	56	50	26	7	4	4	4	6	9	7	2	5	6	3	6	8	8	9	10	8	5	2	5	5	2	4	7	13	14	21	15	15	15	18	16	13	13	15	16	16	16	17	15	11	12	2	8	12	13	9	8	8	5	5	7	11	8	8	8	8	5	5	7	6	1	6	3	6	9	3	4	4	4	2	5	10	7	4	7	7	8	8	7	5	3	8	11	8	7	0	5	4	4	2	3	5	7	3	3	4	5	18	37	20	15	23	10	21	25	8	25	19	7	4	4	4	8	10	17	48	49	7	28	21	10	17	21	5	22	27	59	76	12	47	46	24	6	19	28	26	17	11	11	12	10	3	2	3	2	5	8	22	29	31	26	10	10	8	4	13	13	6	22	23	9	47	82	48	48	78	38	11	7	9	4	4	18	41	60	55	28	12	17	20	20	18	13	3	1	23	32	12	2	10	14	11	5	27	17	15	14	2	11	12	8	7	5	5	7	10	18	27	30	4	24	20	23	16	11	37	40	23	14	36	47	48	36	23	10	8	7	6	5	4	4	9	4	2	17	36	30	17	7	35	26	9	6	8	18	58	41	36	55	21	8	12	9	4	2	4	7	7	3	8	17	26	33	19	29	15	8	7	4	8	7	7	7	2	4	3	4	5	3	4	7	8	3	5	7	7	5	6	5	5	4	4	2	4	4	2	4	6	3	4	5	5	7	4	34	52	37	34	44	31	2	7	4	8	13	9	19	21	1	14	13	11	10	8	8	16	65	74	38	15	0	46	62	51	45	34	30	37	11	35	30	21	21	22	10	7	11	11	4	11	18	8	6	7	7	40	59	27	41	18	25	35	46	53	29	3	28	31	38	50	1	99	99	7	51	63	41	6	53	58	20	9	8	13	12	19	13	8	18	17	7	7	17	23	29	26	14	36	45	40	85	37	14	3	15	21	11	15	15	19	34	31	19	30	44	13	10	13	15	24	25	14	42	33	39	37	26	22	8	14	25	19	12	4	85	151	42	155	40	63	29	23	34	43	11	36	20	31	53	31	5	12	7	10	17	18	3	20	10	11	31	84	64	40	38	31	65	48	15	25	21	27	52	35	37	73	37	23	65	73	57	58	58	39	54	52	47	51	62	26	37	113	146	77	92	75	67	119	54	52	127	98	8	18	14	15	66	49	50	56	33	15	7	10	19	61	65	22	87	
22	28	21	4	17	16	3	3	4	31	54	29	24	30	18	8	7	8	2	7	7	4	7	4	1	1	3	4	4	7	4	11	62	85	94	102	70	9	17	8	15	19	24	24	7	52	108	66	38	57	161	139	151	154	72	12	8	19	27	24	28	8	53	32	38	34	35	41	4	31	12	30	28	8	7	44	140	178	97	79	153	186	182	151	94	47	56	151	211	176	80	25	92	121	124	116	89	33	21	37	51	43	26	19	18	19	26	41	52	52	34	9	14	28	48	42	21	11	8	7	6	6	7	1	7	5	3	4	4	6	11	14	14	11	8	5	2	6	4	7	10	2	14	16	15	13	12	14	10	9	11	12	12	14	18	19	13	7	1	1	7	12	10	5	7	5	1	1	7	7	8	7	4	2	5	8	8	3	4	7	7	5	2	1	2	4	5	6	8	5	7	10	3	4	4	4	9	5	3	5	6	7	2	5	8	5	2	3	4	2	4	6	5	2	20	39	14	22	22	4	23	22	11	20	12	4	1	4	7	5	7	3	32	53	23	22	24	14	15	26	7	25	32	61	68	16	48	39	9	4	15	35	31	17	10	6	4	11	8	4	4	4	5	5	9	12	13	8	4	9	12	8	14	20	13	10	17	8	34	76	42	47	66	18	17	14	9	13	10	10	7	14	27	23	7	10	10	13	13	18	12	8	21	28	14	4	9	11	8	8	20	10	14	10	3	9	8	7	7	5	4	6	5	6	17	35	31	17	11	31	47	46	19	8	22	18	22	32	20	31	36	18	8	2	2	1	3	4	7	5	5	18	43	34	9	18	36	21	5	2	2	22	57	25	52	52	14	10	12	8	7	6	7	4	4	7	8	11	12	23	17	16	8	5	3	2	4	7	7	6	5	4	3	3	4	3	2	9	7	4	4	5	8	6	1	3	5	0	4	6	7	6	5	7	6	7	7	5	4	1	24	57	53	12	19	41	38	10	8	8	9	8	8	9	19	12	10	9	7	5	9	11	1	39	67	56	34	8	54	60	29	18	16	40	42	5	33	16	7	13	14	12	7	2	10	11	4	17	17	7	7	5	32	45	12	33	17	16	10	32	61	41	12	41	23	56	60	10	99	96	11	52	59	39	13	61	51	1	17	7	15	18	23	16	5	14	13	7	5	11	18	22	14	16	31	41	31	74	40	19	12	8	26	21	10	15	11	13	21	19	36	43	25	12	7	3	16	27	15	43	20	9	20	8	25	14	9	18	21	21	14	78	117	37	124	24	50	18	18	31	32	4	33	10	40	48	25	0	13	10	6	18	18	10	25	16	12	17	55	62	40	25	22	77	60	26	27	23	24	42	28	30	63	49	20	70	86	48	40	56	24	46	33	15	21	51	26	29	56	100	87	69	62	59	109	76	69	129	83	4	17	9	6	40	25	37	47	31	14	6	13	16	49	57	24	82	
23	25	15	7	15	16	7	1	9	31	42	21	26	16	10	6	6	8	4	5	6	4	4	3	1	4	4	4	3	4	4	13	75	108	91	105	127	60	17	5	16	10	17	26	10	40	91	69	43	53	181	114	198	222	84	13	15	14	30	32	26	10	55	23	50	36	32	45	15	38	36	39	50	13	13	44	126	165	114	76	60	54	81	78	37	20	51	87	156	214	210	191	175	164	140	81	74	72	34	65	85	61	37	30	32	27	25	30	39	49	55	52	44	27	17	35	41	35	21	6	2	3	10	5	9	8	7	4	2	5	8	8	12	11	9	5	6	4	4	8	8	4	2	8	10	8	7	11	9	2	4	4	3	5	10	15	11	9	7	6	8	13	14	8	8	9	4	2	4	6	4	1	1	2	4	5	7	7	3	3	2	2	4	3	4	5	4	4	8	8	7	7	1	2	4	1	8	7	9	10	8	4	1	2	1	7	7	4	0	2	4	3	9	6	23	44	11	26	19	8	16	15	13	14	7	4	4	5	5	5	9	6	43	50	13	27	15	3	14	28	16	17	36	69	58	4	35	34	18	11	18	31	31	19	8	5	3	8	9	7	5	7	9	7	3	2	2	7	2	11	11	3	2	10	11	4	14	13	28	77	41	45	57	16	18	17	5	9	5	4	13	18	18	23	13	10	16	21	15	7	16	16	27	32	16	3	8	12	5	7	13	6	11	4	6	7	4	2	2	2	0	5	7	5	5	13	14	15	29	37	40	61	53	29	1	34	26	14	41	49	35	11	7	2	3	4	4	3	2	4	7	18	46	42	8	22	36	17	8	2	7	30	57	14	55	42	13	15	14	10	10	7	12	7	7	9	1	10	12	10	5	5	3	2	6	7	4	7	6	7	11	9	3	1	3	4	6	11	5	7	5	4	7	5	5	7	9	5	4	6	7	4	2	4	1	4	5	8	9	6	45	63	27	18	26	24	32	14	7	7	6	4	4	4	9	8	5	8	5	1	1	10	9	17	53	60	39	10	43	61	37	16	5	43	53	18	42	18	8	17	18	14	9	5	6	14	5	9	13	4	6	7	27	36	8	30	17	9	4	22	51	50	25	38	8	68	58	11	83	96	28	48	58	31	20	55	40	15	17	8	13	24	30	16	10	23	20	10	17	21	33	27	4	7	30	40	29	70	41	13	9	15	36	25	15	1	14	12	21	8	38	39	17	1	4	4	11	21	12	41	20	19	29	19	35	11	4	8	20	33	26	54	96	44	103	22	46	24	21	34	22	18	31	9	47	43	21	10	15	11	17	19	6	15	27	17	14	13	18	36	38	17	20	72	72	31	25	21	24	33	21	19	44	52	31	54	88	58	19	54	7	38	16	18	18	51	24	30	34	53	60	50	56	55	94	107	102	106	52	13	9	9	7	35	18	30	43	30	12	13	19	21	40	40	38	82	
29	27	10	10	22	19	8	5	8	25	36	14	5	17	22	19	5	6	4	4	2	4	5	2	2	3	3	4	3	2	5	12	69	134	121	33	129	121	64	24	14	4	17	29	13	44	111	91	66	44	215	122	175	255	121	27	6	7	29	36	21	18	52	14	49	35	29	50	49	81	75	67	78	30	29	58	121	134	75	94	153	168	139	102	90	104	98	69	54	114	182	229	231	173	79	26	88	131	125	93	58	72	71	43	19	8	12	24	27	8	27	42	46	46	32	2	39	65	60	31	8	4	9	4	5	5	1	3	2	7	5	2	8	6	3	5	7	5	4	7	5	4	4	4	4	3	2	5	10	5	3	3	4	7	5	8	3	4	7	4	4	5	14	11	8	11	11	12	11	9	8	7	6	7	8	8	7	8	10	8	8	8	8	7	8	7	1	3	5	7	3	2	4	2	3	3	5	3	4	4	3	0	0	1	2	7	4	1	3	4	5	4	8	12	25	40	9	22	15	6	6	8	6	5	4	5	8	10	6	13	12	20	52	29	24	35	31	29	22	22	24	13	70	95	52	21	27	37	37	22	20	27	28	17	9	3	6	4	7	10	9	10	9	5	4	1	4	8	0	12	8	6	8	8	10	2	17	18	27	77	42	40	42	17	19	11	2	13	12	13	15	13	14	21	20	16	19	29	35	21	3	24	42	32	13	11	8	14	5	8	11	10	10	4	9	5	2	3	0	1	5	7	10	3	10	21	19	8	30	50	22	23	43	43	22	22	31	43	46	26	15	7	7	2	3	4	3	2	2	4	2	13	39	45	24	12	34	20	9	11	6	41	52	5	46	33	19	16	5	1	5	4	10	4	7	4	7	11	10	6	1	5	7	7	5	5	5	3	4	6	5	7	5	0	0	4	8	11	4	8	8	7	5	3	7	5	9	8	4	2	5	7	4	2	2	4	3	8	14	12	60	55	5	34	17	10	26	14	5	5	2	8	7	8	11	11	8	10	4	2	5	8	11	8	46	62	40	10	31	57	43	20	4	48	65	20	55	27	7	4	15	14	9	6	6	12	4	9	13	4	7	7	20	32	17	27	20	12	20	28	48	56	33	12	19	52	48	48	52	79	43	38	61	23	23	36	31	26	15	4	4	23	34	18	14	27	6	22	28	11	47	45	30	28	40	44	31	78	63	27	14	24	37	18	21	13	13	10	19	12	53	35	13	8	15	16	15	16	13	40	26	23	25	29	45	9	5	2	11	18	30	21	75	23	78	22	31	25	14	28	10	29	22	20	46	39	17	8	17	12	14	11	4	19	22	11	10	13	10	17	32	22	24	55	67	37	27	18	20	28	11	12	22	44	44	49	79	56	19	51	5	33	10	14	12	43	24	18	35	48	37	52	63	63	91	106	94	63	20	12	2	11	5	35	27	24	50	36	7	18	29	37	42	8	54	72	
36	35	8	20	23	9	11	11	5	15	33	25	19	31	34	37	21	6	1	2	1	4	3	4	3	4	5	6	5	2	7	11	42	126	154	59	57	77	68	46	15	7	21	24	14	45	135	100	74	39	169	173	151	191	126	63	18	10	25	34	31	18	45	16	47	60	54	84	74	73	55	82	117	70	8	55	116	143	78	29	35	36	84	111	105	80	57	31	4	7	45	88	113	99	84	91	73	119	154	188	220	213	166	130	88	61	81	111	120	99	41	11	11	25	34	36	27	27	57	48	17	7	11	9	12	13	12	12	12	14	12	8	7	10	10	7	3	4	4	7	5	3	3	6	4	0	0	4	9	5	4	3	0	4	7	8	4	3	4	4	5	4	8	7	5	8	11	11	9	9	10	8	4	4	6	10	8	7	7	10	11	9	8	8	12	11	6	2	1	4	6	2	6	4	4	4	3	1	3	2	3	1	0	1	3	7	7	4	4	6	8	7	2	8	23	29	6	17	12	1	2	4	5	8	7	1	5	4	9	20	8	29	46	25	29	18	15	24	27	25	24	24	90	84	12	21	17	41	50	19	13	27	24	10	5	5	3	1	4	7	7	4	4	2	2	4	2	7	4	11	5	2	0	4	7	7	22	17	24	66	45	25	23	14	11	5	6	13	9	4	8	9	11	15	18	10	7	10	14	27	9	25	51	36	4	11	11	12	4	5	8	7	4	4	8	7	5	4	2	3	6	7	16	7	20	28	22	25	13	47	38	28	25	26	36	19	17	40	25	3	13	15	8	3	5	6	5	6	1	7	1	11	24	38	34	12	26	16	1	15	6	50	44	12	41	34	23	12	5	4	5	10	8	3	4	2	6	5	8	11	9	8	4	0	2	1	5	4	2	3	5	8	3	3	4	5	7	8	4	8	11	5	3	1	7	7	4	7	3	1	4	6	6	3	5	5	5	10	15	13	67	51	21	33	8	7	23	13	7	8	10	12	5	12	18	10	11	15	6	4	4	4	8	5	44	66	43	13	24	51	50	33	18	53	60	4	60	36	11	17	17	11	8	10	20	17	8	12	10	3	9	4	10	24	18	21	21	16	26	35	47	53	39	10	15	48	65	62	51	65	41	33	61	18	18	20	15	12	8	5	5	16	32	22	9	25	18	30	21	15	54	50	11	34	56	53	16	76	92	48	22	40	41	16	22	26	13	19	16	10	61	46	21	19	28	21	20	12	25	39	22	28	21	32	47	14	2	11	19	12	22	4	54	36	46	30	14	15	2	19	15	20	13	18	40	39	22	8	16	11	4	10	2	18	25	14	7	7	5	4	22	25	18	42	50	28	18	8	20	22	8	7	17	34	39	48	70	42	23	43	14	32	18	22	19	27	30	13	37	57	31	54	49	29	47	51	40	16	5	12	1	12	3	27	31	24	44	35	13	12	42	56	29	33	65	51	
33	41	11	23	25	8	11	13	4	9	30	36	26	19	14	33	26	10	7	5	2	3	4	5	2	2	3	1	6	0	8	9	19	91	138	134	136	106	76	51	18	12	19	18	19	29	131	161	93	89	143	235	232	132	63	83	46	8	13	25	32	17	31	17	38	74	48	37	38	21	45	23	116	135	86	36	57	141	137	51	118	161	170	180	224	209	103	59	98	120	119	94	72	83	102	109	54	45	78	123	155	124	103	103	109	105	112	103	88	107	69	27	8	5	15	35	54	51	49	50	24	9	15	20	22	19	15	14	13	14	13	8	5	12	9	7	4	2	5	8	7	7	7	5	3	0	0	4	7	4	1	0	3	3	5	7	5	5	7	7	5	8	11	8	3	2	4	4	5	2	3	6	2	4	2	4	8	7	4	7	8	7	5	5	11	12	10	7	5	5	8	5	3	4	6	4	1	3	4	3	1	1	3	4	3	4	4	7	6	1	10	6	3	9	24	26	7	19	12	2	7	10	10	7	10	5	7	9	14	18	2	23	34	35	24	1	15	15	8	14	10	27	83	77	52	54	40	37	45	18	13	25	15	3	1	1	4	6	8	4	2	2	2	4	3	4	4	8	8	11	5	4	5	8	12	14	19	10	21	48	36	2	16	12	5	4	8	13	9	18	20	19	15	6	7	17	8	19	22	34	14	34	54	33	1	4	10	5	2	2	3	3	1	4	4	4	7	5	4	7	4	9	16	3	23	40	14	31	5	34	30	34	27	7	22	36	41	31	13	14	3	8	7	7	5	0	5	7	6	7	5	8	14	30	36	17	24	21	13	8	11	46	37	10	41	41	23	7	5	4	3	6	3	5	5	4	5	1	4	8	9	5	1	3	2	6	3	5	2	3	4	4	4	8	11	10	7	5	3	8	12	4	0	1	5	6	3	7	4	3	4	2	5	5	4	6	3	7	12	19	69	45	26	31	7	10	19	12	8	18	24	32	25	7	21	10	9	18	10	6	4	0	5	13	44	65	40	8	17	31	48	42	19	42	42	26	53	30	9	11	9	4	17	24	30	24	24	17	5	8	11	5	2	12	13	19	21	14	8	7	25	49	49	12	47	63	60	39	27	49	27	33	57	22	12	17	13	11	12	5	5	15	31	24	2	17	13	18	10	14	41	58	39	22	59	59	12	66	107	67	20	52	47	18	20	34	21	24	26	27	71	51	24	27	24	14	10	12	37	34	16	34	25	31	44	24	15	11	19	21	14	18	36	55	29	17	2	13	12	16	19	11	10	14	44	44	22	4	12	15	3	8	5	10	26	29	17	10	9	11	5	11	7	36	36	18	17	9	31	20	17	13	24	22	18	41	52	20	22	34	7	31	17	11	5	14	32	21	32	50	11	34	34	24	2	35	37	13	4	11	5	11	5	17	19	30	34	20	16	7	50	66	5	63	64	28	
22	36	16	21	22	5	8	8	8	14	40	43	23	12	12	29	23	5	4	6	1	3	7	2	6	4	5	3	5	3	8	3	16	47	91	125	125	102	76	46	20	8	14	17	21	3	58	122	134	120	105	133	147	124	64	56	47	19	7	10	21	15	14	11	18	62	90	79	68	55	75	71	27	75	79	75	42	60	163	152	74	52	35	26	127	231	183	153	205	207	196	182	169	150	129	99	63	24	45	38	38	133	126	67	17	32	48	15	80	88	52	26	10	5	8	24	49	64	56	39	18	6	7	11	10	6	4	4	3	7	7	8	7	10	7	4	7	5	8	8	7	7	8	7	4	2	3	4	4	4	3	5	5	4	5	5	6	10	12	11	9	9	13	12	12	8	6	7	7	4	4	5	2	2	5	4	7	6	5	4	1	2	1	3	7	10	12	12	9	9	12	14	11	7	1	2	0	3	4	1	4	3	4	3	3	5	5	6	4	9	9	1	4	13	30	26	6	24	13	4	10	10	7	7	13	11	3	7	10	10	4	10	15	17	17	19	17	31	23	11	3	32	67	41	47	55	40	11	36	22	17	23	13	5	2	4	5	2	7	7	3	6	7	4	0	4	4	4	7	9	4	4	2	3	7	11	10	8	34	51	44	20	18	14	10	5	9	10	7	15	17	19	19	17	11	18	27	8	14	27	12	43	61	30	2	4	7	2	2	4	1	4	3	4	1	4	9	10	13	14	11	13	14	5	21	39	15	27	10	24	10	10	7	23	8	27	52	41	10	15	12	8	8	7	4	1	4	7	6	2	5	5	9	24	38	17	24	27	17	13	17	41	36	6	44	46	22	8	8	5	5	8	8	1	4	6	5	4	4	1	5	4	2	2	2	6	3	5	1	3	5	7	8	10	8	7	5	2	3	8	11	5	3	4	4	1	5	4	2	4	3	0	4	6	1	6	5	6	7	31	69	41	29	38	14	7	13	11	8	34	35	36	43	9	17	12	9	16	11	1	4	3	5	21	41	52	32	31	38	27	29	38	14	41	37	22	41	18	12	10	5	12	8	8	13	5	26	21	4	10	8	2	2	7	17	22	17	7	4	10	17	48	51	14	56	31	45	40	17	31	19	22	48	36	13	14	16	10	10	7	7	20	35	22	2	10	1	10	8	5	18	48	56	29	55	49	13	65	103	69	10	54	51	20	17	39	34	17	11	42	79	52	15	20	8	5	11	5	36	39	27	43	22	25	34	33	31	17	1	11	7	29	24	40	35	24	17	21	23	12	19	18	20	19	55	47	14	11	18	17	5	8	8	5	13	29	24	17	8	16	15	5	9	32	27	15	19	16	30	8	14	27	27	30	8	48	34	2	21	27	8	32	10	14	15	17	34	26	49	45	15	21	21	34	17	35	41	4	9	10	9	10	5	9	8	27	22	10	10	14	61	65	16	73	52	12	
16	29	16	17	21	4	5	4	6	17	48	49	19	5	18	29	22	12	10	4	1	1	5	2	7	2	5	4	7	4	6	7	13	10	19	23	21	22	25	17	12	1	11	17	18	23	27	15	43	45	24	20	23	69	79	44	20	21	20	14	11	10	9	14	2	28	67	93	79	43	44	76	90	70	25	18	55	24	101	206	191	120	71	50	20	155	147	141	191	169	182	178	190	184	138	65	33	29	19	25	101	145	104	85	85	71	51	81	112	86	51	25	5	4	12	17	16	20	22	13	7	8	4	3	4	7	6	7	8	8	2	7	12	8	4	5	8	5	6	5	3	3	2	3	4	7	7	6	2	4	8	7	6	2	3	4	4	7	6	5	8	10	10	6	8	12	12	11	8	4	0	4	4	4	5	7	4	2	2	2	5	6	4	1	3	5	9	11	10	10	12	15	16	16	13	9	5	4	5	6	2	7	4	0	4	8	10	5	6	7	4	2	4	10	31	33	5	27	16	4	12	10	4	5	13	17	6	2	4	7	3	2	5	13	26	27	11	26	32	20	7	41	60	18	39	29	46	15	34	31	22	21	10	6	5	2	4	8	4	5	8	4	7	10	8	7	5	3	5	4	3	6	4	8	8	8	4	16	46	57	36	14	15	15	15	12	13	10	4	15	16	10	8	21	27	10	28	22	17	25	14	47	69	30	3	5	4	4	3	4	2	4	4	4	4	5	12	13	9	4	5	14	15	5	18	28	24	23	5	21	20	24	27	21	7	28	52	41	10	8	10	13	7	4	6	4	3	4	4	3	3	2	2	18	41	22	26	32	8	14	23	42	42	7	47	48	22	8	5	1	2	3	7	5	3	4	2	1	3	2	11	12	10	5	4	6	7	4	2	3	4	4	2	4	6	3	1	2	7	8	8	5	2	6	4	2	3	1	2	3	1	1	4	4	2	5	6	6	8	45	58	26	13	34	35	21	10	11	17	40	33	18	46	22	12	12	8	12	6	28	36	25	13	30	29	29	29	39	43	45	43	42	14	46	43	27	43	14	7	11	6	7	10	14	21	25	24	18	4	8	10	12	12	13	17	12	2	4	1	6	20	40	40	20	53	12	31	35	22	13	16	6	32	37	22	10	12	10	10	2	3	25	38	20	5	11	4	7	5	2	5	25	49	34	41	32	13	65	84	54	24	40	55	28	20	48	41	5	19	46	76	53	7	13	11	7	13	13	23	35	40	43	12	18	15	29	37	22	7	10	12	36	19	22	27	21	13	29	26	6	5	6	8	26	58	39	12	9	14	11	7	8	9	11	17	24	19	19	16	4	17	13	11	28	23	11	15	14	14	14	9	37	27	44	19	49	17	14	21	24	12	33	8	16	14	13	31	32	53	23	29	18	2	26	29	15	42	24	3	11	6	10	3	5	10	24	16	12	10	27	79	63	44	81	45	6	
14	23	17	9	22	10	5	4	4	19	39	51	29	13	27	24	18	12	10	7	3	2	3	2	4	3	5	4	4	2	4	14	16	13	16	19	17	6	1	17	17	2	11	12	12	24	22	21	16	1	2	12	9	20	36	25	6	13	26	33	29	21	15	20	14	11	15	22	30	29	23	32	44	48	50	44	27	39	21	127	217	224	177	136	112	126	93	98	149	30	81	94	79	40	57	99	114	128	118	101	70	102	108	47	21	56	48	67	68	19	2	10	24	24	18	10	6	4	1	2	4	7	4	3	5	7	7	7	5	5	6	10	8	5	1	5	7	4	8	11	10	11	11	7	7	9	3	2	2	5	11	5	4	4	4	6	8	2	3	5	4	2	2	2	0	4	5	2	1	3	4	0	7	8	5	7	3	2	1	4	5	5	7	7	1	4	5	8	11	11	9	8	11	13	12	12	8	5	7	7	3	6	2	4	4	9	11	4	11	7	1	1	4	5	29	39	7	27	20	5	11	9	4	2	12	20	8	5	3	8	2	2	8	26	38	23	9	26	32	19	12	35	49	30	38	15	55	33	35	42	30	20	10	10	7	4	9	10	8	2	9	11	5	2	7	6	4	6	5	4	7	4	2	4	10	15	11	20	53	49	7	18	15	9	8	9	12	13	6	11	21	22	17	12	34	37	33	25	18	24	8	56	70	28	4	4	2	4	4	4	2	4	5	4	4	7	13	14	15	16	14	12	13	6	11	18	23	18	11	21	36	17	5	15	14	34	50	38	18	6	2	3	5	3	6	4	4	5	3	2	2	2	4	15	39	23	28	32	5	7	17	42	44	15	58	48	17	4	3	5	7	6	1	4	7	4	3	4	2	6	13	9	10	10	7	7	10	11	7	2	1	2	3	6	8	8	4	3	8	7	4	6	7	7	7	8	10	8	4	1	0	2	4	3	2	4	5	8	17	49	39	17	13	9	32	31	8	5	19	33	20	17	37	27	6	7	10	9	23	60	60	57	32	36	15	10	16	22	25	27	34	17	28	65	36	32	43	16	4	6	5	8	13	12	11	14	17	14	4	4	8	11	11	8	8	3	10	7	9	12	24	29	34	21	41	12	17	22	23	19	21	11	26	30	16	9	11	11	14	10	9	25	36	18	4	12	11	8	5	3	6	8	31	19	17	27	10	61	64	42	33	17	59	36	26	57	38	7	28	48	70	46	7	9	12	12	3	13	29	41	38	27	15	12	5	25	40	20	4	5	21	36	15	11	18	11	16	33	25	3	9	12	11	31	57	30	6	4	11	7	5	5	7	10	15	19	16	12	14	7	8	8	13	23	16	13	20	12	14	23	36	50	18	44	24	43	6	30	32	33	27	42	15	12	12	7	11	38	38	19	40	15	14	18	38	15	24	32	18	10	3	10	2	7	13	25	19	9	8	43	86	39	65	86	41	9	
12	15	18	14	21	13	4	8	17	28	31	36	28	23	31	20	10	3	3	7	5	0	3	3	0	2	2	4	3	3	6	15	14	8	7	5	4	7	2	19	19	4	14	9	3	14	5	13	17	10	3	5	11	21	27	21	11	8	10	12	15	6	7	18	14	12	19	18	18	17	15	16	7	1	12	29	29	21	27	14	83	165	217	229	198	131	69	93	156	106	91	95	130	183	214	191	167	185	205	176	105	27	94	93	44	25	13	51	48	7	17	23	26	26	34	18	4	4	5	2	2	7	10	9	7	7	7	7	3	2	7	12	3	8	3	1	7	5	4	7	6	6	9	9	5	6	3	3	0	7	10	2	7	5	6	11	8	2	1	6	4	3	4	4	3	0	2	2	2	1	4	7	8	9	4	7	7	4	2	4	7	5	1	6	6	4	2	4	7	8	4	2	5	8	5	3	7	8	8	7	9	7	2	0	2	7	12	5	10	11	5	3	6	13	29	36	7	25	21	1	10	11	5	5	14	17	6	7	3	12	1	10	21	41	35	7	26	24	21	12	18	25	25	21	20	11	63	52	43	58	44	33	13	6	0	9	10	4	10	7	4	9	9	7	7	5	4	5	4	4	3	1	3	5	0	9	10	15	56	45	13	25	22	22	19	12	7	10	12	7	9	17	24	14	8	13	8	12	17	22	12	63	64	25	4	2	4	4	4	3	2	4	6	4	4	4	8	11	12	13	15	14	10	3	4	6	11	14	12	12	30	32	24	22	14	37	53	42	32	18	8	5	0	4	1	4	6	3	3	5	4	4	7	15	33	19	31	27	5	11	20	49	45	30	70	40	12	1	3	7	5	4	3	4	8	4	4	3	4	7	11	8	5	5	2	3	3	5	7	5	4	2	1	6	7	7	5	1	7	8	4	4	5	7	8	8	11	10	6	4	1	1	4	5	0	4	3	4	17	47	29	8	18	26	36	33	9	10	24	29	5	12	18	33	26	9	10	3	47	70	34	58	39	29	12	4	5	10	20	17	9	17	57	57	12	46	42	15	4	8	10	7	4	6	3	8	11	6	1	0	2	1	2	3	5	6	8	9	14	9	24	28	29	13	31	11	10	14	20	24	18	14	39	36	13	7	7	9	13	10	11	26	33	15	1	7	5	6	2	5	10	5	17	27	11	32	14	50	49	31	38	14	56	34	33	55	25	22	34	55	67	34	3	5	7	9	11	10	20	33	28	18	10	6	10	28	35	17	19	17	28	34	23	1	18	16	15	33	30	6	24	21	27	23	65	35	5	5	10	5	4	5	2	3	9	20	22	15	6	8	13	7	14	14	6	18	20	25	32	15	57	61	17	39	22	39	20	49	35	21	18	40	24	7	4	12	18	39	17	46	41	11	25	7	29	29	4	27	31	14	10	10	9	8	14	26	23	11	10	48	67	50	77	67	31	5	
9	8	8	15	19	12	5	17	23	26	30	24	7	25	26	12	2	6	7	7	8	6	4	3	2	0	0	1	2	2	8	14	12	6	2	2	9	10	8	22	20	4	15	15	3	14	16	3	11	11	13	17	16	14	15	14	13	17	26	26	19	16	21	20	4	9	17	18	14	5	5	7	13	5	9	7	6	4	21	36	35	21	72	124	124	62	42	84	86	48	120	172	197	187	139	75	56	77	111	144	170	148	87	66	30	24	37	52	42	26	32	34	33	22	29	19	7	1	1	4	8	10	10	7	5	4	3	3	6	7	8	4	7	7	4	5	7	5	4	1	6	11	12	11	4	5	3	1	2	6	8	9	5	2	9	14	8	7	6	4	3	3	4	4	2	3	1	5	6	3	4	7	6	5	4	5	2	6	5	3	8	2	5	5	6	4	1	2	1	6	3	0	4	10	6	1	4	10	13	11	8	6	7	7	5	8	11	5	7	10	8	3	5	14	27	28	2	24	22	10	14	19	10	12	19	12	3	5	2	12	4	18	34	41	8	26	22	14	14	10	12	34	44	45	45	55	77	53	39	59	60	58	35	8	5	8	9	0	10	6	1	5	8	4	2	4	4	4	4	3	4	3	2	5	5	7	17	16	59	50	6	20	10	4	2	4	6	2	7	14	15	16	20	17	5	15	16	17	17	19	23	51	55	28	7	4	4	5	7	5	5	5	9	5	4	2	2	5	4	4	8	11	11	8	5	4	7	12	14	16	21	11	14	32	27	18	45	38	32	23	7	4	5	1	2	3	4	4	6	3	5	7	7	17	28	15	25	14	12	17	29	58	39	49	79	27	9	5	1	4	4	3	5	4	8	5	4	0	5	4	5	8	7	7	7	8	7	4	3	8	8	3	5	7	11	10	6	3	6	8	3	1	5	7	5	6	4	8	7	5	3	0	4	5	2	4	8	8	21	48	30	7	14	27	33	21	4	14	33	28	8	11	27	43	47	32	16	18	59	57	4	30	18	9	18	12	8	2	15	27	28	24	58	33	37	58	38	12	4	10	8	4	7	11	11	14	20	11	2	0	2	6	6	5	4	2	8	9	11	1	14	29	30	4	26	9	7	7	11	13	8	27	44	26	1	7	10	12	15	11	12	26	27	10	2	11	11	10	7	8	12	18	16	27	14	24	24	41	31	14	36	14	50	26	32	42	31	32	31	57	62	21	2	4	8	10	10	6	17	35	32	22	26	24	28	39	25	14	31	29	36	36	29	4	29	29	20	29	34	7	41	18	46	4	69	47	5	10	11	5	4	8	5	7	9	23	34	17	11	18	22	26	25	8	12	16	15	43	39	14	74	68	21	37	20	32	18	62	47	19	24	26	18	20	17	8	26	47	3	55	44	5	26	20	18	23	8	16	26	26	20	12	14	11	20	26	19	9	21	50	29	32	41	32	31	12	
8	6	4	11	11	8	10	24	24	27	33	11	15	18	9	4	4	4	4	4	7	2	5	4	1	0	0	1	3	4	7	10	11	10	0	9	7	2	7	23	26	10	5	15	18	15	22	13	6	7	12	14	11	4	7	11	8	6	11	16	14	10	14	6	7	8	10	12	5	5	5	6	16	10	8	10	7	4	8	19	34	42	34	35	104	110	81	87	56	37	65	66	63	68	109	141	137	122	86	32	94	135	120	110	103	90	54	17	33	18	22	40	51	49	29	14	13	9	6	10	8	5	8	7	9	15	18	15	13	14	10	7	6	11	17	21	22	19	10	12	16	16	18	20	15	11	7	4	5	11	15	16	13	7	16	14	7	3	7	4	7	4	2	2	5	9	9	6	4	5	7	4	4	5	9	12	10	3	6	3	8	7	4	0	4	7	5	2	4	5	0	2	5	8	7	7	6	8	12	13	7	3	2	2	7	11	7	5	7	5	6	5	7	16	29	23	8	28	22	7	12	26	17	17	25	14	5	3	4	5	10	24	39	20	24	28	7	9	16	18	14	56	67	67	79	75	52	13	20	28	38	55	45	15	2	6	7	3	12	9	7	5	8	4	2	4	3	4	6	0	2	0	1	3	5	4	17	10	58	53	9	22	14	12	15	12	5	2	4	3	5	10	14	12	2	13	1	22	17	4	18	26	48	39	14	8	8	7	4	4	7	7	7	4	4	4	4	7	7	5	7	5	4	5	8	8	12	11	17	26	21	8	10	24	25	25	34	36	34	23	6	1	5	4	1	3	4	7	7	2	2	3	2	13	21	16	15	5	10	19	39	58	14	60	66	25	9	3	5	7	8	5	7	4	8	7	4	3	6	2	2	3	3	7	7	8	7	7	3	5	8	4	4	7	5	7	7	5	6	8	5	3	7	5	3	4	2	4	6	7	4	1	4	3	0	4	10	3	27	50	30	8	23	21	15	7	5	19	31	20	8	10	35	32	50	46	22	42	57	25	14	10	14	14	20	16	7	11	10	19	24	5	46	34	58	53	21	9	8	8	11	13	15	15	10	8	18	14	3	1	2	4	2	4	5	5	6	3	6	4	4	31	36	8	27	10	8	7	2	0	12	27	37	40	33	18	7	13	17	16	13	17	20	12	5	13	12	15	11	7	9	22	34	33	17	12	15	36	24	8	30	8	47	27	29	45	44	29	15	52	55	17	2	4	11	9	9	5	11	34	37	27	35	25	41	60	27	24	18	24	40	41	29	4	32	28	6	24	33	13	51	17	45	24	58	46	11	10	13	7	5	11	9	5	6	19	33	25	14	35	27	36	44	16	17	16	22	54	39	27	85	65	7	27	14	22	8	50	55	31	24	10	11	19	24	17	21	45	7	50	43	10	11	12	8	15	7	7	15	21	21	15	17	9	27	29	14	0	25	48	20	29	28	23	30	20	
7	8	8	8	5	7	7	25	32	43	39	12	24	11	6	7	4	1	0	2	5	3	7	4	1	0	1	2	3	2	5	7	10	13	1	12	4	3	16	32	44	31	22	27	41	32	37	31	11	3	11	8	10	4	5	8	8	11	18	18	12	7	12	13	12	7	3	13	12	7	2	10	12	8	10	9	9	11	10	9	12	10	28	14	73	134	141	111	108	100	18	81	127	126	149	177	194	209	212	158	91	95	76	71	58	49	88	110	133	139	116	71	24	10	20	21	27	20	20	11	26	38	36	32	37	41	39	35	33	28	23	23	21	14	12	14	12	21	8	11	7	7	21	40	39	28	26	29	29	28	27	24	25	37	42	31	20	18	22	19	12	6	7	6	10	7	10	6	6	2	7	2	1	1	5	5	7	2	5	2	7	8	6	4	4	5	8	5	3	5	2	1	5	5	6	5	4	4	5	10	12	9	5	2	7	11	4	5	2	2	5	6	8	21	35	19	19	32	15	4	15	28	22	15	27	20	12	4	4	2	8	26	30	8	27	14	6	12	21	20	10	63	89	53	34	32	12	11	18	31	47	50	35	18	3	7	6	5	14	9	5	7	12	4	6	4	0	4	7	7	6	3	4	3	4	1	10	37	67	43	6	21	9	8	9	17	12	3	8	11	13	18	25	29	20	2	14	30	21	21	16	8	36	41	16	7	4	2	1	1	4	6	3	3	7	6	3	4	7	4	5	4	0	1	5	10	11	4	13	21	29	27	29	24	8	39	50	44	32	15	1	2	5	5	3	5	8	10	7	1	5	7	7	5	14	15	9	2	4	17	48	57	31	66	40	13	10	4	7	8	10	7	5	3	6	4	2	4	5	2	2	3	4	5	0	7	7	7	3	4	7	4	1	7	9	3	2	5	5	9	7	4	8	4	1	4	6	4	5	8	4	3	5	4	3	5	9	6	38	49	20	1	18	31	24	11	13	17	19	15	12	23	34	4	42	49	18	56	39	9	15	10	19	21	17	8	11	25	21	18	29	11	35	29	40	22	11	15	8	5	7	9	12	9	4	11	16	13	4	4	0	4	3	1	7	8	3	4	5	8	4	29	33	15	26	8	5	8	7	5	12	20	21	22	22	18	12	10	18	20	12	8	15	14	5	12	15	7	12	2	12	21	25	30	26	20	10	27	13	4	24	14	41	37	23	41	41	32	5	41	53	27	8	4	11	7	12	14	19	37	32	21	40	22	48	71	30	31	55	67	60	37	18	7	28	41	34	34	34	28	57	18	36	22	40	31	15	8	15	8	5	12	13	5	14	19	20	22	25	37	23	25	51	34	17	19	31	62	37	36	90	61	5	18	5	14	4	33	45	15	8	7	15	6	26	13	24	41	5	47	37	8	8	7	3	14	12	8	12	10	4	8	20	14	25	22	6	9	27	52	40	42	48	35	24	8	
3	7	1	6	5	7	2	19	40	59	40	25	32	10	1	5	4	4	3	3	3	3	7	4	4	1	3	4	7	5	5	8	13	15	3	11	9	16	28	26	39	36	36	47	51	34	39	41	28	16	13	8	13	7	8	8	10	17	22	22	17	11	4	10	18	14	9	12	12	8	7	11	4	11	17	15	9	6	11	18	8	1	8	20	14	76	145	171	181	175	162	96	56	24	58	55	52	103	179	199	204	246	276	312	336	334	315	282	269	270	257	226	198	166	128	100	89	80	71	54	48	33	32	37	39	34	39	49	62	76	80	77	89	121	149	161	159	150	137	125	113	94	70	46	53	51	32	13	27	30	25	31	44	39	6	34	43	37	13	11	26	36	36	29	31	38	33	22	22	29	32	32	30	26	28	34	31	23	18	15	15	17	17	13	10	7	8	9	4	5	1	3	3	7	7	5	2	4	3	2	10	17	15	7	8	14	11	9	9	11	12	7	5	24	37	12	25	30	10	9	12	23	20	9	22	21	16	3	5	4	11	28	26	5	16	22	12	13	13	15	4	46	95	84	28	19	20	10	23	44	50	43	27	13	5	6	5	7	13	6	4	8	15	7	8	8	4	2	5	13	15	14	6	4	3	4	12	44	50	12	18	14	4	5	1	15	17	8	11	16	19	21	23	26	29	20	15	29	18	29	27	14	33	36	15	9	4	4	1	2	4	3	2	5	2	3	2	0	4	4	3	4	4	3	4	8	8	7	16	15	15	31	50	22	37	46	38	30	17	4	2	1	6	7	4	4	4	3	3	7	8	5	7	2	4	7	7	3	3	8	43	55	39	48	19	7	14	6	1	4	3	2	0	5	8	7	5	4	2	5	9	8	4	1	5	7	4	5	5	7	5	3	1	5	7	7	3	3	7	11	7	5	6	2	4	3	3	2	3	8	5	4	7	4	4	8	10	12	56	54	20	4	4	26	24	9	15	14	10	5	6	25	34	18	34	42	17	55	11	31	17	19	17	23	17	7	23	36	24	32	37	13	17	13	15	20	24	17	9	5	5	7	8	2	12	13	10	6	7	9	10	8	4	1	7	8	3	6	1	7	3	20	27	17	17	4	2	4	11	13	18	25	25	27	25	12	1	1	18	27	15	10	6	11	10	7	18	4	10	6	8	27	41	31	2	17	16	18	8	17	25	24	31	44	23	15	31	36	14	30	46	31	11	11	14	7	10	25	30	30	16	20	43	22	46	58	44	28	39	40	27	15	7	5	11	25	32	42	39	43	56	21	34	12	24	20	13	7	17	5	5	8	13	11	17	13	7	16	17	21	18	5	41	44	25	22	49	77	31	52	89	53	2	14	1	12	4	30	48	17	12	7	20	13	19	11	32	32	14	51	32	5	7	4	9	17	10	16	36	35	31	9	11	11	17	16	3	11	34	63	50	26	68	51	18	8	
2	7	4	7	7	6	3	21	38	55	46	12	39	15	4	7	7	7	7	5	4	5	3	2	4	2	4	2	3	2	6	8	16	12	12	16	19	24	22	9	22	21	28	38	28	11	23	31	36	31	17	7	13	7	8	5	10	20	20	8	18	25	12	25	21	25	25	21	25	27	20	17	17	21	18	23	31	36	31	25	12	11	23	35	45	32	23	53	68	71	130	138	121	107	122	135	126	91	91	52	88	168	197	229	274	296	280	237	196	181	201	241	295	332	339	337	335	327	309	291	287	287	284	279	279	278	276	287	311	329	330	323	323	335	352	370	371	355	336	325	317	307	297	293	291	283	266	228	185	179	186	175	158	167	212	251	263	256	229	184	140	111	107	108	95	73	64	65	61	49	36	21	16	28	38	31	8	5	11	7	22	36	38	34	33	34	34	35	35	31	25	20	15	10	10	14	11	7	6	9	10	14	14	7	12	17	16	12	13	17	15	8	2	23	41	12	25	25	11	3	8	21	25	18	17	19	16	1	3	8	11	28	32	22	22	27	27	16	4	10	13	28	85	88	33	22	13	2	19	49	57	42	17	5	4	1	4	5	11	7	2	8	16	13	6	10	8	11	10	21	23	32	15	5	0	8	18	53	46	5	13	12	10	4	9	14	15	9	6	7	7	7	5	12	22	27	29	25	5	30	36	21	31	33	18	12	6	7	4	9	10	10	4	4	3	4	1	0	5	4	2	3	3	4	6	10	8	11	26	33	46	55	45	8	49	54	26	7	1	2	1	5	7	7	2	4	7	7	5	8	5	3	7	4	1	4	8	4	4	4	26	45	21	24	15	9	12	4	7	7	6	2	2	8	11	8	7	4	3	8	7	7	4	3	2	4	4	5	6	5	2	1	2	4	2	4	5	3	6	11	5	4	2	3	2	2	4	2	3	8	7	4	7	5	5	13	13	24	80	63	42	26	9	29	21	5	13	8	7	5	2	15	25	20	23	28	18	44	7	33	5	14	19	24	24	15	35	39	13	29	35	20	8	7	2	5	13	16	14	13	11	8	11	6	12	11	6	2	0	1	4	7	8	5	6	8	0	5	6	4	1	9	18	13	8	0	2	7	9	10	29	37	24	16	12	6	8	12	23	39	21	8	8	15	21	10	13	7	5	7	4	15	37	54	43	20	8	17	10	13	14	16	25	40	26	4	29	31	18	36	41	24	9	18	17	11	5	34	41	24	5	18	47	31	34	36	44	50	29	12	10	2	1	6	2	14	22	28	21	41	44	19	36	16	16	18	12	6	15	3	7	5	6	3	13	8	5	2	0	12	16	7	22	37	27	11	82	95	29	78	87	44	4	13	6	9	4	25	50	23	14	0	14	2	11	19	27	11	34	53	27	12	15	7	9	17	15	34	51	31	40	21	16	13	17	9	5	8	42	68	36	35	66	50	14	9	
4	8	2	8	8	8	7	27	37	40	47	20	37	16	1	5	7	3	6	7	2	1	0	2	4	2	3	3	2	2	3	11	17	6	25	31	30	28	17	11	17	11	13	19	9	5	14	23	39	39	18	1	10	7	7	5	12	24	18	1	25	32	7	40	23	20	31	32	34	38	38	33	31	38	50	63	67	63	46	22	12	12	20	24	26	37	34	24	26	24	44	52	63	78	104	125	140	137	146	130	143	167	132	105	108	98	75	97	126	117	61	16	60	102	158	219	263	280	285	302	331	349	348	347	360	373	369	355	343	336	334	333	318	283	251	249	256	246	236	248	278	310	333	333	314	306	323	341	332	327	328	335	340	338	335	325	316	324	338	340	334	332	335	333	323	305	287	281	281	270	248	226	214	222	230	220	188	156	139	130	120	102	88	79	63	40	17	4	3	15	30	42	47	48	46	38	28	23	21	15	4	21	14	6	8	14	17	12	7	11	13	17	12	24	46	18	27	25	11	5	3	8	15	17	18	29	31	27	23	15	6	22	38	41	10	41	36	14	6	7	10	29	85	75	24	38	35	32	20	36	58	46	18	8	5	4	3	0	9	8	6	5	14	16	5	16	20	13	22	36	23	42	32	7	3	8	7	45	60	26	25	25	19	13	10	14	11	4	8	15	19	19	15	11	18	29	34	21	17	47	42	22	26	30	17	11	9	11	10	12	8	11	5	0	1	2	4	3	7	4	3	3	5	8	5	9	11	7	32	44	30	21	18	19	51	54	22	4	7	4	6	7	7	4	4	8	7	7	4	8	4	5	6	4	1	5	7	2	4	5	7	30	19	13	20	13	9	1	8	3	4	4	1	11	13	5	4	4	6	7	3	11	7	2	2	4	4	2	2	4	7	7	5	5	4	3	4	4	4	9	6	4	5	1	5	5	2	3	2	8	5	4	7	7	8	17	7	34	87	65	32	49	32	33	15	13	12	6	5	2	2	12	11	9	17	17	19	40	12	31	8	8	20	24	24	14	34	46	41	28	19	16	12	3	10	15	20	19	31	32	21	8	8	4	10	9	7	4	5	8	10	7	2	8	8	9	4	3	4	2	2	1	8	10	9	7	4	10	11	8	37	39	17	14	14	4	8	13	27	49	24	9	19	9	19	17	10	1	7	8	5	7	1	22	37	39	32	20	20	19	11	4	24	34	22	7	30	19	20	35	28	12	7	15	7	20	11	38	57	30	17	13	39	35	22	19	27	52	50	28	17	11	2	7	2	26	44	35	17	38	29	11	29	21	12	16	10	5	12	3	4	5	6	4	16	8	10	5	3	11	13	7	10	20	15	37	117	84	41	96	76	35	5	7	8	6	2	14	44	35	17	7	22	16	15	18	11	15	39	41	22	10	18	14	4	14	16	36	42	4	37	17	31	31	31	6	4	10	39	61	29	33	45	44	26	1	
4	5	3	8	6	10	8	26	51	44	26	17	31	7	6	9	13	12	7	6	1	4	5	8	8	7	5	3	1	3	5	17	12	15	30	27	24	18	8	13	13	8	4	13	12	4	10	22	37	38	25	9	5	10	7	3	17	28	15	9	31	28	19	44	20	8	16	17	14	23	31	25	18	22	34	42	30	24	29	9	8	13	10	20	21	20	12	5	15	20	18	8	13	16	30	41	49	56	92	96	154	215	223	239	255	264	256	258	257	232	213	213	241	265	252	205	151	124	106	72	26	13	37	61	85	105	112	95	70	58	57	55	41	12	26	39	29	42	28	18	33	55	82	82	55	37	61	116	135	140	140	153	173	173	146	104	72	77	111	159	202	226	234	244	264	282	288	294	300	306	315	324	319	303	293	309	331	336	321	305	308	317	307	287	279	276	254	222	204	191	161	117	80	50	31	24	11	26	52	55	45	46	36	35	32	20	10	10	2	12	7	13	13	24	45	17	25	25	13	3	5	1	11	17	21	38	34	23	18	14	23	26	31	38	11	40	44	15	2	4	5	35	90	59	10	25	19	17	9	34	63	43	13	4	9	7	4	5	10	15	16	8	8	21	20	22	19	8	32	47	23	35	46	22	3	6	10	22	70	61	11	31	31	14	8	11	7	2	8	19	30	33	29	22	18	27	31	14	29	54	37	20	19	28	18	6	4	5	3	6	2	8	7	2	5	7	8	7	10	7	5	4	4	4	3	9	13	4	26	41	49	54	46	31	53	47	14	7	3	6	6	6	4	3	7	4	4	4	5	10	4	7	6	3	4	8	5	2	4	2	3	20	25	15	17	13	8	1	6	5	0	4	4	11	14	4	4	6	6	5	7	13	5	4	4	3	7	4	4	4	4	2	3	7	7	7	4	1	1	7	9	3	3	7	8	5	4	4	1	8	4	3	7	5	9	17	10	35	73	69	7	50	52	30	4	11	12	11	7	3	5	18	10	10	20	24	33	53	21	39	20	18	18	15	15	2	17	22	24	15	4	14	15	14	12	14	36	28	31	47	41	20	7	7	10	8	8	4	2	6	7	12	7	4	8	11	8	3	3	5	4	2	1	4	4	5	5	6	12	11	43	37	9	7	15	10	8	7	25	49	29	7	18	10	8	3	5	7	7	8	6	0	6	5	12	35	48	23	13	19	7	12	22	32	19	15	32	8	20	20	20	12	10	17	7	24	15	20	59	57	8	34	23	38	21	11	12	28	36	27	14	11	8	7	11	46	63	45	54	51	19	8	21	17	5	14	7	5	9	2	3	7	9	4	16	10	7	1	0	12	11	5	7	5	16	84	121	27	84	93	53	25	9	5	4	2	3	6	26	34	32	31	34	1	7	13	8	27	32	29	22	2	21	18	2	8	6	33	27	18	18	33	46	50	51	10	9	7	30	47	27	18	28	43	33	2	
4	5	4	8	4	10	17	20	65	55	9	38	35	26	14	3	4	8	4	1	6	10	8	5	5	5	2	4	5	8	14	18	4	22	28	13	2	8	12	15	13	4	1	6	9	6	5	21	34	39	39	27	7	6	7	6	20	29	9	18	37	22	29	39	14	11	6	7	22	37	38	27	19	33	29	14	4	17	29	15	28	43	51	39	22	17	20	25	28	22	12	11	20	32	44	43	24	26	64	43	61	132	150	141	127	133	136	145	133	110	127	152	188	216	243	260	257	256	257	263	259	247	231	223	224	215	189	160	133	109	108	133	149	144	130	122	109	100	84	85	91	94	90	91	91	83	75	58	36	34	45	54	45	31	34	55	81	100	97	58	12	10	10	17	24	43	43	36	32	60	103	138	145	123	105	128	178	216	230	238	259	284	291	282	294	329	348	326	300	307	326	329	323	310	286	247	198	143	91	74	66	67	53	28	14	11	20	15	5	10	9	18	15	26	40	14	26	20	8	5	7	8	16	51	97	131	132	149	184	197	182	141	89	50	43	49	63	29	6	8	8	37	90	54	11	21	28	36	20	52	63	29	7	3	8	8	5	5	2	6	7	16	13	21	26	28	28	22	41	48	28	9	44	39	10	13	26	25	74	86	8	50	30	8	5	7	5	4	12	15	15	18	27	31	26	28	24	4	34	51	21	8	6	24	25	20	15	10	9	10	8	5	7	1	7	5	5	7	11	8	7	4	0	3	3	11	13	3	15	24	29	34	36	22	42	34	9	7	6	5	2	5	7	4	4	4	8	4	9	7	2	6	5	6	5	5	0	4	2	2	0	10	18	13	10	11	7	3	2	7	3	1	3	10	14	4	4	5	10	8	8	10	1	3	4	3	7	4	0	1	4	6	5	8	4	4	3	1	3	4	7	7	7	8	5	3	6	6	4	8	4	5	8	2	6	12	9	37	61	59	12	52	58	19	8	13	14	14	7	7	3	21	14	15	29	17	45	65	5	40	28	22	19	12	10	1	13	12	15	23	14	12	19	18	14	7	41	42	8	22	29	20	9	10	8	7	8	5	2	7	5	9	11	0	8	13	11	4	4	7	4	1	1	1	2	2	3	2	10	6	43	38	6	7	18	6	4	7	19	44	31	5	9	11	15	16	12	4	10	11	6	8	4	4	6	36	47	22	14	23	12	7	13	34	18	21	28	4	11	20	26	20	11	22	13	28	22	2	43	65	11	41	10	29	14	10	28	36	28	22	14	10	11	8	22	52	57	9	55	55	21	11	17	16	5	15	8	6	7	3	4	7	8	4	10	10	13	10	7	10	8	5	11	15	42	103	86	31	97	69	34	16	5	13	16	12	11	9	6	17	24	37	45	23	25	27	22	30	29	22	18	7	30	18	15	17	18	37	18	16	11	60	55	70	73	24	6	10	28	34	16	11	17	49	35	14	
4	7	4	9	1	2	11	29	66	51	18	57	28	31	27	18	12	7	2	3	7	5	2	6	5	8	10	12	12	13	17	12	10	25	23	10	12	13	14	13	10	4	4	6	10	11	9	18	25	24	37	42	16	1	5	8	16	30	8	25	41	19	29	35	16	13	14	33	62	63	57	48	38	54	50	43	43	60	83	93	90	87	93	106	118	120	101	72	49	34	14	12	23	29	34	34	19	42	60	45	19	34	50	54	54	63	65	70	52	25	39	43	36	9	50	74	68	79	98	131	163	187	209	243	279	294	277	234	183	139	129	144	138	120	100	99	90	68	48	52	62	73	71	59	40	19	26	22	9	22	58	69	63	47	33	32	62	89	102	108	76	43	34	40	50	68	90	120	123	88	50	40	39	37	48	72	87	77	45	13	30	47	78	94	93	101	136	175	167	158	180	224	282	343	382	384	376	378	381	373	360	352	336	302	256	196	129	92	97	108	113	121	139	147	107	52	27	7	5	5	11	26	60	149	235	292	321	341	361	351	323	289	250	188	100	60	70	25	5	8	12	36	73	55	12	20	32	27	31	67	47	26	26	17	10	10	8	1	5	5	12	7	44	83	96	91	84	88	80	29	24	26	37	40	12	15	39	19	88	89	4	50	20	3	4	7	7	2	10	16	18	18	13	18	22	9	14	16	27	47	23	10	20	36	44	33	20	10	4	5	3	2	4	3	7	3	3	4	10	7	4	4	4	4	4	10	9	6	8	10	14	20	21	14	22	30	21	2	4	1	3	4	5	4	4	7	7	4	8	7	3	3	5	5	3	5	4	2	2	4	4	5	8	4	8	10	3	4	4	8	5	4	4	9	12	2	3	2	7	11	7	5	1	2	5	6	5	4	3	4	4	4	5	11	8	2	4	3	3	2	1	6	7	5	4	4	4	4	7	10	7	5	8	1	4	6	11	55	80	67	34	61	60	14	12	13	8	7	11	8	8	17	27	15	25	20	57	53	18	44	22	21	26	15	12	9	14	16	20	24	5	18	24	17	11	1	28	45	41	34	28	23	15	11	5	4	7	7	4	5	4	6	11	4	7	14	12	5	5	8	5	3	4	2	6	4	2	2	9	7	37	52	32	17	17	2	4	10	19	43	27	4	1	7	10	11	12	8	8	13	2	11	12	7	1	35	44	18	10	20	6	17	17	41	19	25	26	8	5	7	23	24	12	25	9	28	25	5	40	59	6	36	1	28	14	15	32	26	14	12	12	8	10	6	29	48	38	18	55	46	12	3	12	14	2	14	10	4	4	4	4	5	5	4	6	1	5	8	10	8	3	8	14	17	48	93	51	44	78	58	32	14	11	9	16	20	16	10	7	4	5	26	33	22	23	24	24	24	27	17	7	19	33	9	28	15	23	42	15	15	25	71	35	69	87	37	6	14	35	29	7	7	12	50	32	43	
4	6	4	10	4	2	10	33	58	36	29	59	20	19	20	14	10	7	2	3	7	8	12	12	11	11	11	11	11	11	11	5	15	28	20	3	5	4	3	4	7	7	4	8	14	13	6	18	23	14	29	45	23	4	4	4	10	30	8	32	38	15	24	37	30	37	48	64	62	37	43	60	52	66	79	101	98	95	116	137	114	67	48	56	69	75	79	71	60	53	30	8	19	16	27	33	15	42	47	31	26	14	9	25	39	54	68	65	39	26	35	36	15	10	30	47	24	16	15	17	13	14	36	80	115	150	181	202	215	190	143	94	49	32	25	32	40	28	24	21	8	1	7	12	16	13	30	36	32	62	78	59	54	44	43	44	67	68	46	99	148	138	89	50	57	64	72	76	69	79	34	53	47	25	45	65	97	108	100	87	79	70	42	11	1	24	11	41	71	58	40	36	66	99	143	200	259	313	353	361	362	376	396	408	407	391	351	308	295	296	303	320	331	284	194	123	44	12	10	8	14	27	62	169	221	205	246	246	220	197	209	215	193	145	113	109	62	9	5	5	1	32	57	56	42	30	10	21	44	52	35	22	24	23	10	6	10	11	2	13	38	99	185	249	281	288	299	313	273	178	50	18	13	53	111	146	152	144	141	74	30	38	14	15	12	8	10	6	9	8	17	30	41	28	15	19	21	15	15	49	31	17	37	29	42	33	21	15	9	10	7	5	2	4	4	2	5	4	6	7	2	4	6	5	3	5	7	9	15	21	20	11	8	11	2	20	28	15	2	5	4	4	8	7	4	4	1	6	6	4	5	5	7	11	5	7	7	5	5	5	1	4	5	1	7	5	2	4	6	8	5	4	2	5	11	7	1	4	3	7	7	4	2	4	4	5	6	5	5	6	8	7	0	9	11	2	4	5	7	5	3	2	3	4	5	4	1	2	6	11	11	1	9	3	7	6	18	69	78	41	16	62	65	21	15	8	7	16	24	22	15	15	24	17	17	36	46	30	24	36	14	22	29	13	5	4	14	19	20	25	17	20	23	14	5	2	11	27	32	27	26	24	16	7	1	1	5	8	8	7	4	2	9	7	4	12	13	8	4	7	5	2	6	2	7	3	4	3	4	10	10	37	40	33	25	16	10	10	27	43	20	5	4	5	4	4	7	3	5	8	10	17	12	10	7	33	41	14	14	18	4	18	14	49	20	35	31	10	7	32	58	65	33	24	9	30	31	1	44	49	7	30	5	30	10	23	32	21	11	10	8	6	8	9	32	42	21	16	47	41	14	9	10	10	7	9	8	4	7	10	11	10	8	5	8	7	9	4	1	2	0	10	11	10	45	84	47	24	65	74	45	10	12	15	6	6	7	4	5	7	9	19	16	11	11	7	14	18	26	14	5	24	21	8	28	12	25	41	12	13	27	71	31	62	92	46	7	20	42	27	9	14	15	46	34	65	
3	2	1	8	8	7	12	32	51	26	38	58	18	18	20	11	4	6	4	1	5	10	12	10	10	10	11	8	4	2	4	2	16	30	20	7	11	14	12	7	3	6	7	7	14	11	4	18	23	16	26	42	27	6	2	4	9	26	14	39	34	12	24	47	34	21	31	34	26	31	11	26	24	59	95	109	119	112	120	106	91	38	15	33	53	55	14	46	88	110	108	82	38	2	21	42	48	44	31	14	12	9	8	10	14	14	20	16	13	15	20	22	30	29	40	63	56	36	23	33	33	40	50	76	63	9	47	108	177	206	180	130	90	67	45	46	50	48	35	13	14	22	23	25	30	28	31	38	49	80	60	41	43	46	66	85	84	35	19	65	133	170	147	102	106	76	35	30	53	76	21	30	28	13	50	46	44	49	48	31	21	32	35	18	2	11	17	7	21	38	43	27	35	72	78	54	21	13	28	34	48	69	94	119	161	229	275	276	263	250	246	252	241	214	225	147	48	28	14	5	18	23	69	179	230	125	50	27	34	25	29	108	204	240	176	80	14	8	1	8	7	29	55	70	54	10	33	41	29	25	31	17	17	21	10	3	5	17	6	43	123	215	257	238	220	232	263	293	291	299	148	10	27	91	190	270	331	316	218	103	61	29	56	64	47	27	15	1	9	3	6	7	30	47	37	16	19	39	31	65	36	22	50	20	32	33	20	21	18	11	5	8	5	2	4	8	10	11	3	6	3	2	2	2	4	5	1	5	13	16	11	8	8	5	3	11	21	17	7	5	3	4	10	7	3	5	6	7	5	2	6	7	8	15	4	4	5	8	10	8	7	4	4	4	7	3	4	3	2	4	4	1	3	3	8	7	6	3	2	2	2	4	3	7	4	4	4	2	2	4	5	7	5	7	12	4	1	3	5	7	4	1	3	2	4	2	0	2	0	7	12	2	12	8	10	9	27	69	59	57	63	60	54	16	11	0	17	17	9	11	10	12	16	32	28	14	17	32	26	53	35	27	26	11	5	3	9	18	26	28	17	10	23	13	2	3	4	8	13	7	14	14	7	6	6	4	2	5	7	8	7	2	8	7	3	8	9	7	2	5	7	0	5	6	5	1	4	0	1	7	9	35	51	44	31	27	20	5	35	38	14	7	6	1	4	2	4	0	3	4	6	9	8	5	14	35	33	4	21	22	19	27	31	48	19	41	38	20	31	104	119	120	63	15	6	32	34	6	41	40	14	25	8	26	19	25	25	18	13	11	7	3	5	8	22	36	27	21	43	42	11	14	12	10	8	4	5	4	14	17	15	11	7	5	10	4	9	3	3	4	1	10	8	10	39	84	69	9	60	83	48	14	3	12	13	4	5	5	5	5	8	16	10	4	2	2	5	19	24	11	11	22	18	12	16	14	28	34	7	13	22	65	42	49	89	50	10	28	45	22	11	18	18	41	40	69	
5	0	4	8	12	8	8	29	46	24	44	54	15	19	24	16	8	8	5	3	2	7	5	3	2	5	7	2	3	4	2	4	20	31	22	15	14	12	12	12	10	11	7	6	10	10	7	13	19	19	27	39	29	6	4	2	11	15	18	31	24	11	26	51	38	41	68	94	102	97	91	66	58	83	129	66	8	50	55	46	90	59	36	24	26	38	56	45	27	78	135	165	147	93	36	28	49	39	17	10	11	12	12	9	11	7	7	9	2	10	12	3	17	19	25	46	53	39	35	58	59	52	28	54	70	34	19	18	56	105	137	157	169	170	134	59	28	12	26	47	43	36	40	58	44	23	22	26	41	51	11	34	13	28	37	43	31	30	24	111	51	97	82	69	115	106	52	11	40	59	34	16	41	10	35	28	49	51	41	22	2	19	37	50	60	53	39	31	29	27	18	10	11	44	84	110	122	134	150	157	149	138	141	144	129	89	63	29	7	17	13	24	30	182	249	140	41	23	27	12	30	30	76	187	228	130	11	27	29	46	50	169	284	219	67	27	39	26	16	12	9	20	51	88	79	33	48	36	10	12	35	27	18	17	6	4	2	19	22	65	179	218	182	106	45	35	72	80	149	327	222	23	60	115	180	158	161	173	155	133	51	78	103	95	85	61	27	7	6	10	17	25	10	22	36	60	85	71	61	83	32	20	46	29	22	31	19	23	22	11	2	6	8	3	3	6	4	10	4	3	4	5	3	3	8	7	7	7	13	17	11	14	29	33	23	16	14	9	7	4	2	4	10	7	4	5	7	7	3	2	7	8	10	14	2	4	4	4	5	7	6	5	1	5	8	4	5	5	2	0	4	3	3	3	7	6	7	5	6	5	2	8	10	10	10	8	5	4	6	8	5	3	6	6	12	4	0	1	1	3	6	2	3	1	4	3	0	1	3	5	10	3	12	4	14	2	47	59	15	54	74	62	35	7	6	8	18	12	7	13	13	15	20	37	22	25	27	58	35	59	61	44	27	10	3	7	2	8	17	29	19	8	23	14	3	4	3	7	11	1	12	12	4	6	8	8	2	4	2	8	12	7	7	4	2	5	8	8	4	5	8	2	3	4	4	5	7	4	6	9	8	30	51	52	33	10	25	28	36	29	13	10	5	3	3	7	11	13	8	5	12	20	21	10	14	25	21	6	20	18	15	26	31	30	17	29	45	20	93	148	91	130	95	20	8	24	33	15	31	26	13	13	10	11	17	26	19	9	12	18	15	5	2	2	12	30	37	38	41	34	7	9	8	8	8	5	10	13	19	8	14	15	7	7	7	6	10	4	4	4	1	13	12	13	12	64	89	27	67	88	42	10	5	14	15	8	8	10	7	2	7	15	11	2	2	4	8	17	15	4	12	12	13	13	4	8	29	33	16	20	7	53	52	25	84	60	14	36	46	22	18	19	12	28	46	66	
4	1	4	5	3	9	7	32	39	12	44	41	7	17	27	21	8	5	4	4	3	5	6	8	7	8	7	4	7	8	6	11	25	30	21	14	7	10	17	17	10	12	13	11	8	7	7	11	12	17	28	39	34	13	1	5	10	4	14	13	25	19	18	44	32	32	43	58	69	76	94	90	68	81	155	192	178	157	145	130	79	11	48	73	89	64	14	74	89	72	45	52	117	133	110	66	15	21	14	14	14	14	13	7	7	15	14	6	6	9	11	3	7	4	7	27	34	25	31	56	87	100	84	37	57	32	26	29	24	21	23	44	81	147	188	162	123	96	74	59	73	112	140	133	105	82	64	57	53	36	14	33	12	25	26	53	72	67	39	107	109	146	78	87	50	65	63	23	43	72	55	36	48	49	54	44	46	45	40	31	39	44	46	49	63	75	72	61	60	65	72	71	60	60	72	84	88	93	105	113	120	126	138	139	141	137	132	119	100	79	60	69	65	126	221	183	82	44	33	21	49	31	91	209	209	92	15	20	3	24	112	234	228	109	91	82	65	62	45	15	19	14	31	81	94	38	31	22	9	18	44	61	41	15	2	3	2	18	31	53	211	262	143	45	34	1	53	63	112	318	252	46	55	131	193	167	69	119	169	123	29	57	11	33	53	67	42	7	5	14	16	25	32	52	117	157	152	98	104	85	19	19	32	26	18	25	24	26	23	10	2	6	10	1	4	8	6	8	3	5	8	5	5	5	6	2	6	5	11	16	14	26	34	30	48	29	13	8	2	2	3	2	11	6	1	4	4	3	2	4	3	7	8	9	2	4	4	8	10	7	1	6	1	9	6	3	6	7	3	4	4	4	4	6	5	3	5	2	0	6	1	9	8	2	7	8	5	0	5	2	5	3	4	6	11	5	3	4	2	2	4	3	1	1	4	2	3	4	5	7	7	3	10	15	13	33	78	57	33	40	21	22	15	10	12	13	11	5	7	11	11	16	20	25	12	30	40	78	27	38	63	56	28	7	8	9	12	5	28	37	15	14	21	13	5	4	1	7	9	3	11	11	5	5	3	6	4	7	4	1	10	7	4	1	0	3	8	9	4	7	9	3	2	2	2	7	9	13	10	4	8	18	52	76	51	16	42	34	22	21	13	8	4	5	7	11	14	21	21	8	15	27	28	19	14	14	17	10	18	26	20	18	2	24	45	47	68	95	133	122	25	113	120	52	8	8	27	14	25	10	11	6	18	11	22	21	15	7	2	11	17	10	4	7	8	13	22	28	25	17	4	7	5	8	11	11	15	26	23	11	20	14	0	10	4	9	9	2	3	3	5	13	16	27	42	44	76	42	67	81	38	8	8	19	20	18	21	24	15	15	17	15	11	4	5	3	4	17	27	24	17	7	4	10	11	13	30	29	5	20	7	36	57	4	71	72	14	41	47	24	18	8	1	19	44	53	
4	4	4	7	1	14	7	38	36	9	38	27	5	14	27	22	7	4	4	1	4	3	9	9	5	8	5	7	11	10	8	19	33	29	15	7	7	11	13	17	17	9	11	9	7	4	5	11	8	7	21	39	42	25	5	5	6	5	5	14	29	34	8	32	19	15	12	7	5	6	27	34	16	5	55	123	168	197	212	198	162	125	84	31	29	73	59	11	51	93	131	126	74	42	107	128	81	22	7	21	19	13	8	5	5	10	16	14	4	13	18	10	14	14	11	15	22	22	27	32	39	46	73	34	33	33	29	27	27	31	33	38	36	49	122	192	223	200	149	114	124	135	125	116	111	98	60	29	22	19	32	48	35	52	61	73	79	69	57	82	76	59	22	70	94	92	38	25	39	54	53	29	39	58	51	43	48	47	42	14	22	7	18	4	12	16	54	84	92	80	60	49	50	57	64	61	50	31	13	5	15	32	48	31	32	21	26	12	38	47	16	13	39	92	205	242	149	45	17	13	48	50	112	213	170	65	83	92	87	85	132	172	108	73	64	28	24	66	76	27	24	21	18	54	96	55	8	26	36	68	93	107	96	36	4	7	6	10	31	30	197	294	168	15	41	16	33	46	93	276	232	113	50	143	204	139	7	100	105	108	68	17	80	86	51	50	52	10	7	12	25	5	20	70	146	154	105	144	156	70	2	16	15	21	22	14	24	32	23	5	4	3	10	12	7	5	6	4	3	8	5	3	5	5	10	8	8	8	10	14	14	27	36	27	55	45	25	22	11	1	4	3	10	7	6	7	4	1	1	4	4	9	8	3	3	5	5	4	3	3	1	5	2	8	5	5	7	7	2	3	3	4	4	3	1	3	4	2	4	7	6	12	16	10	2	8	9	7	10	8	2	3	8	13	11	8	7	9	7	2	1	3	0	3	4	2	5	7	7	7	7	7	10	14	8	67	90	31	51	42	21	7	7	17	18	12	4	1	3	11	11	9	13	21	11	12	62	71	14	43	72	53	16	12	8	3	13	5	31	31	7	19	22	13	7	5	5	8	10	4	9	8	7	10	8	0	5	5	5	6	7	5	4	4	4	3	6	9	5	6	10	4	7	6	1	8	1	16	12	11	14	10	22	78	60	21	43	23	13	19	12	9	7	10	11	11	12	4	27	65	110	144	137	97	52	26	11	5	22	37	5	48	92	118	134	147	154	151	118	52	17	85	128	71	4	3	21	6	18	4	19	17	31	8	32	28	4	10	11	12	15	12	4	3	3	2	5	5	6	5	5	4	8	15	15	10	15	21	14	22	22	14	8	7	3	14	11	5	1	0	5	10	23	37	33	32	31	45	52	60	38	11	14	19	14	14	14	25	18	12	10	7	5	3	4	12	23	33	36	28	11	7	10	3	8	15	30	33	19	17	7	29	50	13	57	78	25	52	56	19	10	6	3	33	41	29	
6	4	2	8	1	16	1	37	36	8	32	22	5	9	25	24	8	3	5	8	7	13	13	13	16	13	11	12	11	8	5	20	41	31	10	5	10	11	4	9	18	20	14	3	5	5	4	10	7	5	7	27	47	36	9	5	7	9	14	15	29	41	4	27	15	4	8	15	17	18	35	42	33	27	38	9	31	64	91	104	122	146	146	114	63	15	63	61	41	9	82	152	164	107	8	96	118	86	49	30	24	13	4	5	7	5	4	14	16	1	15	13	12	9	14	6	23	30	27	16	5	12	51	44	13	18	24	19	11	8	8	17	17	8	60	119	156	174	178	174	139	62	10	17	8	49	41	6	15	13	38	60	51	39	31	35	21	21	31	38	7	31	50	5	50	62	47	51	71	82	76	35	21	8	24	29	20	24	47	29	34	21	11	10	13	24	43	51	48	36	23	9	7	20	29	10	18	12	13	13	8	15	34	40	40	34	46	57	46	34	26	25	40	35	192	262	163	45	9	22	47	60	117	193	144	63	82	79	68	38	70	135	120	72	92	87	88	60	52	65	69	66	70	54	56	76	31	32	32	60	41	81	110	52	6	7	8	11	36	17	206	297	153	36	36	17	22	20	127	237	142	100	80	141	245	137	77	99	68	77	84	51	31	28	8	46	52	13	11	11	22	23	16	83	156	138	37	208	169	34	14	10	7	14	16	8	19	38	25	1	7	2	7	10	7	2	3	2	6	7	4	5	5	2	7	10	8	8	4	9	24	33	34	31	52	50	26	26	19	11	15	19	25	25	16	7	4	4	2	5	7	4	4	1	6	0	6	6	2	1	6	7	5	7	8	7	8	5	1	0	0	3	4	3	2	5	5	4	5	8	8	9	13	14	7	7	13	10	10	15	4	8	14	17	15	9	5	8	12	1	2	3	1	4	2	4	6	2	0	4	5	5	4	8	13	84	88	14	64	32	10	10	12	9	7	7	7	6	4	5	12	12	9	16	14	38	68	42	8	50	68	33	7	8	7	10	8	7	27	32	14	22	28	18	8	2	2	5	9	5	7	5	2	4	9	5	3	1	2	1	4	4	3	4	4	4	4	5	7	9	10	11	11	11	7	5	10	12	7	15	11	17	34	71	46	21	36	12	9	15	12	14	15	13	10	17	55	100	139	166	163	143	133	127	95	58	31	17	26	16	93	154	153	131	121	122	128	127	89	45	31	75	127	72	12	5	17	3	11	14	23	18	41	11	31	33	10	1	4	5	11	11	4	4	5	4	7	7	4	3	4	4	13	18	13	7	13	20	11	17	18	17	10	0	8	16	10	8	5	1	6	8	15	43	42	10	5	22	38	37	31	14	9	15	15	15	8	14	15	2	4	2	2	3	5	15	25	19	21	27	10	7	8	6	7	10	20	25	23	17	7	37	41	2	54	70	25	70	67	28	21	21	12	46	51	16	
10	12	10	5	2	12	9	29	30	5	25	24	11	8	25	25	10	3	7	22	29	38	41	34	23	15	9	8	7	4	4	24	43	28	6	4	7	4	3	3	9	10	10	10	9	9	5	12	15	9	6	26	51	38	7	5	8	9	12	5	40	46	13	28	16	11	11	8	10	6	29	35	22	15	39	24	14	13	3	5	20	59	100	107	87	45	27	25	45	68	74	54	94	127	91	21	61	102	109	67	19	11	4	7	6	4	2	7	19	17	6	6	4	4	13	14	4	4	3	8	5	4	29	42	34	29	22	14	8	12	17	29	34	47	54	31	36	73	107	122	99	94	60	58	46	51	31	9	11	3	28	83	120	111	92	73	24	48	65	41	10	24	52	68	59	52	77	113	141	129	68	28	16	44	54	44	36	30	39	13	37	41	36	35	34	39	29	6	26	35	31	12	13	21	28	14	15	6	16	30	26	17	32	38	25	18	19	27	25	11	21	39	45	81	203	220	143	68	13	42	64	63	86	157	143	36	25	43	60	55	65	106	127	121	112	71	45	47	96	198	249	257	256	229	155	102	76	51	14	52	66	109	101	44	12	4	15	9	43	10	196	290	177	51	12	32	23	55	188	233	93	20	84	104	290	148	77	125	100	106	82	25	81	100	81	65	38	5	7	4	8	7	30	109	178	123	86	222	132	29	4	12	5	6	3	10	13	38	26	4	8	5	10	4	6	4	3	5	8	6	2	6	6	3	3	2	2	4	11	20	23	40	57	76	100	94	60	36	29	24	24	28	33	33	27	11	6	9	9	7	10	20	22	18	17	15	12	10	10	14	14	10	8	9	10	8	5	1	1	3	4	3	0	2	7	7	1	2	7	10	2	3	3	10	11	3	11	16	2	16	9	13	22	14	8	4	5	5	11	5	1	1	2	3	2	4	4	4	8	11	11	8	8	13	18	82	90	21	73	31	5	10	15	8	7	12	10	5	8	7	6	13	10	7	25	64	56	13	22	48	51	26	12	15	12	4	4	8	18	28	10	21	29	12	4	4	7	5	4	7	7	5	5	5	9	4	3	4	4	3	4	4	3	1	3	3	4	1	7	12	10	4	13	12	4	6	6	9	12	10	4	7	53	62	15	19	22	13	8	15	18	19	14	16	41	91	153	208	227	194	124	66	57	86	97	75	60	39	42	121	174	137	59	15	14	14	32	51	1	65	63	78	115	66	17	15	10	4	7	14	17	18	43	16	24	32	16	5	4	6	11	9	2	1	4	0	7	8	4	1	2	5	11	15	8	2	4	11	18	12	9	11	11	6	7	12	6	5	6	3	12	16	17	26	42	26	14	27	24	22	18	11	0	9	15	16	12	5	12	6	3	6	4	4	10	18	15	4	28	29	11	1	7	12	8	7	16	12	4	12	21	44	31	21	48	38	91	123	84	55	49	55	34	59	70	18	
2	1	2	2	4	10	11	21	20	8	19	26	16	8	28	29	9	4	17	46	50	45	38	26	15	12	10	5	6	1	14	37	40	15	7	6	2	7	6	4	3	11	17	5	11	12	4	5	12	16	15	27	44	38	17	5	5	7	4	20	50	41	14	41	29	18	10	8	11	4	25	33	25	15	31	20	10	10	13	16	15	16	57	89	94	78	72	47	25	71	127	103	42	61	96	95	56	32	89	110	100	71	38	18	8	4	3	4	11	17	10	7	4	7	10	27	37	40	35	19	3	1	11	27	36	33	22	15	12	11	12	20	26	25	29	17	7	14	21	35	110	147	60	50	75	83	69	57	47	44	45	35	37	65	64	57	29	56	38	23	72	103	122	103	54	15	13	45	31	43	86	69	40	34	14	22	24	22	36	60	101	103	84	59	52	50	26	20	26	17	11	18	15	42	66	62	51	34	25	16	24	37	13	10	5	5	14	17	9	8	13	31	32	52	167	232	220	150	50	38	69	72	86	141	171	130	65	30	33	30	41	96	134	173	227	250	202	171	229	226	222	233	227	217	198	164	105	74	55	37	71	89	56	20	15	4	13	10	35	27	131	251	214	88	15	21	32	89	223	195	45	48	109	81	301	221	77	142	78	51	37	18	37	36	100	82	26	11	17	13	10	8	14	121	210	103	131	194	89	48	27	13	13	5	2	5	10	32	24	8	9	7	11	7	1	3	4	7	6	7	10	7	4	1	4	3	3	8	6	32	104	165	195	215	258	282	245	158	65	17	8	9	8	8	24	27	27	23	22	22	25	29	33	33	32	32	32	32	29	21	15	16	18	17	17	17	14	11	8	5	6	10	10	6	10	3	11	15	18	12	19	28	30	23	18	21	25	30	20	14	7	19	24	3	10	8	5	7	10	4	3	3	3	1	5	1	5	9	10	8	11	8	2	4	15	79	95	29	82	69	37	22	22	17	4	12	7	4	10	10	4	21	17	18	41	88	60	31	38	37	32	32	27	20	15	12	11	12	34	55	49	52	54	42	20	6	1	2	0	1	4	4	2	4	9	7	5	4	3	3	5	3	3	6	5	4	6	3	8	8	3	7	3	11	24	27	18	10	11	7	20	31	70	44	6	14	23	27	18	15	28	6	47	103	147	167	169	150	112	75	47	39	31	52	84	79	95	131	166	170	90	11	60	58	52	55	82	114	114	117	96	79	91	54	7	14	5	7	3	13	13	18	39	20	18	27	14	7	7	11	11	8	4	4	5	7	9	8	3	3	3	4	6	10	12	11	9	8	3	11	16	16	12	7	4	8	8	7	5	5	17	19	19	39	59	51	37	45	43	28	15	10	5	11	12	11	9	1	9	8	1	7	4	4	11	16	11	10	28	22	5	7	10	7	7	6	26	25	22	11	19	42	31	28	22	64	133	107	60	40	42	92	55	55	89	36	
6	5	3	1	2	2	7	13	10	8	12	24	19	3	28	35	13	11	31	58	37	15	22	18	8	5	7	7	7	3	29	45	28	5	5	10	8	9	5	0	3	8	18	17	16	8	2	3	3	14	17	23	40	44	32	21	14	11	18	38	49	23	32	51	25	8	6	11	8	11	23	22	17	10	26	20	6	2	2	2	7	5	31	67	96	105	100	95	79	5	75	127	107	29	51	98	114	84	19	53	108	134	125	80	26	8	10	5	6	15	8	5	2	8	11	18	32	38	37	30	13	13	13	13	15	16	11	5	5	4	7	28	63	88	97	84	71	65	52	17	95	165	110	38	26	49	53	52	24	6	30	75	120	117	68	24	12	41	64	70	82	56	18	40	73	103	117	136	133	160	123	39	41	31	40	46	47	50	59	70	77	48	50	41	26	18	24	32	24	10	22	26	22	51	53	15	33	14	12	29	42	25	12	20	17	19	27	34	31	22	8	27	30	10	79	173	250	244	173	100	17	55	95	134	190	239	244	232	217	168	57	62	119	158	205	253	270	239	204	86	6	31	47	74	43	59	61	93	78	41	35	41	23	14	18	7	11	14	18	31	68	194	248	144	21	29	60	98	220	170	35	19	86	19	242	234	13	127	153	132	84	43	86	77	75	76	28	21	17	10	5	10	14	95	217	104	149	150	53	56	42	15	16	5	5	4	7	26	22	1	6	1	5	7	4	5	5	5	4	8	10	8	5	3	5	5	4	11	15	96	185	216	202	203	248	321	354	313	210	119	76	40	8	6	6	22	24	18	16	21	21	17	15	19	28	36	37	34	26	17	12	21	28	29	29	31	32	30	24	19	19	19	18	16	17	14	19	11	27	29	35	30	10	2	4	17	20	18	10	8	11	24	33	28	17	6	2	4	4	2	1	4	3	5	4	6	5	4	3	1	9	11	2	4	18	82	97	19	49	59	46	34	33	30	8	9	7	10	8	7	1	20	24	12	53	99	49	52	55	22	13	26	29	22	20	13	4	7	46	60	36	45	56	59	34	9	8	7	4	1	5	1	7	8	11	9	3	2	3	7	5	1	7	6	2	4	4	7	2	8	27	74	129	150	132	93	50	9	6	14	23	18	79	66	43	69	70	62	15	20	17	48	128	173	182	144	77	52	60	77	75	61	44	39	47	47	113	149	135	68	40	63	48	34	46	43	34	48	82	123	101	63	62	36	16	17	12	16	17	23	13	20	33	19	23	20	6	8	12	15	8	7	5	3	0	4	4	5	3	4	3	2	6	11	15	15	7	12	12	11	15	12	8	5	2	4	7	4	2	11	24	17	10	39	58	41	31	45	44	31	22	11	9	18	16	13	8	4	8	8	0	6	3	5	8	15	15	6	28	22	2	7	5	2	6	8	37	31	28	27	12	33	22	12	29	91	100	24	49	25	30	104	60	37	85	55	
3	1	3	4	4	2	7	8	5	5	7	20	18	5	21	37	26	17	34	47	22	18	22	16	8	3	3	0	4	10	40	43	14	12	13	16	12	7	9	7	10	10	5	6	10	8	5	2	4	12	12	13	26	35	35	32	25	11	27	42	37	5	40	41	12	21	18	7	6	21	24	15	10	4	23	20	7	2	5	8	7	6	15	36	60	73	76	101	106	87	48	38	111	103	41	36	74	91	79	52	53	97	161	174	117	44	10	11	12	16	7	4	5	4	17	24	19	15	31	47	34	8	11	11	13	19	19	4	6	7	26	77	133	156	171	172	165	143	113	76	38	143	168	165	159	144	99	89	72	59	49	41	59	27	25	8	41	52	62	27	42	85	117	110	85	64	31	82	148	140	56	70	40	9	8	16	11	3	8	14	57	100	107	88	78	75	56	37	24	12	17	8	8	41	66	76	71	44	33	38	21	7	18	17	17	24	31	34	30	18	25	12	34	63	58	36	143	238	279	269	210	111	7	79	127	167	208	236	251	268	203	95	35	15	37	60	56	65	33	50	85	118	136	98	68	99	144	130	74	13	22	44	32	18	23	9	12	16	7	22	45	158	258	166	43	44	42	77	191	144	52	50	75	62	200	225	112	105	130	162	159	95	65	26	46	84	41	20	11	12	11	20	38	91	193	63	143	119	40	56	40	13	14	7	7	4	4	22	24	5	8	4	4	5	4	7	6	1	2	4	3	5	1	3	6	6	5	13	17	96	159	129	109	135	121	51	154	263	306	309	285	240	179	119	82	62	46	30	7	5	2	2	8	8	16	20	21	14	15	17	9	18	16	19	20	22	28	35	40	41	41	35	29	28	34	42	55	67	89	111	139	166	175	173	183	202	197	163	126	96	60	12	22	23	17	22	23	14	6	4	5	6	6	7	2	7	5	10	12	11	8	8	6	8	21	83	93	17	37	33	30	28	29	35	24	7	4	7	3	2	5	12	29	30	65	92	20	80	62	20	13	22	24	15	9	10	13	10	55	63	23	10	16	54	52	17	6	2	5	8	7	4	11	7	6	9	6	3	8	10	4	9	7	4	3	4	4	5	10	7	82	155	194	208	191	169	132	70	17	11	60	93	98	123	122	118	128	133	88	60	59	121	168	129	63	14	26	57	94	124	130	118	106	100	67	57	53	12	45	66	64	34	23	15	18	17	52	54	78	86	59	50	42	17	11	14	13	12	19	31	12	22	27	12	21	12	4	2	17	17	5	4	5	5	7	8	7	7	4	5	2	1	10	16	11	10	11	5	20	27	16	4	4	4	4	2	4	2	7	23	32	16	12	42	85	67	21	45	44	30	26	12	15	15	4	5	3	6	7	9	7	7	5	1	7	16	24	14	24	24	5	10	7	2	3	10	33	30	13	27	6	33	45	50	61	69	62	58	68	43	50	91	42	31	65	53	
8	4	4	4	4	4	6	5	5	5	8	16	13	5	14	35	37	22	23	30	17	11	19	14	6	3	4	5	5	19	42	34	14	10	19	17	10	9	16	15	16	17	14	12	8	1	5	7	7	10	14	14	17	18	20	25	28	6	30	39	18	17	36	28	23	23	13	13	19	24	19	8	5	0	17	24	17	9	8	3	2	5	2	5	12	15	33	71	74	77	98	57	65	116	81	39	4	43	72	92	113	83	25	127	167	133	61	11	13	19	18	12	1	9	10	21	27	20	20	51	63	60	51	29	21	29	35	17	9	9	39	94	118	82	97	127	140	141	152	153	107	91	64	30	51	90	64	12	54	71	55	36	42	33	23	19	46	35	43	55	64	72	51	10	28	49	44	60	54	44	117	79	26	22	24	25	49	70	73	70	85	99	98	84	74	67	45	16	18	12	23	20	16	21	34	34	12	8	7	17	13	22	11	1	5	19	20	17	31	34	19	22	34	25	24	21	31	115	182	232	272	266	196	105	76	79	66	62	90	146	149	146	147	132	125	115	92	90	112	110	89	85	65	48	72	134	123	42	57	127	139	123	84	37	19	6	14	15	7	15	42	132	220	165	68	20	23	62	162	126	106	154	171	127	190	239	158	89	232	256	159	47	90	60	50	91	41	13	8	13	20	25	23	101	165	24	142	104	33	50	47	12	15	29	24	14	4	17	29	14	7	7	5	5	1	3	1	2	5	9	13	13	11	9	8	7	8	9	8	54	142	213	244	280	324	321	254	112	74	209	265	281	284	277	261	244	223	190	142	94	55	29	16	10	14	26	19	1	14	23	21	27	19	16	17	18	18	22	29	32	32	32	34	34	38	44	54	66	75	72	72	114	170	213	237	251	267	282	283	269	239	196	178	158	109	52	14	28	30	22	10	4	4	8	14	15	12	9	7	7	11	22	29	30	36	82	86	10	39	18	17	25	22	22	23	13	6	4	4	1	8	5	21	41	73	71	41	72	39	2	7	18	26	21	13	9	13	2	44	54	35	34	47	72	60	20	14	4	7	9	13	10	14	13	9	2	8	11	10	2	17	14	7	6	4	6	9	6	4	39	143	182	105	46	69	121	155	150	94	93	159	195	192	168	122	79	99	137	159	163	146	143	127	41	37	72	79	81	94	109	109	108	97	82	79	110	114	127	125	110	82	53	34	31	25	52	55	21	111	90	15	28	39	22	24	22	14	16	27	28	8	19	20	13	15	10	13	15	21	17	4	1	4	3	3	5	5	7	1	5	5	7	10	15	8	9	17	23	22	41	30	10	8	7	5	5	5	4	8	24	29	10	29	5	55	82	45	37	44	32	31	11	20	16	2	4	6	5	1	7	9	5	2	4	8	9	20	20	18	21	6	7	6	4	5	5	18	32	22	20	17	31	72	54	23	30	25	55	55	28	32	66	21	33	49	32	
8	11	7	8	9	6	0	6	9	10	7	11	9	4	15	37	39	21	16	21	17	5	23	16	4	4	7	7	11	33	43	23	13	12	3	3	0	13	20	14	5	4	4	10	15	11	5	5	6	12	21	18	8	9	21	34	31	12	32	45	16	24	25	12	5	5	8	22	21	15	10	0	5	7	4	20	23	17	7	4	4	7	7	8	7	8	21	42	46	54	97	99	50	76	74	90	93	59	6	62	122	154	114	25	96	171	163	97	34	1	16	22	18	7	9	11	24	29	15	13	61	117	147	135	86	13	27	15	19	17	38	100	152	113	33	15	30	60	115	182	218	224	217	211	202	183	158	150	166	170	152	113	59	18	7	11	37	61	56	29	16	48	63	38	34	71	89	53	60	141	125	63	37	29	24	24	50	52	58	46	29	15	14	20	21	19	27	15	17	11	16	18	16	14	11	10	21	17	15	14	15	11	6	12	12	27	25	10	28	32	36	30	13	9	10	15	29	14	14	60	140	233	290	288	289	289	291	298	287	235	134	28	48	56	10	63	62	37	48	40	61	72	61	71	93	90	15	132	219	236	197	179	133	70	42	33	25	18	12	9	27	102	183	186	110	38	61	133	134	38	144	220	281	248	200	223	122	150	307	222	32	125	114	9	95	90	21	12	5	7	14	39	62	123	145	18	120	89	58	64	65	61	46	20	5	15	15	7	27	24	16	14	12	13	8	5	5	8	13	22	27	24	18	16	16	17	19	17	16	12	9	35	80	155	244	315	349	335	273	148	64	59	75	134	179	218	263	303	313	281	218	161	148	135	87	23	21	20	1	9	22	40	36	31	30	25	13	7	5	9	10	15	26	30	22	23	21	17	17	53	90	109	91	64	60	52	18	57	108	162	221	274	313	317	299	248	162	91	67	72	71	54	37	34	36	33	32	40	50	54	55	60	61	58	56	80	75	11	49	22	20	35	29	22	21	15	4	2	2	3	6	8	14	63	81	42	14	40	41	21	11	19	25	13	8	8	9	4	34	37	15	26	56	70	48	25	29	15	11	10	4	9	9	2	6	8	4	12	10	11	17	1	13	8	5	7	25	15	59	131	179	130	35	76	77	43	62	118	110	148	188	157	146	110	54	31	40	28	89	132	126	87	68	10	43	55	56	60	71	82	70	70	67	53	57	97	133	123	89	77	85	89	80	65	62	88	119	107	108	68	18	24	21	42	76	64	47	37	34	21	3	14	12	13	11	9	13	18	20	11	2	1	4	3	1	5	5	7	0	7	4	6	4	9	8	3	16	38	18	37	39	17	9	5	8	7	7	5	4	21	32	16	21	38	17	53	42	27	48	37	28	4	22	17	1	4	5	2	1	2	3	2	0	4	7	2	7	9	7	18	10	8	8	8	7	3	4	14	13	7	20	12	66	79	68	55	27	59	55	27	15	55	20	36	45	21	
2	10	9	8	10	6	7	3	6	7	4	5	10	2	20	41	34	13	13	23	22	5	27	17	4	7	8	6	18	41	34	9	7	13	7	3	2	11	17	18	13	11	9	6	8	9	3	7	11	18	22	12	5	13	30	42	31	7	27	47	18	23	24	19	25	28	29	31	26	13	2	4	5	7	6	16	26	18	8	5	1	4	2	1	4	8	11	25	42	50	80	100	61	14	61	115	142	133	91	30	42	102	111	82	26	85	165	173	143	114	70	18	46	50	41	36	35	33	22	32	79	131	157	196	188	128	96	57	22	5	14	51	119	137	102	75	67	52	11	48	69	50	51	68	96	107	91	73	70	66	68	69	54	18	4	8	16	13	11	24	53	69	46	106	166	154	73	48	121	113	59	21	18	26	27	24	31	14	22	24	25	28	30	34	33	17	12	31	24	14	12	18	25	25	20	22	19	17	17	15	19	21	20	23	21	34	39	27	29	28	29	29	22	5	12	17	33	36	37	19	21	80	161	227	246	222	192	168	160	157	141	127	68	96	110	117	130	143	153	141	104	74	85	110	89	27	79	152	155	80	103	168	118	57	44	40	31	20	10	4	14	72	163	224	203	78	145	215	203	152	175	120	111	186	152	130	75	168	320	184	92	185	110	98	105	57	10	12	9	5	7	15	43	136	168	54	98	132	99	66	83	159	211	199	128	43	12	12	22	10	8	15	18	21	21	23	22	18	20	26	24	23	21	20	21	24	24	20	17	20	30	35	28	10	20	55	108	198	293	293	241	205	179	162	153	132	71	23	125	217	262	256	272	294	304	254	163	93	63	59	57	38	19	10	4	12	4	7	7	6	5	7	12	14	8	12	22	21	29	41	63	112	164	200	215	226	237	246	237	189	101	39	59	99	197	287	308	290	287	289	272	231	168	119	101	94	86	79	69	51	33	33	40	53	57	68	53	25	66	37	31	38	32	23	18	14	7	5	1	3	5	13	28	78	85	41	39	48	53	43	27	21	10	16	18	17	10	6	35	48	46	60	77	76	70	74	62	32	18	11	29	47	51	43	27	4	10	8	5	5	18	27	24	14	13	28	42	46	144	169	125	43	21	33	24	32	53	69	22	119	126	43	21	12	17	58	53	38	55	11	46	37	51	26	56	64	47	42	58	71	39	23	30	33	26	33	45	54	52	47	45	44	49	52	40	35	58	72	66	41	26	24	31	126	147	121	112	91	65	27	7	13	5	5	4	2	2	7	6	4	2	1	2	2	1	6	4	5	3	7	3	0	0	5	10	11	22	34	20	21	40	27	14	9	10	5	4	4	4	9	22	35	19	19	22	41	35	24	49	34	16	7	21	18	4	7	5	6	4	2	3	1	0	5	6	0	11	19	18	24	12	10	11	8	4	4	10	14	7	4	11	3	30	54	73	93	74	65	52	22	15	49	32	35	54	35	
4	4	6	5	11	6	11	10	7	5	7	4	14	4	27	45	28	5	10	27	25	10	27	12	5	8	7	9	22	36	20	4	5	9	7	4	0	7	14	18	16	13	14	18	17	9	4	7	12	17	16	8	15	18	35	53	44	17	21	43	23	17	32	25	19	18	28	38	31	18	10	7	6	7	10	16	22	14	8	1	2	3	4	2	5	5	5	10	21	31	50	69	53	31	48	75	93	134	148	120	58	44	75	87	102	66	33	113	165	190	183	117	32	19	2	18	43	63	69	64	72	86	33	83	144	149	151	150	129	113	114	107	82	63	78	95	93	85	93	100	115	117	116	107	84	64	43	41	55	62	59	51	52	27	1	5	10	24	28	25	39	12	114	203	151	55	124	150	121	60	1	38	42	10	26	23	9	30	39	42	31	20	4	12	1	21	18	15	13	20	23	18	10	21	25	8	17	22	15	25	25	26	20	22	18	28	46	46	42	54	59	52	40	27	21	4	18	22	24	36	1	25	5	20	22	46	62	73	80	61	63	88	49	73	31	44	39	20	49	95	146	138	79	72	63	53	94	157	205	207	216	192	106	38	15	12	8	7	4	5	14	25	58	165	256	166	159	181	112	162	246	269	224	132	68	83	106	148	282	158	117	178	97	173	163	80	22	26	7	14	29	47	34	75	158	144	62	137	161	94	107	186	237	260	216	95	29	40	45	24	4	16	8	14	17	22	23	21	21	19	11	13	17	17	18	18	13	10	10	8	6	4	14	24	38	43	36	34	117	193	199	180	171	181	219	268	293	278	227	129	60	35	87	140	254	352	357	308	281	271	232	169	121	89	57	25	8	13	6	2	8	12	14	9	7	3	14	18	21	17	6	15	42	70	92	111	137	172	202	217	225	231	236	213	135	23	127	232	301	327	336	343	321	284	273	276	267	229	168	106	47	4	24	18	31	40	27	34	66	28	14	29	27	10	3	8	6	4	2	5	5	7	26	75	79	24	6	20	39	53	50	20	7	9	18	19	12	16	46	93	134	177	212	226	247	273	267	214	143	87	67	61	54	55	53	34	18	23	30	32	31	28	23	19	8	27	18	122	196	120	17	17	8	36	48	41	54	37	44	110	72	43	65	59	46	52	36	23	50	35	39	22	40	15	74	65	16	33	79	98	49	8	23	22	17	7	10	10	19	18	12	25	22	10	17	32	25	15	15	17	29	44	110	165	116	72	102	125	117	56	11	21	16	5	4	5	5	8	10	8	4	2	3	2	1	4	5	6	8	4	1	2	2	4	13	23	29	22	10	17	29	24	15	16	12	8	5	3	10	12	2	24	41	23	3	35	25	27	46	31	18	10	19	19	7	10	8	7	8	5	4	3	1	7	8	5	17	20	7	24	12	7	5	1	4	17	24	17	5	8	10	6	9	16	30	68	80	58	33	16	21	44	36	22	48	31	
6	6	1	10	12	6	9	10	10	8	4	6	14	3	29	42	24	8	10	29	32	5	27	12	9	13	16	24	40	56	34	7	7	8	5	3	2	2	6	8	8	12	17	18	15	10	6	8	17	21	18	13	12	11	20	50	48	22	21	34	26	8	38	38	31	30	28	18	3	11	7	10	10	7	10	11	14	13	11	4	4	1	5	2	4	7	2	7	11	15	41	60	45	51	77	89	36	53	110	140	119	47	29	63	95	111	75	23	64	119	202	227	218	219	194	142	111	127	86	34	48	122	143	102	35	42	100	164	209	224	221	200	160	113	68	31	16	14	18	37	22	26	54	49	57	60	30	15	58	92	91	60	35	18	18	25	29	30	27	21	15	93	175	149	57	200	214	130	58	18	28	33	26	41	12	45	49	43	33	28	24	32	2	13	10	28	10	26	39	34	34	43	50	45	22	14	8	10	3	21	14	13	11	11	4	6	14	24	5	38	26	36	38	18	14	21	17	35	67	39	50	77	99	131	173	178	158	154	183	206	168	99	61	82	127	156	179	193	195	193	183	149	75	22	35	55	94	154	219	241	207	135	69	38	28	33	38	34	21	10	10	26	37	43	172	208	132	118	73	61	100	153	218	225	180	155	172	170	196	131	96	182	71	162	245	172	23	42	21	25	18	21	34	46	72	179	188	51	120	110	70	149	56	142	227	97	61	124	176	172	104	33	5	6	5	8	9	15	17	8	0	3	7	10	10	5	1	3	3	3	0	2	2	8	8	15	18	20	12	63	94	94	78	55	85	111	162	211	256	275	259	234	234	221	134	58	207	280	295	296	301	313	322	314	280	210	123	73	48	28	18	25	26	19	9	3	4	2	8	7	10	20	32	25	18	13	7	12	2	36	81	119	155	200	235	220	154	103	111	127	154	201	235	244	270	300	313	295	255	211	164	95	15	38	31	16	21	17	51	55	46	44	36	15	11	17	18	10	5	3	4	10	31	80	73	17	38	44	33	29	55	37	7	10	17	17	4	14	50	126	172	161	191	224	272	311	325	330	304	257	202	146	112	109	121	124	113	117	138	165	189	196	174	138	113	113	156	216	169	33	34	29	21	18	18	42	59	42	91	91	17	73	93	87	57	15	30	45	16	42	80	93	98	78	103	74	39	16	61	105	75	19	17	25	19	7	12	18	11	60	99	109	102	75	33	32	31	44	33	38	64	91	114	89	49	67	35	79	134	85	12	15	22	21	9	7	9	8	3	6	7	3	1	3	3	0	4	7	6	5	2	2	2	4	12	31	30	4	21	32	29	17	2	5	7	11	6	8	14	15	20	13	14	25	24	35	18	28	37	22	18	7	17	24	9	11	4	3	8	5	4	4	4	10	11	5	19	19	12	20	10	5	5	3	11	28	25	20	15	11	7	3	5	7	10	29	48	36	27	27	27	33	31	12	34	24	
5	7	10	11	7	2	5	5	4	2	1	7	10	5	23	34	28	20	18	31	46	12	29	17	8	8	10	22	24	57	51	18	14	16	12	7	2	3	7	4	5	13	13	8	8	8	2	2	10	18	18	12	1	13	20	41	39	21	23	25	23	5	26	27	26	36	41	22	34	28	19	17	7	5	6	13	21	24	16	5	4	5	2	2	0	4	7	8	4	10	42	51	38	54	87	117	108	73	24	64	104	80	33	14	27	72	96	86	68	29	97	181	222	216	202	183	153	119	51	65	25	27	42	40	45	78	111	139	178	191	172	143	115	108	134	157	155	139	128	138	161	155	101	40	49	66	27	32	55	47	41	34	9	17	38	43	37	17	8	29	82	120	84	88	199	209	99	5	34	23	20	41	10	34	54	80	54	41	24	18	24	37	23	11	20	24	8	39	26	7	13	5	12	11	29	21	5	12	12	26	36	23	17	12	8	13	26	37	36	52	53	55	59	56	52	47	22	59	65	47	133	146	165	204	217	194	177	176	193	218	213	186	184	197	190	180	194	218	230	213	169	113	56	19	20	26	36	50	69	83	69	35	2	39	60	64	38	16	26	22	13	7	25	26	35	117	122	56	29	59	79	86	100	87	38	39	98	129	107	77	48	154	142	21	224	257	106	25	25	22	24	31	29	28	21	103	228	229	138	110	63	164	205	234	218	74	97	125	102	173	208	160	94	51	14	20	25	19	12	6	7	9	5	2	5	9	7	2	1	3	2	3	7	5	5	7	4	3	7	10	17	33	51	28	53	47	4	46	83	124	157	170	192	248	305	270	149	66	41	20	33	107	176	239	306	330	286	233	185	128	56	4	11	17	18	17	15	11	5	19	21	15	18	20	16	15	13	20	22	13	10	24	33	61	110	161	210	234	199	144	106	117	129	88	75	38	32	102	126	119	144	160	114	50	22	15	25	16	12	32	44	47	36	16	5	3	9	7	3	2	7	5	29	86	68	18	35	25	19	18	41	46	8	12	12	15	5	15	50	137	185	102	41	35	82	65	46	130	210	270	293	286	281	283	285	281	265	254	250	240	242	262	281	279	274	269	242	177	71	41	21	17	36	76	84	45	22	62	77	27	53	93	77	74	71	43	20	5	39	76	91	99	127	119	102	44	49	45	49	101	92	50	40	52	59	58	54	45	78	144	132	87	70	79	37	25	19	36	32	19	32	31	39	86	123	120	98	73	118	84	24	28	22	7	13	22	25	23	17	10	8	1	3	4	3	2	3	2	4	7	1	1	3	7	11	27	29	8	21	16	14	15	14	14	12	10	2	11	12	14	24	38	32	15	22	33	23	29	27	13	12	10	13	27	5	12	2	4	7	6	2	2	3	13	11	6	15	12	14	15	4	5	7	4	10	28	15	15	21	15	9	3	1	4	5	11	24	16	18	21	18	19	27	10	27	27	
11	4	12	17	13	8	4	6	5	4	2	4	8	2	14	24	28	29	22	28	55	30	21	22	16	11	6	19	20	65	56	22	15	14	10	8	4	4	8	2	9	8	2	2	10	8	0	2	6	10	13	15	13	15	19	24	27	19	15	13	16	11	27	18	18	44	33	10	14	11	9	12	8	12	13	19	21	34	26	8	4	4	4	5	8	10	8	4	4	10	33	45	46	53	78	107	117	95	47	22	65	81	99	92	49	28	91	97	85	85	50	25	40	56	86	36	63	89	104	149	194	219	210	187	166	153	133	98	79	66	58	65	63	76	105	125	130	122	121	129	110	63	53	17	37	61	50	48	39	19	29	28	29	38	30	13	39	53	73	100	89	20	116	177	157	59	42	66	42	26	10	28	21	22	44	41	5	22	9	13	20	29	14	14	22	11	25	31	11	20	20	27	25	21	15	17	18	17	22	26	33	44	42	27	15	27	38	36	29	29	31	28	48	45	54	39	26	46	101	180	213	195	193	205	186	161	160	154	131	123	145	172	191	185	165	151	134	114	102	90	72	53	33	18	13	12	12	8	11	21	16	18	37	87	104	122	110	47	8	7	14	19	12	12	19	10	56	67	54	61	83	85	100	105	96	93	97	65	30	69	79	48	161	156	111	203	165	77	42	21	11	13	28	43	33	36	86	170	166	115	56	61	74	110	99	19	74	146	162	84	57	162	184	159	108	44	4	15	28	26	19	17	16	13	11	8	7	4	1	3	3	7	5	3	4	4	5	4	8	16	20	18	25	31	23	35	36	18	9	19	28	38	50	94	197	291	305	294	293	290	278	263	247	191	85	83	141	194	224	217	154	122	89	41	8	21	25	28	25	13	3	15	12	2	11	10	4	5	6	5	10	15	4	8	25	64	134	214	258	272	277	285	255	205	195	189	191	168	108	41	59	126	154	98	28	10	13	17	13	12	44	53	37	17	1	5	8	4	0	2	9	16	16	76	71	19	18	17	22	19	34	40	18	4	10	10	5	4	34	116	186	172	161	173	216	245	231	168	85	12	66	139	194	217	222	232	247	244	213	170	134	126	156	202	237	247	195	93	41	54	24	17	67	73	53	45	29	37	19	52	89	80	48	50	82	99	94	83	77	77	73	48	79	85	45	41	70	42	22	80	83	57	104	121	103	89	99	112	149	159	74	55	36	47	59	29	27	19	39	4	33	56	80	94	82	69	72	64	89	56	33	68	85	82	65	44	17	10	14	7	5	6	4	3	2	5	6	5	9	7	4	3	4	10	21	38	37	28	37	47	41	18	13	13	11	6	4	7	10	20	30	33	42	28	11	19	23	26	17	7	8	11	7	20	13	8	3	7	7	12	7	4	2	13	12	10	8	4	7	5	4	6	4	2	7	23	27	3	20	21	14	7	4	5	2	8	17	5	8	5	8	12	21	12	18	23	
11	8	4	10	13	12	5	4	6	5	7	9	4	6	11	8	12	21	24	29	55	46	12	27	25	25	3	18	35	71	43	16	13	5	2	8	10	6	8	4	9	12	8	5	9	6	5	6	8	10	14	20	18	11	7	7	20	24	16	4	10	17	24	12	12	38	28	20	42	54	48	39	14	9	9	10	10	38	33	8	10	10	8	8	8	7	4	2	3	10	21	28	32	33	45	56	73	101	65	25	42	76	122	135	137	73	66	66	71	123	151	131	98	116	87	25	78	99	135	180	193	177	155	131	106	84	49	11	17	27	28	48	84	86	51	9	23	30	25	41	57	74	54	7	31	31	14	22	5	33	35	29	42	31	33	113	139	120	97	66	30	102	111	65	15	38	52	11	25	18	6	18	26	20	21	24	24	17	7	16	36	46	40	26	5	16	22	10	7	22	41	33	32	60	82	71	43	35	29	18	25	44	63	57	36	39	30	19	18	20	38	41	53	33	25	29	39	28	124	171	173	162	152	132	97	67	53	57	60	60	66	74	72	70	77	74	43	16	45	46	27	16	12	7	12	7	5	2	18	18	4	14	54	95	53	52	88	73	67	51	26	7	8	7	18	34	20	20	27	46	98	164	210	200	133	58	69	70	24	65	79	72	37	134	124	101	113	75	36	32	40	33	24	17	7	35	26	32	57	63	55	46	6	60	79	62	45	33	122	190	165	60	53	141	186	181	162	129	77	33	10	5	17	22	17	11	7	8	6	7	8	8	1	4	6	8	9	5	5	7	11	11	12	20	19	4	17	17	8	11	4	18	16	33	72	151	194	211	226	248	274	291	313	342	331	262	160	51	99	202	229	235	214	170	114	71	42	12	22	34	32	30	25	26	17	6	4	2	6	20	31	35	32	30	15	13	48	98	128	130	129	125	68	74	70	61	58	7	67	123	150	161	173	145	72	14	16	14	7	7	39	59	38	20	22	21	15	7	3	1	5	7	2	56	74	25	29	36	29	36	31	29	27	14	10	6	1	4	7	62	132	124	52	20	45	85	113	136	166	192	185	158	131	110	84	35	27	58	68	72	46	6	31	24	30	61	110	118	70	50	43	60	73	16	54	44	30	54	56	73	73	53	39	40	65	96	115	104	81	66	54	34	30	38	58	75	37	32	67	70	57	25	92	84	79	74	90	106	111	77	55	80	30	48	77	69	31	10	32	35	21	38	38	25	15	32	38	39	56	24	43	63	80	127	159	152	98	29	14	9	8	5	7	1	1	8	6	10	13	2	8	5	2	8	26	47	48	47	43	41	57	45	16	6	5	7	2	7	14	28	45	19	23	25	4	5	13	15	8	1	5	10	9	10	7	0	5	10	6	15	11	5	4	9	12	11	8	4	5	5	4	4	6	7	7	13	28	24	7	18	16	12	9	4	3	8	14	4	7	2	4	10	10	11	10	7	
2	10	10	4	4	10	7	2	4	11	9	4	7	12	13	10	8	1	15	29	53	58	21	15	22	32	12	21	44	75	35	10	9	5	2	2	10	10	9	7	5	11	10	5	7	2	7	4	12	16	21	23	13	6	7	5	12	22	24	14	7	14	13	2	12	36	50	38	51	45	28	37	21	7	16	20	23	36	29	5	13	10	1	2	5	2	2	4	0	6	11	8	5	7	27	35	65	110	89	33	3	43	38	55	115	107	79	50	26	29	82	111	79	37	56	107	120	102	68	50	38	28	25	23	13	6	35	52	55	43	15	21	19	22	43	56	61	63	62	65	56	35	16	32	48	45	30	26	30	32	21	25	28	33	125	159	97	59	10	54	107	84	25	39	51	31	21	22	15	12	13	17	20	14	18	29	28	24	31	48	62	57	34	14	11	13	9	2	19	40	36	37	48	56	34	39	22	4	18	32	47	50	26	32	14	18	5	4	8	10	5	8	42	63	41	49	57	60	124	128	132	134	117	103	117	146	163	149	113	98	87	82	97	105	93	89	127	177	208	216	189	144	103	59	31	27	24	9	15	15	20	25	55	101	117	109	57	22	68	75	52	27	13	16	25	26	29	15	9	10	11	65	146	218	242	219	181	139	109	118	74	65	45	34	65	64	65	54	22	34	49	46	27	26	30	37	41	30	10	14	42	65	58	21	39	41	47	50	28	46	120	150	121	37	60	119	161	191	198	175	143	114	86	55	24	8	4	11	18	10	5	10	13	7	5	5	10	7	3	3	7	10	6	8	14	15	8	15	15	7	15	12	5	18	3	41	52	54	62	62	68	55	38	80	139	166	183	164	72	48	137	174	200	222	245	251	224	176	116	74	61	62	49	17	12	22	20	19	20	21	15	12	8	25	23	18	22	55	92	88	78	90	91	81	38	21	38	58	70	78	89	107	163	166	100	33	12	18	8	5	33	53	37	20	30	36	35	16	5	2	5	5	7	37	75	60	31	23	44	50	27	19	31	22	5	4	4	3	4	16	80	123	83	44	57	70	62	29	4	34	72	122	160	166	153	144	130	89	42	30	34	63	80	101	84	41	67	116	86	60	76	76	25	48	61	3	51	69	55	33	54	41	24	10	10	27	51	63	60	56	46	35	16	33	70	78	75	91	86	64	39	38	108	57	44	38	34	29	21	58	70	40	41	36	35	33	24	18	13	30	46	23	4	14	6	19	28	26	32	4	39	50	60	83	101	159	154	79	28	16	17	4	6	2	3	7	6	13	10	7	14	11	7	3	31	62	55	36	40	34	31	51	50	19	4	5	6	11	10	24	46	41	23	22	7	8	14	11	8	5	3	2	8	10	10	7	8	11	5	17	12	2	7	1	4	1	0	2	4	4	1	3	4	5	7	7	18	31	21	15	14	11	11	7	7	6	8	8	4	2	5	8	5	6	4	4	
7	9	13	13	9	10	2	6	7	4	13	8	9	13	5	1	7	10	4	20	51	69	52	14	18	34	20	19	44	79	43	12	5	2	5	9	10	12	10	6	1	4	7	4	5	1	7	3	14	24	28	19	3	9	15	12	10	7	18	20	14	10	6	2	9	17	56	68	26	26	50	40	21	15	29	39	32	22	18	9	11	7	2	2	6	3	2	3	3	5	8	5	5	11	28	32	58	116	152	128	94	96	107	95	59	27	72	113	149	171	153	121	93	105	132	127	91	60	31	15	19	19	17	14	4	18	31	25	27	32	47	67	91	98	71	36	20	21	21	33	41	48	54	55	47	29	27	35	34	18	13	18	33	131	161	67	62	106	109	124	94	24	13	22	15	17	13	22	28	31	22	18	21	9	10	17	23	26	31	29	28	11	21	20	5	16	15	7	22	50	61	65	73	87	104	97	77	83	92	89	96	115	112	75	52	53	56	58	66	79	92	110	135	151	141	114	106	114	179	236	276	302	313	320	321	315	304	310	316	312	288	263	260	271	280	284	293	273	238	236	254	244	219	187	165	147	130	119	106	76	49	21	16	43	65	86	79	75	44	76	88	91	93	78	53	33	32	18	2	3	10	23	20	28	90	127	132	124	123	148	152	135	104	75	65	53	35	31	19	44	51	63	41	37	32	25	22	16	22	31	26	12	35	40	25	10	5	19	33	45	49	50	75	85	87	82	62	14	60	126	169	204	228	217	168	124	104	76	30	4	16	19	19	19	17	14	8	4	8	11	12	11	7	6	7	8	4	9	10	14	17	9	11	17	20	27	18	2	19	22	49	76	71	70	48	50	90	139	165	129	56	22	75	106	161	212	249	265	260	248	234	212	189	153	98	46	20	11	15	32	36	41	37	22	14	11	20	56	108	101	41	21	31	50	43	46	32	19	87	129	130	118	160	153	92	49	24	39	41	41	40	34	30	7	21	14	36	22	8	5	5	5	4	23	58	82	63	38	57	48	24	20	22	20	11	4	1	2	8	7	76	129	80	69	84	72	55	47	23	46	54	44	37	34	26	28	76	99	74	56	67	116	94	98	90	25	79	115	88	70	91	53	31	62	14	50	43	25	41	25	69	56	23	60	73	52	11	16	26	27	25	17	5	25	41	70	89	81	54	37	24	53	124	70	29	25	51	53	58	79	83	53	34	66	104	91	63	46	44	37	43	25	8	4	17	10	21	16	17	7	21	38	85	127	60	83	114	87	47	17	15	5	2	4	4	5	10	12	3	10	10	3	8	4	29	58	60	37	28	52	7	14	51	35	5	6	11	13	4	18	22	31	27	17	9	11	12	6	8	3	2	6	7	8	11	11	10	7	8	18	11	2	5	4	3	3	3	2	3	5	1	1	2	3	3	1	6	19	20	13	11	5	7	7	1	4	8	9	7	4	4	9	7	4	4	6	
12	7	8	13	15	15	11	7	8	12	10	6	4	11	12	12	7	6	11	3	36	70	83	56	15	42	39	12	48	74	46	15	5	3	7	9	12	14	11	2	7	10	7	1	5	5	8	7	12	31	32	14	12	11	8	12	7	8	14	16	15	16	18	17	8	10	48	76	22	73	69	43	20	26	25	23	21	7	9	8	10	6	5	5	2	6	8	6	4	4	7	5	8	13	29	34	40	61	101	127	125	113	90	51	21	62	119	148	162	188	190	173	152	131	103	63	32	17	18	20	25	30	29	18	7	22	44	52	66	74	83	90	78	53	32	25	5	22	43	52	59	64	60	43	24	10	8	4	1	7	14	44	124	159	67	78	139	117	90	68	22	21	9	13	14	19	35	35	17	19	19	21	21	5	21	17	17	15	7	13	29	33	35	13	20	24	28	21	35	62	79	83	92	104	100	82	74	77	69	62	58	59	77	84	78	80	89	89	85	82	79	79	78	85	118	118	91	68	79	102	134	176	204	214	207	177	153	176	218	233	238	240	231	220	228	237	219	151	80	61	104	164	218	257	287	287	279	291	298	271	226	179	139	95	57	28	52	106	69	67	124	177	213	218	186	142	112	93	64	27	7	2	15	20	3	28	42	48	46	64	67	73	76	77	77	71	53	30	20	48	38	71	78	69	53	47	52	71	82	80	67	45	23	5	17	29	28	15	7	18	33	39	42	20	20	52	94	126	126	92	48	41	84	151	199	243	270	261	213	155	111	76	48	32	19	5	4	4	9	4	3	4	7	5	20	17	14	10	12	12	5	3	4	11	15	12	11	4	11	8	40	66	28	19	20	38	60	80	120	152	142	135	126	116	125	111	43	52	126	183	206	209	216	232	232	205	177	159	138	103	57	17	18	10	19	28	40	61	110	153	171	170	156	139	118	83	14	38	20	44	72	115	164	157	103	54	17	10	21	29	37	34	31	17	28	13	33	27	12	7	8	8	4	16	30	58	73	51	33	39	27	16	11	10	16	15	11	8	13	43	105	121	36	28	47	62	47	73	108	123	83	34	38	60	79	86	63	38	31	10	81	139	74	120	101	29	85	100	73	62	79	33	67	45	32	55	3	58	45	15	70	45	55	74	76	82	43	12	3	7	13	4	15	15	8	18	30	23	13	7	4	59	124	82	53	66	65	74	73	67	54	56	49	86	99	62	56	29	15	23	35	22	13	7	21	40	38	22	12	10	13	20	63	103	97	125	84	40	51	37	13	0	4	4	2	5	7	2	8	10	4	6	4	10	31	32	47	76	61	54	24	32	50	36	8	11	14	18	10	21	12	5	11	10	7	6	10	8	12	7	6	8	7	7	7	2	2	0	11	16	8	5	7	5	4	5	5	7	8	9	5	5	7	8	7	6	6	8	9	5	5	2	5	7	4	3	1	2	8	9	4	4	7	4	4	7	
13	12	4	5	13	16	19	21	13	5	5	3	4	4	4	10	15	14	10	18	5	27	70	90	66	21	42	56	72	63	36	16	3	6	6	4	7	9	6	6	12	10	8	7	8	5	5	8	8	31	32	13	12	25	20	10	7	11	8	12	15	10	10	18	18	25	52	86	39	84	41	29	8	19	19	9	11	7	4	4	4	1	1	3	8	12	11	7	5	4	6	4	7	5	13	15	0	4	21	44	52	58	67	75	83	92	105	91	47	38	39	49	50	32	11	10	18	8	22	33	43	47	47	45	44	57	96	113	98	78	56	33	14	2	5	21	24	25	18	7	21	14	22	27	24	22	47	67	78	81	98	136	143	61	80	152	110	37	7	48	64	49	28	27	33	27	19	7	16	39	34	34	37	28	28	24	22	20	12	5	8	15	18	20	29	1	16	18	28	20	17	20	24	28	24	18	10	19	13	8	8	6	17	29	32	36	37	24	7	6	27	52	75	70	34	10	27	49	55	49	34	24	32	17	1	7	8	10	16	7	32	47	41	29	29	31	14	37	37	25	11	46	115	173	206	220	229	247	264	286	301	301	291	264	234	209	187	140	62	36	73	102	118	146	177	187	182	197	195	151	83	27	4	12	22	19	13	8	15	31	20	8	16	7	17	33	43	41	43	64	43	15	34	22	17	42	104	143	133	96	68	56	47	31	29	25	28	10	6	18	41	49	58	39	28	55	41	18	60	89	108	134	134	94	34	95	141	205	255	284	288	264	222	191	175	149	100	47	7	9	13	13	5	17	21	10	13	7	8	6	4	3	3	7	6	4	9	7	8	6	31	54	43	51	50	54	60	58	81	111	154	199	210	214	233	248	230	168	100	47	29	73	109	155	213	250	259	269	283	275	238	185	162	149	131	98	56	39	23	35	64	77	93	131	178	191	133	65	14	23	22	73	125	126	73	34	13	13	10	11	28	30	27	17	25	15	21	30	17	7	2	2	5	14	28	35	25	18	10	26	34	27	11	5	10	14	14	14	58	136	187	151	86	77	83	102	91	91	36	45	69	83	93	83	52	40	61	41	31	18	113	130	5	109	108	81	75	81	64	40	59	70	71	34	61	45	41	48	28	86	84	29	58	44	41	60	47	22	3	6	12	1	10	14	8	9	10	17	30	20	18	35	111	123	90	61	37	40	55	49	39	46	43	66	73	28	33	42	46	54	42	14	16	20	43	80	86	76	31	16	18	15	60	53	70	86	55	28	45	47	9	5	4	3	2	7	2	7	12	7	3	2	3	13	24	13	15	36	52	41	17	21	39	21	11	11	5	13	7	24	24	25	18	9	5	2	5	6	10	6	11	13	8	6	6	1	3	3	10	12	8	9	9	6	4	4	6	7	6	9	8	7	5	5	7	8	9	10	4	3	1	3	6	5	1	5	7	7	4	6	5	3	6	4	4	4	
10	11	7	9	11	10	14	23	24	18	12	12	10	5	6	4	16	22	6	17	27	20	21	73	118	118	56	92	91	45	21	13	3	3	5	9	12	14	8	7	13	6	9	13	5	0	2	4	5	22	31	31	18	23	36	31	23	13	5	14	21	17	20	20	8	10	31	74	29	69	17	34	17	25	36	30	14	2	6	8	8	10	8	2	13	4	6	6	3	2	8	13	10	2	10	15	7	10	14	20	36	60	85	99	97	99	114	113	98	97	79	51	18	25	23	20	21	10	3	26	51	66	77	86	96	100	97	56	19	53	52	52	47	40	39	27	22	30	8	27	45	41	56	53	49	43	72	113	169	196	168	104	5	90	136	116	35	38	59	62	61	51	37	24	20	2	25	34	32	34	19	14	31	31	20	18	14	17	23	24	19	17	16	28	26	1	8	10	13	13	18	22	17	19	20	25	21	0	17	20	18	5	18	27	28	29	24	41	47	57	72	87	104	107	95	71	72	66	59	47	31	16	29	26	13	5	7	17	44	51	43	40	41	41	36	36	40	31	24	29	31	41	35	41	26	28	29	51	50	97	145	188	230	263	280	291	288	235	157	93	79	35	54	71	29	49	67	118	179	228	223	185	149	148	159	154	135	107	75	48	23	11	21	24	18	12	5	11	36	63	70	74	77	74	63	63	93	83	98	121	116	116	108	90	64	19	22	21	16	14	18	25	58	87	53	24	45	31	31	40	34	29	63	109	157	194	172	112	29	67	159	235	275	285	283	277	257	214	156	97	51	24	13	13	19	29	25	16	10	4	2	9	10	7	5	6	5	6	4	8	17	36	28	23	16	18	32	60	89	103	113	117	110	97	85	95	135	150	149	139	120	87	62	41	6	50	79	114	168	226	277	284	271	260	271	279	260	233	208	186	168	151	130	97	56	84	113	113	112	114	95	93	115	110	52	14	32	5	10	15	36	28	5	2	19	21	15	32	22	10	4	3	2	13	51	57	35	12	27	28	18	22	18	9	4	6	10	15	79	153	175	144	139	134	123	91	61	95	154	181	149	88	43	59	79	62	34	82	100	96	100	111	26	49	103	97	58	56	50	40	41	34	11	13	45	44	32	27	90	97	61	48	63	80	90	71	49	24	7	8	9	4	12	8	4	7	2	13	25	9	26	12	54	65	54	50	37	20	25	14	25	36	47	48	41	37	28	70	59	71	91	50	23	23	42	53	28	94	60	13	11	20	49	41	52	26	17	13	32	39	15	14	9	4	4	7	3	10	12	7	10	4	7	12	16	16	13	19	11	15	42	66	69	29	7	11	9	8	3	32	36	25	19	7	8	3	3	5	6	6	12	15	13	6	6	3	2	1	7	10	3	5	3	4	3	2	4	1	1	5	8	9	6	3	2	2	2	4	3	4	1	4	3	6	8	10	10	11	11	8	3	1	2	3	2	2	
8	9	8	11	10	8	4	8	16	14	14	15	11	8	10	5	14	24	15	5	15	27	24	19	64	131	135	111	77	24	7	7	3	2	4	5	9	15	12	5	9	7	8	11	5	5	7	7	7	13	17	31	42	24	15	21	12	11	18	3	32	33	26	24	17	17	24	56	9	53	19	34	34	16	22	35	32	22	5	5	7	8	11	4	11	7	5	4	4	6	9	8	5	5	8	8	14	16	14	24	46	75	119	167	193	202	217	228	217	193	165	141	94	55	25	18	34	31	26	55	82	72	63	54	60	55	15	58	108	109	89	74	64	61	55	35	26	55	41	42	42	47	39	29	20	20	77	163	184	151	94	78	132	120	66	38	36	66	38	6	27	23	18	13	30	50	64	65	61	43	18	15	24	26	10	15	18	5	9	16	14	11	24	36	30	21	16	12	20	17	28	30	10	4	8	7	24	29	25	23	16	13	27	21	15	21	19	34	22	20	33	28	18	35	57	17	27	12	14	18	14	8	31	25	9	12	17	32	23	27	17	7	7	8	13	21	28	34	42	43	28	24	33	41	46	53	43	53	62	59	29	11	38	76	90	99	130	160	181	171	132	74	38	20	31	50	56	75	24	75	165	206	205	196	188	197	212	197	165	150	120	71	38	28	20	15	12	6	17	42	63	81	79	63	54	90	138	119	37	48	80	82	99	137	160	145	93	36	3	25	15	17	7	60	68	52	47	27	24	31	26	23	28	43	79	138	163	172	189	190	151	79	14	71	99	139	203	263	282	245	183	134	107	84	55	28	8	8	8	3	4	6	2	2	8	10	11	8	8	13	9	14	18	10	1	10	11	11	44	49	30	24	6	15	30	31	56	83	104	144	178	188	193	199	193	165	142	128	107	34	69	128	142	152	190	231	230	210	217	246	261	249	230	224	213	169	98	33	26	73	91	88	102	88	48	6	34	21	13	13	26	34	18	5	29	30	21	34	22	11	3	1	7	13	66	62	10	49	41	39	31	19	4	12	11	13	11	19	75	169	194	92	99	132	110	68	43	76	135	161	168	165	148	104	55	37	66	143	146	166	108	61	22	14	17	38	16	23	31	41	31	33	54	69	46	6	17	63	77	50	21	38	47	58	65	62	44	17	2	9	5	17	31	29	19	2	4	6	26	31	26	8	41	41	8	30	35	30	14	13	5	15	21	4	34	78	83	46	58	5	70	56	10	11	41	78	66	84	64	8	13	16	29	32	24	3	14	4	21	27	29	33	28	17	10	12	11	9	12	4	10	9	7	8	8	26	31	27	33	36	94	92	120	74	13	4	1	4	15	61	73	60	49	12	8	7	23	24	12	5	14	11	7	11	10	6	5	4	8	11	3	6	3	7	2	3	1	0	0	1	3	6	11	11	4	1	2	3	4	4	3	4	2	4	7	11	13	12	11	9	7	5	1	1	5	6	
8	8	7	8	15	22	22	15	10	7	2	3	5	10	13	8	10	21	18	18	16	11	32	42	27	28	72	66	32	5	6	7	5	4	6	8	5	7	12	7	2	6	4	5	10	8	5	4	7	12	7	20	48	45	17	20	7	5	20	17	36	36	24	19	24	18	17	50	22	44	42	26	57	57	30	2	24	30	16	0	4	5	11	11	8	4	5	9	8	3	5	16	21	18	12	4	5	15	17	16	20	30	47	75	114	149	184	214	225	214	204	204	184	144	101	71	74	74	73	74	67	6	36	38	38	37	58	71	60	38	32	28	16	9	31	63	48	49	48	29	15	27	11	21	10	24	125	202	78	131	195	165	119	53	20	25	26	31	40	71	77	76	63	52	57	67	64	54	53	47	35	25	15	32	27	18	25	21	10	24	31	23	22	23	17	24	31	24	25	27	39	21	12	23	27	27	13	32	43	35	16	18	22	17	18	12	7	22	24	18	24	39	41	31	59	39	40	36	15	29	4	37	47	40	32	27	24	38	18	24	16	10	12	12	37	40	32	26	17	14	12	6	17	19	25	26	24	30	47	50	47	52	56	79	80	71	69	43	32	39	43	58	92	120	103	88	52	17	69	81	39	29	53	52	54	85	120	148	161	192	196	155	91	54	31	12	7	7	1	12	24	25	19	15	15	48	104	148	158	140	127	114	70	26	129	211	243	215	135	65	33	29	19	26	37	16	21	31	58	96	113	106	88	65	38	58	54	16	62	128	184	227	239	207	153	91	25	76	163	220	235	242	251	258	244	192	124	84	57	32	9	5	3	3	11	8	12	19	20	17	17	15	15	11	13	22	23	27	11	34	22	27	24	49	51	49	36	36	51	80	101	123	141	155	175	178	181	199	225	220	183	143	117	94	54	41	66	21	44	75	95	107	100	95	107	128	140	139	126	84	31	57	89	64	31	7	19	21	20	15	11	25	27	5	42	32	30	43	26	11	2	3	7	17	65	59	17	58	31	13	20	17	15	13	24	26	12	13	45	145	228	157	35	28	39	55	86	106	69	7	16	34	58	62	36	35	101	134	75	82	88	66	23	34	52	26	2	2	11	35	45	51	66	55	58	46	32	85	51	21	20	8	11	18	22	18	17	18	9	12	8	24	30	11	29	9	15	15	3	22	18	16	32	49	23	19	15	25	29	15	14	14	5	31	59	85	101	75	15	55	62	59	28	31	38	56	57	52	41	15	12	9	8	8	2	3	11	4	13	12	23	27	32	27	18	15	13	13	10	5	5	10	4	6	10	30	29	17	32	42	103	19	97	80	24	14	12	16	49	127	167	173	163	71	8	21	29	23	26	4	17	18	11	21	22	14	7	5	9	11	1	5	6	4	2	2	3	1	0	1	5	8	9	7	9	1	1	2	3	4	4	4	2	4	4	9	8	1	4	4	5	8	5	5	8	5	
7	7	5	9	15	20	22	15	2	6	1	2	3	8	15	15	2	14	20	24	25	11	14	30	41	39	21	7	3	2	1	2	7	12	14	13	10	4	5	8	5	2	6	7	9	7	1	3	6	8	12	15	40	50	37	23	12	5	13	17	29	35	29	17	33	33	15	53	43	31	60	20	31	48	45	28	9	29	24	7	8	10	10	12	14	11	4	2	8	8	15	25	29	29	25	22	19	12	11	18	26	32	42	39	13	34	59	72	81	97	121	146	172	186	184	155	110	68	42	10	53	83	91	78	80	78	62	26	24	32	31	34	48	58	49	36	39	11	21	17	35	35	20	18	21	92	172	113	131	259	201	107	57	41	55	40	47	65	73	58	41	44	45	38	35	29	21	6	11	18	10	3	19	34	25	5	15	20	3	30	22	15	21	18	12	17	24	12	14	51	57	39	36	31	22	26	23	5	11	21	25	24	18	8	6	10	14	8	24	32	17	8	32	33	46	39	19	43	13	34	41	70	44	13	11	23	23	44	22	38	20	10	16	16	39	18	3	0	7	12	10	5	13	2	18	13	18	15	14	0	10	16	18	48	35	10	31	31	23	33	42	4	46	65	80	112	143	145	105	46	23	9	17	35	57	67	63	93	103	96	126	159	147	113	67	22	8	7	13	11	10	7	1	8	11	19	46	87	130	165	175	167	165	160	117	74	144	231	233	180	143	131	111	52	15	23	12	43	53	49	52	45	25	11	29	65	50	6	14	10	32	82	146	187	178	155	141	100	6	77	124	173	202	215	237	250	237	219	182	133	83	50	28	10	7	19	19	11	3	7	17	27	29	25	21	18	11	27	27	59	50	53	39	40	12	10	3	20	36	30	22	25	37	38	60	82	96	113	157	199	222	231	228	214	182	117	78	28	42	51	63	48	28	10	14	12	34	69	120	148	127	109	88	37	7	13	6	8	14	15	21	29	29	8	48	35	24	54	34	10	4	4	7	25	60	47	13	48	32	15	6	10	26	18	19	36	20	13	45	151	214	136	65	56	25	15	41	17	53	100	107	94	71	41	47	104	142	121	50	34	56	81	87	53	12	19	13	18	46	64	52	63	72	17	50	52	37	88	42	8	24	22	10	14	24	8	11	16	20	8	30	25	17	32	24	14	25	30	18	70	70	68	23	35	14	12	23	13	16	7	16	7	21	28	45	65	11	82	48	22	36	53	34	28	17	20	17	16	17	16	11	7	10	8	2	2	8	5	8	2	14	5	17	17	14	11	5	8	10	7	4	7	3	7	9	22	30	24	14	34	78	78	91	52	18	15	10	7	54	136	150	102	201	147	23	31	31	10	30	10	24	30	21	14	12	24	14	8	7	9	4	6	5	3	2	2	4	4	3	4	6	5	15	12	11	3	3	1	2	3	2	5	4	6	11	15	16	12	7	3	2	4	8	9	6	1	
5	5	1	5	7	2	11	17	7	7	9	6	5	8	14	19	12	2	12	25	28	22	15	14	13	28	41	38	21	8	8	6	11	16	12	7	5	7	3	6	7	4	8	8	4	7	6	4	2	3	8	10	26	41	37	23	17	13	14	14	27	36	31	5	33	45	11	45	52	33	51	23	30	38	27	18	9	26	28	10	10	8	7	5	6	8	12	18	20	17	18	21	17	10	15	19	20	18	28	36	38	38	43	59	68	56	36	56	78	74	34	32	82	129	158	152	116	82	61	42	58	67	49	35	39	39	22	13	18	33	42	40	33	22	1	21	43	38	37	53	53	43	38	34	51	146	138	64	236	217	105	44	24	24	39	42	45	37	21	3	12	14	21	18	24	31	37	42	50	43	29	26	37	27	7	14	28	38	38	55	61	66	62	50	39	38	48	52	41	62	58	23	24	24	17	7	27	63	83	84	75	68	64	56	48	46	41	30	35	49	29	39	21	34	25	22	52	66	40	43	69	78	43	30	12	40	84	87	66	76	58	41	23	35	37	12	13	26	31	33	21	15	17	11	22	6	11	4	15	26	34	41	45	63	63	62	62	62	54	49	45	47	43	23	12	28	56	102	145	146	121	96	87	97	103	82	72	91	83	51	71	144	201	205	156	65	17	24	30	39	41	31	14	2	12	8	5	12	31	49	51	49	78	142	203	223	159	46	95	152	187	218	226	181	73	38	44	82	108	87	62	64	67	74	61	25	54	57	26	15	34	50	24	41	92	128	169	172	98	41	14	28	32	35	83	138	197	232	239	224	192	161	128	89	48	10	25	30	24	17	15	6	6	12	7	3	14	12	47	92	88	93	67	19	10	13	13	22	27	21	20	14	21	11	13	22	20	22	23	47	74	95	107	132	161	147	110	75	55	56	55	33	4	22	14	11	13	16	42	89	148	162	98	26	13	12	4	6	7	11	22	24	13	8	37	37	22	53	37	1	10	7	7	24	54	36	19	35	18	18	18	7	29	25	6	32	21	26	81	149	155	90	58	33	16	18	44	69	81	66	65	82	74	42	33	132	142	70	41	34	38	51	104	111	80	39	10	35	80	78	49	42	55	32	38	28	77	85	43	26	20	10	6	14	26	12	10	3	17	40	63	74	55	32	33	51	52	67	42	76	45	81	85	79	56	38	34	31	18	21	30	27	17	19	41	89	88	69	50	25	45	73	53	8	13	12	5	7	6	4	5	5	9	2	2	2	5	8	10	8	14	19	15	10	13	10	2	8	7	7	8	7	8	5	2	13	23	23	15	25	46	58	52	25	5	5	10	7	51	135	200	153	158	154	39	24	25	24	24	5	27	29	13	24	32	26	8	3	4	9	7	1	7	7	4	3	5	8	8	11	14	11	0	10	7	5	8	5	7	6	3	3	9	7	2	7	7	8	7	4	5	6	4	8	9	5	
6	5	3	6	5	4	7	15	14	5	6	8	8	7	8	15	20	20	7	15	24	24	18	12	7	2	8	19	28	23	3	16	13	4	9	5	4	7	3	2	5	4	7	6	2	4	7	7	2	4	8	5	13	23	28	23	11	9	14	19	31	31	36	25	25	45	17	27	36	41	32	8	32	29	18	4	20	35	29	20	20	16	12	4	0	14	19	14	8	7	8	10	17	20	13	8	13	6	19	19	5	15	15	31	86	122	121	138	156	145	110	64	29	13	42	59	73	92	105	90	45	34	45	39	18	9	21	18	13	4	13	28	36	37	22	4	12	35	42	39	16	15	11	26	77	192	126	120	213	100	19	16	14	40	32	20	15	9	10	3	6	6	14	2	6	16	28	35	28	14	8	14	19	5	11	21	45	54	54	70	82	76	59	43	29	16	7	12	9	37	50	60	82	87	77	60	58	77	86	82	71	58	50	47	44	45	42	35	19	39	8	47	24	34	54	73	90	79	61	52	58	48	32	57	84	136	160	130	98	98	86	47	45	59	49	36	36	37	37	47	41	27	26	27	40	15	16	13	17	25	33	38	43	60	57	40	41	39	38	38	20	24	8	20	26	28	36	26	33	56	61	56	48	44	37	27	35	61	84	100	105	128	168	233	254	207	152	120	118	131	123	94	52	15	17	21	28	27	24	19	12	15	9	36	105	191	255	240	156	73	43	68	135	211	192	155	144	168	210	210	155	99	63	37	17	34	46	59	61	48	19	38	49	11	29	76	144	203	172	109	67	39	44	48	20	33	71	95	143	188	218	234	244	243	220	168	122	97	73	51	32	18	24	25	26	10	13	4	57	93	56	59	79	71	84	104	114	116	111	92	66	49	42	26	12	18	24	42	35	37	26	23	39	31	61	124	148	146	112	62	35	47	36	20	9	8	24	33	8	87	158	156	89	42	22	28	18	4	6	10	19	11	8	12	23	23	17	42	32	6	12	5	7	21	54	28	27	31	12	14	23	2	25	27	17	19	17	31	93	113	99	78	58	50	15	15	28	26	22	41	40	12	50	75	46	142	209	174	97	37	31	28	28	84	106	98	65	55	74	14	50	75	101	60	12	49	70	47	24	29	49	36	31	38	38	20	29	30	43	83	86	66	102	80	9	103	127	164	146	28	49	52	99	79	51	56	72	71	19	22	7	27	25	9	19	52	78	32	28	66	79	104	107	56	20	5	6	12	12	10	4	5	6	3	4	5	8	11	11	9	9	10	7	5	14	6	7	10	5	5	8	7	7	4	3	1	5	11	17	25	29	25	17	11	8	6	14	13	20	67	149	197	160	104	32	12	11	13	8	3	15	30	37	36	27	13	3	4	2	11	6	7	11	5	7	1	8	10	7	6	10	13	13	5	7	13	7	12	9	4	7	3	9	5	10	12	8	5	4	2	4	4	3	2	7	7	
10	4	4	5	3	2	3	11	19	17	5	2	4	4	5	10	17	24	21	4	12	17	11	5	5	9	15	16	23	27	4	17	12	13	11	2	3	7	4	3	5	4	5	2	2	0	5	10	7	4	11	8	5	29	37	22	4	4	8	29	31	7	33	45	25	34	15	15	7	17	13	24	26	15	14	7	21	17	9	24	37	49	49	41	32	28	24	6	10	18	20	20	21	24	27	23	20	15	25	34	41	50	51	75	85	130	160	154	130	112	133	131	131	137	123	96	66	58	88	82	32	40	41	40	30	8	22	16	21	37	62	64	53	41	31	13	22	33	25	7	42	69	65	63	39	219	171	142	249	154	62	31	39	34	16	21	22	13	14	15	12	14	24	28	24	18	9	8	10	27	18	25	48	63	58	53	55	37	15	8	7	6	8	11	29	42	43	48	48	63	84	96	103	94	80	62	49	51	38	25	25	15	7	14	16	25	26	35	15	22	10	29	38	63	67	65	53	28	28	29	27	33	5	19	33	80	50	31	68	78	89	97	86	67	47	19	6	23	21	24	30	26	33	34	65	47	42	28	26	35	42	46	35	19	34	18	29	42	59	49	35	34	25	19	23	20	41	38	40	25	4	20	28	24	11	4	16	44	34	69	61	41	55	138	216	248	245	228	221	218	208	191	138	75	36	31	27	31	32	15	19	22	16	4	19	55	118	187	216	219	225	210	127	39	130	169	153	147	167	201	190	155	117	72	52	45	10	21	42	67	63	46	50	25	19	29	55	140	177	167	135	102	137	150	122	83	57	23	30	65	93	130	183	243	289	295	276	264	249	214	178	163	151	115	88	86	102	98	55	62	87	74	39	16	73	115	158	197	227	238	218	189	172	155	132	109	58	28	50	25	21	19	40	21	32	26	52	92	102	92	86	77	32	20	7	17	35	24	43	117	168	132	59	49	38	17	26	6	8	16	16	8	10	5	14	16	18	32	22	8	11	6	8	29	63	25	43	32	18	16	15	4	14	22	15	4	18	28	110	114	74	68	82	57	11	22	18	22	32	45	63	57	42	66	49	34	140	210	188	96	24	29	41	24	63	117	131	82	38	33	93	76	96	76	34	46	45	76	92	81	35	87	103	89	75	46	71	70	65	119	106	77	105	116	68	153	239	224	267	172	69	108	95	105	89	95	113	132	94	22	24	14	20	21	36	24	51	61	46	48	32	57	94	68	31	15	11	11	12	10	8	5	5	5	5	7	8	7	5	5	6	5	7	4	13	4	7	7	1	5	5	1	0	4	3	5	10	8	5	13	16	10	1	6	9	8	13	15	5	2	20	55	65	39	13	2	5	2	2	6	3	12	18	12	3	3	4	5	7	11	0	10	4	3	6	3	9	6	4	6	5	6	11	8	8	9	2	10	11	17	16	14	10	5	9	7	5	3	2	2	5	4	1	2	2	3	
13	8	8	8	7	4	1	1	11	18	15	6	2	2	3	4	5	14	22	18	9	12	8	2	0	1	7	15	18	17	5	8	14	18	15	11	7	7	7	8	12	13	10	6	4	4	7	14	14	8	7	10	8	32	35	15	6	2	10	25	21	12	14	31	28	24	7	17	16	25	18	21	40	24	21	29	55	84	108	143	185	207	199	175	152	138	122	99	71	36	14	7	3	11	22	24	13	2	8	5	16	21	43	108	103	55	58	52	35	29	81	128	160	174	161	139	129	125	115	82	43	45	53	57	33	9	18	14	22	39	35	10	22	16	34	36	36	21	21	19	38	44	43	90	53	262	241	151	264	198	80	22	15	29	39	22	12	25	9	24	33	37	31	18	2	17	22	18	25	34	31	48	65	62	48	32	21	10	29	40	49	50	39	21	20	45	30	5	22	44	62	50	19	15	31	13	31	21	23	23	24	21	18	18	12	22	20	37	39	34	26	24	4	36	42	31	31	44	40	8	29	20	22	63	99	150	178	193	195	181	154	99	45	24	14	41	43	44	48	64	76	79	90	105	105	68	62	42	45	63	78	84	86	80	64	51	54	58	42	20	8	14	19	18	22	20	24	30	44	38	19	17	27	23	13	31	50	82	70	28	25	32	42	47	53	89	136	156	147	135	163	219	233	198	143	87	42	38	41	6	15	11	16	8	4	13	9	38	86	130	185	235	237	189	104	22	57	75	69	107	140	175	206	214	196	150	83	33	10	38	83	89	67	42	23	17	11	48	118	178	204	198	204	189	183	143	102	72	42	41	38	28	34	53	108	153	160	172	209	241	250	263	276	255	220	212	212	196	156	89	13	60	86	94	111	113	87	46	66	121	171	206	222	225	232	246	227	139	26	31	49	57	82	46	26	37	12	39	56	81	127	150	118	75	41	26	26	17	41	139	193	126	55	45	36	10	25	13	7	20	12	2	2	3	10	17	21	23	8	13	12	8	7	33	59	6	51	37	10	9	5	5	3	14	22	26	39	13	125	174	120	115	104	59	30	28	21	14	17	12	30	27	18	43	69	83	51	46	145	153	52	45	35	43	29	39	89	101	55	50	73	31	69	105	54	15	76	167	186	182	149	192	148	116	96	98	117	106	29	126	120	125	151	135	154	232	277	173	226	268	164	129	76	105	119	72	32	80	114	85	65	44	43	41	36	11	46	74	63	53	57	63	75	52	18	15	18	14	6	6	9	4	6	5	5	3	0	3	3	4	3	7	8	7	10	0	5	4	4	7	5	4	4	5	3	8	13	17	18	4	9	11	12	13	11	3	12	10	6	8	15	15	10	7	3	2	5	3	1	5	1	6	2	7	7	5	3	1	5	7	6	8	2	4	2	2	6	4	7	9	9	5	5	5	1	5	4	5	14	20	17	21	18	11	7	0	4	4	4	1	5	4	4	4	3	1	
11	8	7	5	4	4	2	1	4	14	20	13	1	1	3	1	4	1	13	24	25	18	8	4	3	3	10	11	8	8	7	4	9	9	10	15	16	9	6	10	7	11	11	10	8	7	8	13	17	13	5	11	20	30	27	11	4	6	8	18	29	29	22	24	34	30	18	28	21	25	39	16	45	48	36	48	67	80	88	114	144	166	191	214	224	220	205	193	177	146	113	91	71	46	15	4	10	9	4	3	12	21	18	82	120	114	79	48	38	46	31	68	108	125	133	126	111	86	55	37	27	40	43	20	16	31	16	2	7	19	34	69	62	34	15	34	31	22	30	39	59	64	55	79	56	280	250	63	250	229	100	41	34	30	33	38	16	29	46	58	56	52	44	36	20	20	32	30	27	44	42	40	18	26	43	44	47	40	31	31	38	34	28	17	25	47	40	11	18	40	4	27	35	41	22	19	11	11	26	41	38	19	11	19	28	37	10	18	9	15	20	31	26	14	32	11	23	38	42	45	41	47	85	95	77	82	111	134	110	62	23	7	11	29	54	56	29	20	18	50	61	54	45	37	22	18	41	24	22	29	31	41	62	80	65	39	26	10	19	34	36	24	34	20	21	18	7	18	2	32	31	24	19	32	41	49	44	68	86	68	71	80	94	92	60	22	6	17	12	13	27	103	168	193	189	157	114	96	86	34	13	24	21	3	11	15	26	29	17	3	27	77	141	208	239	200	129	74	15	35	29	71	113	162	206	213	154	67	39	36	34	51	47	41	38	26	22	26	58	115	163	157	105	70	117	110	93	103	108	99	77	71	73	54	44	47	33	20	26	50	91	121	147	161	142	123	114	133	172	209	215	173	105	35	44	129	198	235	232	185	105	28	70	106	122	139	174	190	154	103	71	31	36	63	50	42	29	36	35	33	65	117	132	127	119	100	79	63	18	122	226	159	41	25	17	10	16	14	17	17	8	2	4	7	4	6	14	12	5	11	7	5	0	30	48	31	44	30	13	4	5	4	3	12	40	67	90	105	82	223	160	94	78	44	37	31	29	28	31	18	72	79	64	36	48	109	161	142	87	162	108	58	75	40	19	38	13	44	87	91	65	70	36	97	83	3	122	168	138	181	151	194	125	134	84	124	91	112	76	142	189	35	134	113	117	159	158	88	83	146	143	82	7	15	52	83	96	91	52	21	38	46	67	73	55	19	23	50	77	87	85	81	76	51	24	10	17	16	7	5	6	1	4	4	5	5	8	9	7	8	4	7	7	10	10	5	6	1	0	4	7	4	2	4	4	12	12	12	23	11	12	14	13	5	3	4	10	8	10	8	6	8	9	5	2	4	8	3	6	5	6	5	6	8	7	7	8	8	9	8	6	5	4	0	2	0	4	4	4	4	4	3	2	5	5	5	8	10	14	15	11	16	18	14	5	4	7	6	7	5	1	4	8	9	7	2	
13	12	8	5	3	4	4	7	7	10	19	16	7	4	6	7	7	7	5	12	21	21	15	9	5	8	8	8	10	9	7	7	7	5	6	11	15	14	6	9	7	2	3	10	12	8	8	5	10	10	13	15	22	27	18	7	5	10	13	16	26	32	29	28	32	32	31	45	37	27	46	17	36	58	60	58	39	47	77	117	142	125	73	18	59	89	103	117	133	142	144	150	153	135	94	72	60	39	15	8	8	6	26	48	58	91	106	83	67	71	49	47	56	30	38	55	54	44	21	15	31	24	37	58	58	39	25	11	16	26	36	62	47	68	39	8	8	14	24	36	53	63	65	77	82	295	285	28	275	263	109	27	41	78	99	65	25	5	13	26	5	11	20	41	36	12	12	18	28	49	18	22	53	70	71	65	64	49	35	29	30	22	33	28	54	81	73	54	17	35	32	36	16	18	25	20	10	35	36	33	24	38	45	43	26	47	36	42	46	74	100	132	155	152	113	56	46	52	67	99	121	105	75	32	16	24	30	43	21	59	78	66	50	61	69	49	37	35	29	53	46	18	2	18	40	50	33	8	10	15	7	3	38	50	63	47	20	34	34	21	26	8	22	17	6	4	5	18	13	17	25	25	27	34	24	26	26	16	48	64	72	73	57	26	42	31	13	50	48	41	39	35	48	55	106	153	170	175	171	124	53	21	19	14	12	7	4	0	6	19	33	25	15	82	168	234	259	237	179	140	100	85	35	21	63	151	182	152	156	168	153	117	86	56	19	8	17	22	16	20	48	51	51	71	66	84	118	143	162	156	129	111	96	62	28	27	26	17	45	60	54	29	42	55	33	2	14	42	93	142	198	239	238	208	148	65	57	139	217	255	257	227	162	107	82	82	67	73	143	182	190	170	105	24	34	54	46	48	45	17	17	31	40	62	85	104	118	129	109	108	219	173	36	7	6	7	8	8	8	4	5	7	7	9	1	1	15	8	12	13	3	12	6	23	35	39	36	21	10	7	3	0	5	15	56	126	117	183	139	183	178	78	31	6	31	57	73	78	89	64	97	72	79	47	69	123	139	157	80	108	138	76	24	11	13	36	68	48	49	111	98	98	73	61	86	20	136	176	10	114	71	118	90	146	81	99	54	123	120	63	200	111	60	67	25	104	136	132	112	51	24	67	73	116	149	133	95	86	91	76	56	22	34	55	61	43	31	12	19	41	44	39	33	20	8	7	9	17	11	6	2	3	8	7	8	8	11	9	13	12	1	8	3	8	4	8	10	6	5	6	10	11	10	11	10	8	9	8	14	12	12	8	8	8	5	2	10	12	6	3	2	1	3	4	2	4	4	6	6	7	7	1	2	6	8	7	7	5	8	11	2	5	2	3	2	2	2	1	2	4	4	3	4	7	11	11	10	8	13	12	8	11	11	12	11	8	8	2	5	4	2	2	4	3	8	2	
8	10	8	7	5	5	7	7	4	12	15	12	11	10	3	10	11	5	11	8	6	7	11	2	5	13	5	5	16	15	8	8	8	6	4	5	8	16	15	7	3	4	6	5	11	9	8	5	9	5	14	25	24	17	19	23	23	22	22	19	13	9	7	7	8	13	22	45	55	41	36	10	18	38	65	75	60	82	99	127	166	194	213	215	182	121	50	24	56	74	73	107	155	191	175	166	173	163	130	86	48	26	35	53	42	25	39	52	77	101	107	112	117	106	83	47	7	29	45	15	21	12	48	60	45	38	32	27	25	14	13	53	19	54	68	63	48	25	18	11	20	16	12	47	43	285	312	13	283	242	111	136	197	240	254	225	130	38	46	74	76	55	34	34	21	38	43	26	24	41	69	98	90	68	51	29	29	26	20	20	38	57	75	57	45	53	9	47	36	34	23	18	51	51	32	18	20	37	23	27	82	84	64	63	88	131	143	166	202	225	213	184	149	89	67	119	104	74	53	37	36	22	15	27	28	23	34	66	71	87	86	95	99	85	51	31	41	63	64	49	29	15	18	40	45	25	18	13	13	13	4	12	43	21	33	44	50	47	29	38	39	27	28	22	4	4	5	21	19	18	18	14	27	32	25	9	15	20	35	47	32	23	14	61	64	26	55	71	52	57	69	75	47	17	55	101	120	130	163	184	172	122	68	36	15	11	5	11	19	18	10	19	39	31	13	80	166	237	250	213	170	138	66	60	29	65	154	199	219	244	271	267	232	186	137	89	60	60	76	82	76	80	81	45	40	99	133	134	124	123	133	136	127	107	59	14	48	47	24	29	65	51	41	38	25	18	39	45	35	10	29	55	80	121	155	154	126	78	13	81	159	227	256	238	183	110	40	19	48	87	129	162	162	138	115	77	22	28	49	48	38	28	27	38	36	7	47	107	138	106	184	160	37	11	5	8	12	4	4	4	1	15	20	23	1	3	17	9	16	23	14	22	2	14	16	18	10	5	5	8	8	5	8	21	46	171	151	114	169	141	123	75	48	21	49	84	79	49	54	51	76	48	87	64	85	137	35	88	68	37	114	170	157	79	14	58	50	97	22	62	41	56	53	33	71	70	117	145	31	79	34	109	33	132	65	63	61	129	175	166	175	138	107	142	102	46	68	41	2	31	40	54	124	109	97	71	32	24	25	46	67	66	68	51	28	19	26	30	31	7	7	5	14	20	14	10	9	18	19	15	10	8	11	5	5	7	9	7	16	16	8	12	9	14	12	14	12	6	5	4	4	7	6	6	7	2	5	7	7	0	1	3	7	8	7	7	7	10	10	7	4	1	3	3	4	7	2	7	4	10	5	2	2	8	11	5	4	3	8	12	0	9	8	7	7	3	3	3	4	3	0	2	7	5	4	6	3	4	15	12	8	11	7	8	8	11	13	4	6	4	1	1	5	10	7	10	
6	6	0	3	5	6	4	0	7	13	10	7	11	15	10	8	10	1	7	11	15	15	15	8	2	11	10	7	23	21	10	7	6	1	4	8	7	9	14	11	5	2	7	4	4	3	4	5	10	4	8	22	24	22	24	24	21	15	13	11	2	2	2	4	5	3	5	20	36	31	16	2	4	13	48	60	23	30	14	13	46	44	69	136	182	184	138	54	39	71	21	77	103	170	184	170	180	200	216	211	183	140	113	119	127	141	130	90	46	24	37	62	72	63	64	61	46	34	61	60	43	30	54	37	13	39	47	46	40	37	23	41	33	14	33	44	49	40	50	50	43	40	40	61	38	269	314	5	238	219	241	284	297	270	239	261	257	181	69	32	49	45	13	14	41	62	58	56	69	100	114	92	60	40	21	10	31	24	9	15	47	60	62	71	42	32	31	75	55	41	53	62	46	34	15	22	46	72	57	66	103	37	38	14	99	115	80	70	100	89	34	110	179	208	201	156	73	21	42	86	92	62	34	20	9	25	31	65	84	77	67	69	67	39	29	13	17	24	27	14	11	30	54	38	80	48	4	16	24	27	26	31	42	15	8	15	43	51	57	53	37	21	31	29	7	10	24	34	22	26	21	39	51	53	55	52	26	36	27	14	14	12	25	56	48	36	88	87	48	52	57	49	42	65	48	38	57	40	71	145	207	239	228	183	131	103	83	58	14	16	25	15	17	44	56	50	12	61	112	137	185	193	160	129	99	42	18	41	44	72	127	165	167	159	168	169	145	153	192	204	166	101	49	4	47	56	52	60	50	42	68	94	124	167	167	99	31	11	51	43	58	73	49	33	18	12	31	51	60	67	94	106	97	70	62	107	157	180	158	108	45	43	136	194	194	144	91	53	38	26	7	60	88	138	190	196	141	84	49	10	48	84	93	79	45	39	56	21	44	51	149	138	31	10	9	11	15	16	0	16	13	39	32	45	8	11	18	15	27	48	44	52	24	7	1	6	13	20	22	17	10	3	5	27	10	151	221	106	41	81	79	69	51	7	72	73	41	50	42	13	59	37	86	77	68	152	156	122	44	4	38	83	141	148	59	60	18	82	49	82	123	161	156	149	155	147	118	101	9	76	41	119	56	84	44	54	48	30	52	72	143	164	133	155	176	160	126	91	60	52	60	50	117	131	69	15	4	22	23	2	30	48	51	42	33	23	16	9	27	24	11	5	5	10	11	8	6	10	14	14	12	12	11	7	6	5	5	5	13	12	9	11	7	13	19	15	7	3	5	5	5	5	3	2	7	3	2	6	4	4	4	4	4	5	9	10	1	10	14	7	4	3	5	5	4	7	3	5	6	8	3	5	0	9	11	5	4	3	8	12	0	13	7	8	10	3	4	5	5	4	5	7	11	12	11	8	3	7	17	23	20	15	5	4	7	10	15	9	4	5	2	1	2	5	4	13	
8	7	2	3	5	5	4	4	7	10	7	5	7	11	11	7	5	1	3	7	9	14	20	19	15	1	8	15	29	24	10	7	1	2	3	7	11	2	5	10	8	1	6	6	2	4	5	3	8	4	6	18	17	7	2	5	9	10	8	11	5	3	5	4	4	6	3	3	12	12	8	11	7	9	42	60	24	11	13	39	82	93	109	115	87	67	109	120	42	107	66	129	114	75	110	87	81	97	150	202	231	236	235	229	209	192	184	187	189	178	159	148	135	107	80	72	58	13	24	31	28	44	45	33	15	16	36	32	28	36	30	22	32	4	13	25	25	50	62	58	42	25	17	51	19	244	293	48	138	179	237	236	180	87	36	91	180	219	152	70	42	46	26	24	39	28	17	20	42	43	23	1	15	6	6	32	40	22	23	31	32	55	19	64	67	39	45	69	39	62	87	38	27	45	14	32	25	55	63	57	64	47	62	58	101	46	112	170	213	239	289	315	285	219	131	42	18	46	60	55	38	39	39	37	26	34	45	38	30	20	26	21	44	55	46	20	30	21	22	19	17	27	82	16	87	53	33	69	86	70	42	27	33	8	25	26	17	15	11	7	5	8	29	29	35	35	33	29	24	39	54	59	49	42	35	46	39	22	21	10	8	9	25	42	50	63	84	50	41	64	59	29	52	76	30	83	89	33	34	70	136	213	262	268	239	197	162	135	87	60	35	7	18	8	6	25	40	29	11	51	129	188	211	206	200	182	170	164	138	102	54	60	89	39	81	132	143	175	203	207	186	112	34	36	26	38	44	17	19	29	52	79	113	160	217	219	179	126	83	70	51	77	84	71	51	55	82	106	112	98	84	68	61	51	13	63	121	158	173	180	181	153	90	25	83	130	153	130	83	50	12	40	48	85	112	178	213	213	183	139	97	44	49	87	75	30	26	79	86	68	136	105	29	8	13	8	12	19	14	24	51	97	77	82	15	22	24	21	28	59	34	62	45	15	5	9	14	15	17	23	15	5	5	21	25	61	191	229	158	80	64	85	68	59	86	53	54	78	70	40	52	20	84	76	28	91	129	108	65	31	77	93	49	101	135	58	28	53	10	73	102	108	61	59	74	73	28	48	39	106	86	151	180	167	143	151	185	189	173	162	195	209	181	146	73	7	7	48	94	125	117	156	152	95	48	38	20	27	26	21	22	20	11	9	16	21	24	21	14	14	9	8	12	9	1	6	7	5	7	8	7	7	7	7	7	4	2	6	10	7	9	8	7	10	12	10	4	7	8	7	7	8	10	10	12	13	8	7	10	14	14	15	14	8	5	8	6	7	11	9	7	7	5	7	7	5	4	4	5	3	1	4	8	4	8	10	8	5	6	10	3	11	8	5	7	9	8	7	7	8	11	4	8	11	12	12	4	9	9	17	15	9	8	0	4	8	15	15	5	6	3	4	4	5	7	10	
4	8	4	5	1	5	7	4	5	10	8	5	6	7	12	10	3	4	7	7	4	15	24	24	28	19	4	23	34	22	4	5	4	5	7	5	5	8	5	7	9	4	9	7	4	6	1	2	5	4	4	17	24	10	10	6	8	12	11	11	4	11	9	8	8	8	5	4	11	13	13	12	11	22	31	63	39	11	7	38	78	88	123	198	236	218	172	146	27	177	130	186	176	21	43	33	26	27	58	96	138	170	186	170	133	101	94	118	142	145	138	120	80	38	13	38	95	131	140	140	130	97	49	4	27	33	25	34	41	48	48	37	49	30	37	34	26	45	24	33	24	29	30	33	41	206	256	91	40	50	43	15	104	194	239	240	211	170	110	54	47	39	14	9	25	21	35	29	38	59	76	70	53	35	20	47	49	21	54	36	9	60	105	104	95	36	67	157	189	126	74	12	40	38	16	47	75	73	35	31	31	69	46	81	93	126	169	170	188	195	186	130	34	56	103	117	111	90	53	33	28	43	61	66	57	39	24	31	47	48	52	58	63	56	34	16	22	24	26	14	21	58	78	5	90	38	45	68	40	32	38	27	32	34	60	50	40	28	31	29	17	4	24	24	24	18	21	35	49	65	51	19	7	17	13	32	43	37	18	3	20	28	24	8	42	62	48	17	71	66	66	55	15	67	68	94	51	42	55	32	39	40	65	114	132	133	152	183	194	187	160	107	41	10	27	26	15	12	7	8	43	75	103	142	187	207	206	189	166	149	114	109	88	37	26	24	45	71	45	28	95	127	93	38	26	8	22	28	5	27	54	72	67	66	119	178	213	220	191	128	60	34	47	57	39	32	46	45	57	62	47	22	14	24	55	60	43	63	73	87	127	186	225	232	192	102	43	82	100	78	32	52	63	49	23	63	124	160	170	184	209	212	173	100	26	40	38	56	62	138	140	71	32	17	12	1	12	9	31	17	124	151	113	129	19	23	15	27	19	64	44	35	38	18	23	22	19	20	13	27	19	8	6	11	27	16	63	171	218	195	171	155	89	27	103	87	67	76	100	120	125	137	122	67	27	17	28	59	95	93	57	84	78	43	115	149	93	40	32	74	126	186	205	197	176	154	130	123	115	141	115	131	174	178	143	120	123	137	145	163	223	287	310	303	286	257	235	237	226	186	154	166	169	126	71	44	40	35	31	25	16	8	5	9	8	7	8	15	19	13	13	13	8	4	6	5	4	5	6	5	9	8	5	4	5	4	1	4	8	8	8	8	7	8	4	10	8	11	9	7	2	4	10	14	13	12	14	13	16	15	12	9	8	8	4	4	2	1	8	12	10	4	0	2	4	3	4	4	4	5	7	6	2	5	6	8	5	4	2	6	4	6	5	5	2	6	6	1	5	4	12	7	0	4	8	13	5	8	6	5	5	7	5	4	5	10	15	18	11	5	1	1	3	4	2	7	
3	4	2	2	3	3	9	8	6	10	11	7	3	8	13	15	8	6	8	5	5	20	26	11	23	24	12	30	36	13	2	4	9	9	7	4	2	5	5	7	5	4	7	0	6	3	5	5	5	5	2	13	27	17	11	7	9	12	9	11	15	16	13	12	12	12	12	12	16	15	14	12	12	32	11	59	47	15	14	35	72	103	108	82	55	90	114	97	67	246	148	215	215	39	15	14	22	35	46	22	24	38	38	20	17	21	9	19	33	43	58	92	135	160	158	159	172	171	149	110	57	36	42	37	43	57	61	66	66	59	43	46	87	66	74	73	15	31	66	80	60	34	9	42	80	161	215	108	71	160	241	292	314	297	265	255	240	174	81	11	17	4	26	31	39	31	26	27	46	53	39	30	27	32	28	55	37	50	85	46	51	131	186	117	146	38	148	198	227	179	74	35	53	66	53	50	81	81	58	45	17	46	8	57	91	121	81	11	29	37	78	124	183	220	211	178	156	146	126	98	75	41	17	26	43	38	15	19	25	20	11	5	23	26	14	21	9	14	13	28	36	30	53	78	99	43	58	83	117	138	107	73	57	73	82	58	49	28	26	21	29	11	15	12	13	7	22	43	39	26	35	29	24	30	19	15	31	37	35	22	17	19	11	36	43	33	14	32	56	85	81	44	14	29	52	60	5	60	45	21	64	101	103	85	58	21	74	152	206	217	212	193	143	79	19	15	10	7	5	7	8	7	7	36	83	113	121	127	159	183	165	115	63	51	67	57	36	54	113	137	90	69	119	101	38	23	50	47	30	19	14	10	7	9	21	60	118	176	208	189	135	59	29	38	37	24	34	16	26	26	27	31	42	54	46	35	27	44	38	22	10	74	158	201	202	182	136	116	87	61	53	30	15	12	33	35	20	26	55	87	129	159	158	130	92	53	31	65	59	159	135	54	40	28	8	5	8	8	37	15	180	146	111	160	31	25	15	19	3	35	58	45	18	20	39	41	33	24	15	27	20	8	1	3	8	22	14	45	123	177	229	280	274	180	87	63	38	45	31	103	144	139	106	69	36	7	27	25	49	115	114	47	54	87	36	89	125	82	29	59	94	147	194	215	215	198	168	155	143	119	60	18	24	41	43	27	20	7	16	27	59	103	125	144	186	230	235	213	184	148	107	74	56	72	86	76	53	28	18	4	8	6	4	8	1	6	1	4	0	1	8	13	8	4	6	5	5	3	5	7	8	8	7	5	5	7	9	10	9	5	5	4	3	4	1	5	7	7	5	7	2	6	9	5	7	4	7	7	11	7	7	4	2	4	4	2	2	3	2	4	6	7	1	2	0	1	4	2	7	8	5	11	6	6	1	7	5	2	1	3	3	4	1	1	5	5	3	3	5	8	5	7	7	5	5	15	9	4	10	8	12	13	12	12	17	12	14	17	14	7	3	2	3	5	3	5	
3	3	0	3	4	2	6	8	4	7	14	8	3	13	11	20	16	2	10	2	6	23	24	3	18	20	9	35	31	10	8	12	11	8	5	7	3	5	4	5	7	7	4	4	4	4	8	10	10	9	5	10	20	17	14	8	12	11	7	17	21	18	17	19	19	16	13	12	19	16	12	14	18	30	10	67	58	21	28	60	79	63	89	157	183	153	102	56	105	293	143	230	260	60	31	3	21	38	23	16	28	31	41	56	45	36	63	106	133	123	113	116	109	76	39	23	18	26	47	63	76	72	52	26	9	11	18	20	15	46	65	61	101	104	81	117	74	58	77	63	37	36	35	40	63	142	206	86	172	277	294	283	226	129	55	65	57	48	33	21	12	16	31	16	29	21	3	12	10	19	57	65	54	41	28	51	50	132	125	86	99	171	169	89	185	48	186	126	96	144	89	66	64	82	84	69	70	105	145	124	94	86	71	53	43	34	58	96	85	63	72	107	132	105	66	42	30	28	39	62	50	32	36	32	10	23	51	60	57	67	57	44	50	69	76	59	36	28	18	24	35	71	103	109	82	43	53	84	117	114	84	80	63	66	35	17	29	11	13	7	28	26	31	35	27	21	27	45	58	52	45	33	16	36	38	17	4	8	30	32	21	26	49	51	26	8	14	45	87	108	94	56	13	8	21	19	31	60	21	29	43	45	42	43	31	21	26	31	36	60	94	124	147	128	84	60	41	29	22	14	2	7	10	15	9	30	48	73	118	160	171	132	72	39	41	56	49	28	53	43	44	8	75	134	146	114	67	32	13	4	5	16	23	22	13	23	48	68	84	127	159	130	91	77	56	18	31	7	28	36	41	36	24	12	17	32	32	25	35	18	44	57	27	9	52	75	21	49	28	26	65	79	67	60	60	59	57	28	4	12	13	31	55	85	106	113	95	36	63	141	120	55	37	21	4	5	4	1	33	17	174	141	135	150	29	15	6	5	10	5	13	16	11	23	18	8	8	3	20	24	18	10	1	4	2	9	17	20	22	58	127	211	291	306	247	183	142	138	118	72	43	45	45	56	64	63	66	88	103	71	66	64	12	94	149	141	117	89	28	8	18	20	30	45	62	72	80	97	100	68	22	12	33	33	10	3	15	21	24	30	24	17	18	1	12	30	40	35	32	36	25	6	18	4	20	27	20	5	9	13	12	5	4	5	10	10	7	9	13	11	9	11	12	11	8	5	4	5	7	6	3	3	4	6	11	14	13	10	13	9	6	6	2	7	8	2	4	2	5	7	2	6	10	3	7	2	4	2	7	3	9	7	2	1	7	2	6	2	4	3	4	9	7	4	2	5	7	4	7	8	8	5	5	4	3	8	5	5	4	1	3	5	3	2	2	6	0	5	4	4	3	6	11	13	1	13	14	5	7	7	12	13	16	24	18	8	10	12	10	7	7	3	6	4	8	6	
2	2	5	5	3	1	6	11	5	4	12	8	8	17	13	24	25	9	4	7	12	26	21	10	20	17	14	33	23	8	10	8	5	8	7	6	4	9	9	11	13	13	9	8	4	7	8	7	10	12	11	12	14	8	7	7	14	10	10	15	14	13	13	15	14	9	5	11	19	14	15	19	21	23	21	67	56	17	30	82	107	106	91	58	60	69	99	96	107	331	170	243	316	77	50	22	42	48	52	65	74	88	98	93	78	70	93	109	92	73	17	41	78	117	137	144	150	141	113	80	44	20	24	29	30	20	10	43	102	139	135	102	86	115	16	130	133	76	58	49	47	66	95	130	144	202	237	46	217	223	75	17	4	64	62	90	72	59	40	18	15	14	39	32	17	22	17	28	36	54	63	43	39	38	47	69	87	146	91	63	82	148	121	84	186	98	155	82	61	103	65	68	78	104	137	199	240	256	227	149	112	82	95	107	117	106	111	82	44	13	29	40	41	82	100	90	96	111	97	63	32	54	18	14	33	41	25	46	39	37	24	17	8	13	18	30	31	8	13	4	26	35	25	8	11	16	5	21	32	36	45	39	11	11	44	57	32	7	13	9	18	13	22	28	22	33	36	47	57	50	27	20	5	23	28	21	20	8	19	42	47	32	52	45	30	18	25	26	24	17	50	65	37	29	27	25	35	33	36	40	8	19	12	23	3	28	29	64	83	88	79	68	94	94	135	157	131	95	65	42	14	18	9	12	10	9	5	10	33	63	109	138	111	54	21	36	50	8	47	25	33	43	27	60	105	146	166	156	117	67	36	25	25	23	25	42	40	17	17	53	99	127	135	143	124	77	80	83	95	76	54	50	76	94	82	54	42	24	36	14	48	60	34	51	69	81	49	67	29	17	2	33	44	51	43	45	48	34	29	27	20	8	16	31	43	67	109	136	139	146	110	46	19	16	8	5	2	0	21	10	110	142	135	99	13	10	4	3	1	7	8	6	13	33	39	31	24	26	31	24	18	11	4	5	1	5	13	20	18	15	7	27	101	176	192	173	162	171	184	168	145	136	131	137	128	98	76	113	137	133	75	50	55	41	50	73	74	43	27	43	49	46	38	31	22	13	7	9	17	28	37	37	23	15	14	6	4	8	12	20	23	19	22	19	29	38	36	30	26	21	18	14	17	26	24	20	18	11	5	5	7	7	7	7	8	6	7	9	10	10	10	7	8	11	12	13	14	13	11	8	5	1	0	5	7	6	5	7	16	14	10	5	6	5	6	8	4	3	8	4	4	8	4	5	7	3	4	7	5	4	8	14	10	4	6	4	5	4	3	5	3	4	7	5	4	5	3	2	7	10	9	7	4	3	2	7	7	4	7	0	6	3	3	1	2	5	3	6	5	6	10	10	10	17	10	12	15	6	1	3	11	17	18	15	8	10	12	13	7	4	8	7	4	5	12	14	
4	2	9	4	6	2	3	11	8	6	11	13	14	21	15	21	29	18	7	6	21	28	21	17	28	22	17	22	19	9	5	3	4	11	8	2	8	11	8	8	8	8	10	11	7	3	7	4	2	8	12	14	12	5	2	5	11	10	11	10	3	1	3	4	4	7	11	12	10	17	29	27	15	14	27	60	53	31	40	83	105	89	129	192	216	196	159	96	147	356	192	227	351	144	54	53	73	110	107	97	109	120	106	77	66	67	63	57	28	68	66	70	78	83	69	57	58	51	32	13	11	10	16	18	38	57	48	68	84	44	31	60	67	111	107	208	159	71	47	43	30	18	18	20	83	233	250	26	227	191	82	97	78	75	58	73	86	72	55	41	24	12	25	37	37	26	15	8	9	29	35	29	22	26	24	39	40	101	42	59	85	155	112	53	147	109	97	47	36	85	55	44	75	134	198	235	224	156	64	78	93	25	21	31	44	10	20	34	67	39	48	62	100	106	69	28	41	57	71	87	33	27	42	35	19	68	62	62	46	39	73	84	100	117	116	98	62	36	18	7	24	37	47	53	51	45	42	50	68	87	87	66	50	56	59	36	25	24	8	17	33	32	36	34	23	27	21	26	35	22	2	7	13	29	15	5	17	20	45	67	71	40	61	53	42	25	21	27	41	48	55	66	36	42	29	22	20	11	34	28	23	31	46	50	36	38	29	31	36	38	36	48	60	41	117	150	164	146	123	96	47	21	9	8	11	13	17	17	18	8	34	103	142	123	70	43	34	51	63	25	47	48	1	41	51	8	65	123	134	107	88	58	13	22	28	38	34	22	5	24	46	70	94	126	142	120	110	92	101	100	86	78	92	77	76	53	49	49	47	28	54	52	28	7	44	74	59	82	53	36	43	43	27	25	12	36	32	13	19	22	18	2	17	28	27	34	27	67	174	190	107	23	9	14	2	1	5	5	5	15	29	63	58	31	9	7	1	3	4	4	1	7	13	22	31	27	21	21	19	12	10	3	5	7	5	7	8	1	8	5	22	33	25	43	75	106	134	159	187	183	145	126	117	95	57	46	52	108	84	75	81	39	33	55	79	71	42	40	64	79	83	71	48	26	18	17	17	20	20	10	14	28	31	22	4	7	7	4	4	8	10	6	11	6	5	7	7	6	12	17	15	8	4	8	11	12	10	2	5	4	7	7	10	4	3	5	3	5	4	8	11	10	8	5	5	7	9	11	11	11	11	8	4	3	8	2	6	11	17	16	14	10	11	14	15	11	4	7	7	4	8	5	2	6	0	7	7	13	14	10	10	15	17	14	10	12	7	5	1	2	4	2	4	5	4	2	2	2	1	4	3	1	1	3	3	4	6	4	6	2	7	1	5	2	2	5	5	7	7	8	7	4	4	12	8	12	13	2	0	6	14	20	14	2	11	12	14	14	5	3	4	8	1	11	8	10	
4	9	8	1	6	2	6	11	13	9	10	14	16	18	10	13	26	20	14	8	23	31	25	11	25	18	12	14	16	12	4	1	4	11	7	8	12	12	8	4	0	2	4	7	8	4	5	10	3	8	10	12	14	13	10	8	8	0	8	5	0	3	4	4	3	6	13	12	7	22	25	31	14	6	26	51	46	46	47	63	121	154	113	63	55	64	80	31	217	339	168	176	316	171	49	71	72	64	55	34	55	35	33	29	20	16	11	44	82	87	50	14	13	37	38	37	27	15	21	27	32	48	71	88	95	82	74	117	157	180	208	189	158	132	108	163	46	48	76	75	83	114	140	155	168	241	222	32	219	173	14	16	35	51	84	82	99	61	27	15	13	18	22	15	8	8	16	24	21	30	21	3	38	89	76	69	12	73	61	83	108	192	142	14	79	37	23	35	17	75	69	48	59	66	59	15	78	158	206	205	157	113	117	128	102	70	61	71	53	16	24	47	61	33	56	32	50	53	17	59	46	20	27	57	33	59	90	86	75	64	75	65	68	84	74	40	22	20	15	12	5	9	10	15	13	18	29	38	42	35	28	34	38	28	6	21	26	20	20	49	68	45	44	36	71	87	92	104	97	68	37	18	29	27	13	7	19	39	46	22	49	52	73	44	49	41	13	8	10	21	42	73	50	28	23	14	2	31	21	19	39	59	62	44	33	37	25	5	4	15	22	49	49	49	81	27	64	78	120	133	112	93	66	35	10	2	6	5	20	24	21	30	94	131	130	86	23	29	5	48	75	37	29	44	24	33	39	44	67	56	70	80	61	33	34	14	22	28	14	10	17	24	38	69	100	100	76	41	56	54	29	17	41	44	62	24	8	22	24	11	46	42	29	17	25	60	101	99	47	20	34	60	80	94	84	67	59	52	53	53	38	18	28	26	4	25	52	100	176	197	100	14	15	19	8	2	5	4	14	17	20	13	9	14	17	14	13	14	13	12	11	11	8	4	13	14	4	8	10	8	7	12	18	15	9	3	2	5	7	4	11	6	2	11	26	40	50	67	111	149	130	91	74	57	42	37	65	88	55	21	67	69	47	24	24	64	43	35	49	48	53	65	61	33	12	4	10	10	9	10	8	4	8	17	17	5	5	5	7	5	4	2	7	14	14	10	4	5	10	7	2	2	6	7	4	3	1	5	4	5	10	7	10	10	4	4	8	8	4	4	5	5	6	2	4	5	5	4	5	7	8	11	10	4	5	10	15	17	18	13	13	16	19	19	15	10	7	10	8	7	5	1	3	5	10	13	10	8	8	7	5	6	12	17	15	14	14	8	1	3	5	4	3	4	0	1	2	5	2	8	5	4	1	2	0	2	3	1	3	7	5	3	6	0	5	7	5	5	6	4	0	3	7	10	0	12	10	5	7	12	23	22	10	4	10	17	21	19	4	5	3	9	0	14	9	5	
6	5	3	5	2	4	3	3	7	7	6	9	14	12	1	10	18	15	11	7	22	30	23	5	18	12	11	18	17	10	3	0	3	8	8	9	11	7	5	5	3	0	2	3	5	10	4	9	2	8	8	5	10	16	18	17	10	8	11	4	4	3	6	8	8	5	8	12	12	26	15	27	22	6	21	48	29	36	69	84	125	193	213	211	220	185	104	103	245	279	129	175	281	132	35	74	52	29	61	46	69	60	76	53	39	38	19	35	37	29	10	20	11	13	6	11	28	38	62	80	72	59	80	68	38	10	8	48	94	120	109	55	132	127	83	140	133	175	177	164	134	128	112	107	102	194	194	48	224	199	27	29	18	68	150	140	158	121	62	48	53	49	44	37	23	8	8	5	41	68	52	41	90	121	89	107	67	48	26	32	74	177	153	53	76	42	25	45	29	47	55	2	47	107	178	255	304	285	218	161	118	89	71	56	46	49	21	18	20	21	8	34	20	41	57	33	66	53	23	46	74	91	88	76	50	51	60	56	69	72	41	25	46	42	57	63	52	23	2	21	23	20	17	8	4	4	7	19	21	13	8	15	14	10	17	14	11	15	21	70	67	45	44	50	68	57	76	99	89	85	71	82	83	62	45	34	14	54	41	13	24	8	36	14	54	21	55	50	30	12	12	56	86	65	38	33	37	48	33	29	35	29	15	11	17	16	28	28	29	50	46	33	36	39	63	56	92	60	35	84	120	140	125	79	33	24	26	19	22	6	29	21	15	62	124	135	72	15	63	71	51	23	45	63	64	27	87	114	64	19	16	58	93	56	34	38	34	36	23	14	12	10	17	25	47	55	48	64	86	79	65	66	74	88	80	56	44	35	37	57	76	66	53	35	33	64	77	45	35	32	49	43	41	50	61	39	16	8	14	15	17	31	24	22	12	10	42	97	144	162	89	19	22	15	10	7	8	13	21	17	16	15	12	9	9	11	12	11	9	8	11	17	17	19	18	14	6	8	13	14	12	14	13	8	7	5	1	4	4	4	8	7	6	11	14	13	11	3	21	73	99	76	64	79	101	109	113	92	57	46	67	85	92	98	84	73	51	44	57	46	40	49	55	40	13	5	8	4	3	3	10	13	9	7	12	9	8	5	6	4	3	5	6	7	14	11	7	11	5	7	10	11	8	4	3	4	1	5	8	13	12	8	7	12	8	4	4	9	8	7	8	11	8	2	6	6	4	1	4	3	2	5	7	5	10	17	14	7	15	8	9	13	12	8	5	7	8	11	8	4	4	6	8	8	11	11	8	5	5	7	6	2	5	8	9	8	17	11	8	7	3	2	8	10	9	7	4	7	1	7	2	2	5	6	4	3	3	4	6	4	1	4	6	0	6	7	4	2	2	5	7	7	8	7	9	15	11	8	10	18	24	17	8	7	7	13	26	26	11	1	1	5	5	12	12	6	
7	4	3	6	1	4	7	6	1	4	4	5	11	6	8	10	10	14	13	3	21	24	19	10	9	7	14	17	10	5	3	1	1	5	7	4	8	5	0	5	7	7	5	3	2	8	12	5	1	6	7	7	8	11	16	23	20	5	12	6	4	10	9	7	2	3	4	10	11	18	4	29	29	5	18	70	71	63	16	28	42	100	130	154	188	217	132	121	226	218	95	178	272	93	39	52	11	58	61	34	56	58	44	4	30	32	9	32	32	21	25	41	57	59	58	69	79	74	68	53	48	19	65	20	57	60	62	63	61	62	80	121	200	174	121	146	118	103	77	90	71	60	18	42	50	192	199	32	236	232	67	60	41	118	217	173	199	228	153	68	52	24	8	20	42	39	34	56	90	69	33	12	75	83	60	62	12	6	26	26	63	130	130	60	66	22	45	58	6	99	134	161	198	214	222	230	192	105	36	23	8	29	18	20	10	34	31	12	8	18	36	49	27	48	41	66	85	54	29	34	61	74	63	41	21	18	15	14	17	20	26	14	37	40	58	61	47	39	26	22	27	36	44	40	38	30	39	66	67	65	53	56	44	41	34	50	47	28	22	76	39	40	37	62	30	7	55	43	40	56	17	68	75	67	55	50	51	83	39	26	21	33	60	72	69	43	50	32	53	53	61	39	13	49	57	67	67	51	33	17	9	32	41	41	26	18	22	39	48	57	40	17	35	47	37	53	65	27	30	4	59	93	135	124	84	40	5	24	31	19	8	19	29	17	60	131	159	129	92	96	105	73	36	55	87	133	129	100	82	65	58	29	60	65	81	68	60	45	17	4	8	5	14	13	15	41	62	65	86	88	34	27	39	46	47	60	79	80	72	84	92	68	34	23	40	50	10	39	13	36	15	45	100	121	111	104	133	173	190	177	147	126	104	82	79	83	93	109	96	114	100	52	28	20	16	12	11	13	18	12	8	5	1	0	1	3	4	3	1	1	5	11	12	14	16	12	6	5	9	15	16	8	2	7	4	7	10	8	1	7	9	8	6	8	5	11	21	10	8	27	70	87	91	97	111	120	112	92	74	59	46	43	51	70	80	75	61	59	79	87	75	57	41	31	14	10	5	1	1	3	5	8	12	10	5	2	4	3	3	4	0	1	9	5	5	11	13	10	2	12	8	6	4	6	5	7	7	9	11	14	10	4	7	8	5	8	4	4	7	8	10	8	2	5	5	4	4	2	4	4	4	5	6	2	11	12	5	8	12	4	6	0	9	6	4	7	8	11	12	11	9	8	7	4	7	7	3	4	4	4	4	2	3	3	2	6	12	10	10	5	7	9	11	10	7	4	4	7	3	7	8	4	2	3	5	5	7	5	2	1	3	5	7	1	6	5	2	3	2	2	7	11	16	18	21	20	15	13	13	17	13	9	4	4	3	4	19	24	14	5	4	5	6	10	13	1	
4	4	1	7	5	7	8	7	5	0	4	4	10	4	10	7	10	18	19	4	24	20	13	6	7	11	10	8	5	3	0	2	1	2	2	2	4	6	3	1	4	6	8	5	4	7	11	7	2	4	1	5	4	11	9	16	27	20	9	3	4	12	4	9	8	7	7	9	6	8	13	27	21	13	22	101	126	150	191	177	162	126	42	36	111	228	127	104	204	191	94	173	288	93	53	45	38	51	38	5	12	9	7	16	41	32	13	47	60	51	35	22	23	35	49	60	49	23	0	51	107	97	126	104	104	85	81	80	77	81	94	134	187	121	68	87	21	69	80	60	28	31	46	66	66	212	232	41	259	263	114	96	89	186	265	166	142	299	248	63	42	21	19	32	43	12	21	69	61	15	38	16	50	114	151	126	96	79	52	24	62	106	91	21	50	29	74	49	76	189	233	250	226	168	107	58	21	54	40	34	26	45	22	15	7	12	35	36	18	8	31	45	29	54	43	52	23	30	31	31	21	41	52	54	64	85	95	87	80	77	66	49	44	46	69	64	54	63	72	94	108	99	67	50	69	101	120	116	89	81	79	83	78	74	71	79	81	66	22	67	48	44	24	41	42	43	67	80	105	95	76	77	35	53	58	19	50	49	24	42	26	45	72	75	50	51	85	81	45	29	50	80	58	18	48	67	68	38	11	23	58	79	73	49	32	41	36	31	37	51	47	62	65	72	52	67	89	76	54	43	53	18	90	124	147	142	100	39	8	21	17	12	4	5	14	62	139	190	194	201	204	192	158	174	184	153	73	44	46	54	48	32	22	33	70	71	107	62	25	18	3	14	19	23	28	72	96	80	52	65	73	59	56	60	52	35	33	46	37	30	32	35	69	82	87	96	138	152	143	153	167	190	201	212	207	198	203	199	194	200	183	161	147	137	140	145	129	102	38	68	133	121	80	53	32	24	22	16	12	7	5	7	4	4	5	7	8	7	5	2	5	7	7	3	5	3	4	1	2	7	11	9	7	5	5	13	15	20	17	13	10	5	6	11	14	4	16	9	10	12	34	53	59	55	53	53	45	33	26	19	11	12	14	19	30	33	25	21	32	46	43	30	13	16	18	10	5	4	2	4	5	4	1	2	2	3	3	2	5	7	5	3	5	7	8	11	11	7	7	8	7	7	4	6	7	8	5	4	4	6	4	10	11	5	0	5	7	3	5	5	4	3	9	8	7	5	5	8	9	8	7	7	6	4	10	5	8	12	10	3	6	2	8	6	8	5	6	11	16	18	13	4	3	4	4	7	4	3	4	4	5	5	5	5	3	5	5	9	8	11	8	2	7	8	5	8	8	5	1	1	5	7	10	12	8	4	7	4	4	7	12	15	17	10	7	7	7	7	3	3	8	5	12	24	25	17	11	12	15	12	4	5	7	8	9	11	15	18	12	8	8	4	1	9	9	4	
2	4	0	7	6	3	0	3	5	4	2	2	5	6	4	5	8	22	23	5	29	27	20	15	12	11	7	1	6	4	3	3	1	2	1	4	6	5	3	0	2	1	9	7	5	6	7	12	7	4	4	2	5	11	4	6	17	18	11	2	1	9	12	12	10	7	9	9	7	6	10	15	11	17	22	113	187	141	187	247	255	211	144	94	114	268	154	89	206	206	113	144	293	130	30	32	15	26	25	12	23	20	17	25	68	41	53	75	56	21	12	17	22	29	34	21	17	40	40	90	165	138	160	99	62	44	41	29	20	33	54	91	124	49	98	112	86	99	116	105	92	91	89	84	80	207	284	99	254	273	102	43	103	238	275	152	84	333	290	39	65	31	11	18	37	52	48	77	45	60	34	21	27	66	67	64	62	52	36	37	82	114	69	15	54	57	117	120	90	208	189	120	78	61	40	75	78	48	35	52	58	44	18	16	19	37	30	41	58	69	81	80	43	32	8	30	64	60	40	47	53	110	122	117	116	128	127	110	101	108	121	132	141	147	138	102	78	73	73	102	112	101	61	11	59	80	81	35	44	36	23	19	23	25	39	30	71	77	27	33	21	19	22	43	46	16	28	32	59	14	43	56	48	66	57	36	59	48	68	53	42	62	34	41	60	58	19	26	26	42	38	48	88	43	40	73	82	83	22	52	81	43	34	25	7	28	67	90	92	81	37	26	47	19	21	38	26	42	75	81	33	21	27	72	131	168	165	120	55	5	17	26	22	7	22	37	20	78	97	112	138	172	143	120	93	52	33	47	20	26	54	41	29	55	57	90	135	75	80	86	68	48	25	23	37	77	78	29	51	90	126	144	150	148	146	136	108	80	68	75	96	113	135	140	160	166	188	201	225	258	264	227	178	158	156	152	137	103	87	113	139	138	132	128	125	113	77	20	29	60	106	138	107	69	37	27	26	20	10	7	5	6	4	8	11	12	10	7	7	1	7	4	8	3	6	4	7	5	2	4	10	12	5	8	12	8	5	13	17	11	1	5	5	4	15	14	15	8	10	11	7	7	5	7	4	2	3	7	11	12	8	4	7	4	15	16	11	2	2	9	17	19	14	2	12	7	4	1	3	4	1	6	8	8	6	3	2	6	8	8	7	6	6	5	3	5	10	12	11	7	2	5	4	2	9	11	4	1	4	8	10	11	8	4	3	4	7	5	5	6	5	5	11	8	8	7	4	6	3	8	8	5	4	8	5	2	5	10	8	8	8	5	8	9	5	1	1	4	8	11	14	10	9	9	5	6	10	10	13	13	11	8	8	9	11	8	8	10	14	14	15	20	17	12	4	7	6	2	1	3	4	5	8	10	10	4	7	3	5	14	17	15	18	14	12	13	11	9	8	5	5	12	15	15	16	12	6	7	9	7	4	0	3	5	5	4	8	13	10	5	7	9	5	9	5	3	
2	3	1	3	7	8	8	7	3	2	4	4	3	1	1	4	4	18	24	15	33	30	14	8	5	4	5	6	5	2	4	3	2	4	7	7	5	3	1	0	1	1	5	8	3	4	2	10	10	5	4	0	8	10	3	2	5	14	15	4	7	9	12	8	11	18	20	15	15	5	2	11	6	11	12	78	202	211	102	124	157	174	231	189	128	305	183	89	189	199	119	103	263	171	60	38	24	30	26	15	31	29	42	18	99	66	98	101	38	36	28	17	19	44	41	41	55	36	17	110	192	72	135	83	70	63	46	32	17	26	31	70	123	119	121	69	47	67	59	66	62	67	67	58	35	140	264	97	227	268	96	54	119	245	256	138	96	329	262	55	89	45	28	16	6	28	40	87	48	35	0	22	38	49	17	35	52	77	67	28	68	124	107	90	64	74	110	166	55	171	233	177	126	115	109	84	64	33	26	47	65	54	56	23	82	85	83	80	78	60	69	80	77	80	81	106	106	82	71	82	80	109	73	78	98	96	91	80	72	71	80	85	84	79	59	34	22	31	39	61	38	69	92	6	72	59	37	51	56	28	28	54	52	27	27	12	59	79	121	138	148	161	162	146	123	117	105	94	96	143	139	76	30	47	58	42	31	17	31	12	17	41	56	116	104	100	89	45	55	50	76	47	68	52	70	106	75	131	81	61	44	57	80	54	33	31	36	36	39	66	55	49	74	63	38	33	10	20	36	25	49	24	7	13	17	62	110	132	114	62	19	26	33	22	13	31	29	20	3	16	25	77	60	18	55	43	70	84	83	96	96	71	58	60	36	71	135	165	185	166	148	125	80	31	25	71	84	106	127	116	112	117	100	78	89	144	188	199	189	176	173	157	119	76	80	84	103	103	101	110	114	101	77	60	49	37	34	30	37	51	68	84	93	97	92	85	85	49	33	25	31	68	77	77	57	32	16	15	7	5	7	8	6	8	6	1	4	7	7	1	7	1	5	10	10	5	5	5	2	2	9	7	6	12	10	4	2	2	5	9	8	6	10	6	10	10	5	4	5	12	14	13	14	16	14	10	10	8	11	9	8	4	6	7	18	10	12	7	3	4	2	11	17	8	12	12	7	7	4	0	4	1	1	4	7	8	0	7	10	7	9	14	8	10	3	5	8	11	11	9	10	7	8	6	12	14	5	4	5	7	6	3	4	4	3	4	5	5	10	12	12	8	10	5	4	4	3	7	10	11	8	2	7	7	4	3	4	10	2	11	9	2	1	3	2	1	4	7	7	0	8	11	14	12	7	7	15	14	15	14	14	7	5	7	11	10	6	3	11	20	30	27	24	17	5	4	8	5	4	3	2	1	7	5	10	5	4	5	7	15	10	5	11	13	15	11	6	4	8	12	14	12	18	18	8	12	8	2	8	7	7	7	1	4	3	4	8	13	10	3	3	8	14	13	8	8	
0	1	3	2	3	5	4	4	5	6	5	6	3	4	3	3	4	10	18	20	26	23	8	3	1	1	4	6	3	1	2	2	3	3	7	5	2	0	1	3	4	3	3	6	2	1	2	5	10	8	6	4	10	8	1	4	7	9	12	16	12	6	5	5	10	24	11	26	22	5	2	14	10	12	29	47	138	231	193	105	20	141	303	230	105	306	164	153	202	159	92	56	204	200	89	29	49	40	23	26	49	44	69	57	123	90	110	126	33	12	10	14	15	48	67	63	29	21	19	139	207	14	209	143	95	74	41	18	20	46	75	92	106	73	32	25	65	115	56	31	9	21	31	24	36	171	270	109	224	255	87	41	81	229	257	129	110	309	208	46	63	35	34	24	37	67	70	77	56	40	31	18	39	20	24	56	87	105	87	73	26	65	102	114	67	54	41	109	112	92	229	245	177	97	55	24	46	53	5	32	31	37	81	93	125	86	73	30	23	22	44	27	40	57	84	118	105	103	114	132	124	88	50	62	90	61	60	46	23	5	24	37	56	55	44	65	58	39	35	46	26	50	99	98	77	34	12	37	74	91	87	81	88	85	75	76	114	163	192	200	214	226	232	235	226	207	183	180	182	193	162	131	62	57	71	57	45	48	61	71	91	119	120	93	45	55	95	88	79	67	94	101	92	65	78	125	36	156	144	27	47	77	53	17	14	25	62	62	63	79	37	32	49	44	30	53	54	42	21	44	63	10	13	8	33	40	37	85	135	132	77	8	25	24	18	8	11	12	9	16	13	52	75	21	38	49	106	107	77	54	30	27	44	50	22	29	64	93	102	104	129	134	100	50	12	54	82	109	90	55	18	36	92	95	45	79	140	172	180	174	157	122	69	31	31	63	89	72	32	19	15	11	10	13	25	22	31	21	8	7	6	13	26	33	34	48	96	107	100	128	139	106	47	35	55	38	18	12	3	1	2	7	7	5	2	5	4	4	5	6	5	1	1	7	5	5	7	2	2	5	10	5	7	7	4	3	2	4	8	6	8	6	9	10	0	6	2	4	2	2	1	4	4	5	9	1	7	6	8	9	5	7	1	7	15	8	6	10	7	1	2	6	13	6	7	11	7	6	6	3	3	2	3	5	5	10	2	5	11	12	11	14	7	13	2	1	3	3	4	5	7	9	8	6	15	20	8	8	11	8	9	5	1	1	3	5	5	4	7	4	8	12	8	1	1	3	8	5	4	5	2	6	6	2	2	4	5	7	8	8	5	5	4	4	1	2	2	3	7	6	4	1	1	10	12	8	16	14	7	8	14	9	5	3	7	7	4	2	6	20	23	23	28	25	20	12	2	4	8	10	7	4	8	3	7	9	1	7	10	14	5	2	10	16	12	5	4	3	0	12	21	22	21	24	16	17	15	6	9	16	10	14	8	6	1	5	8	16	10	1	2	3	8	10	9	9	
3	1	4	4	2	4	1	1	5	9	6	3	4	0	2	1	3	5	7	6	12	15	11	5	4	4	3	3	4	1	3	3	1	3	7	3	4	3	4	4	3	2	6	5	1	1	2	3	5	4	3	6	9	8	3	2	2	8	14	15	12	6	5	17	41	74	68	15	23	12	6	16	10	7	22	31	80	165	205	206	161	133	295	228	84	278	139	125	149	88	58	14	139	207	165	94	74	37	4	37	77	60	79	57	155	110	142	151	43	37	35	40	45	55	62	55	45	37	30	155	220	49	252	127	31	53	43	22	25	41	47	52	92	82	62	42	32	106	70	24	46	49	36	22	73	214	263	75	228	240	87	43	45	215	272	131	111	280	188	53	30	8	25	25	57	105	146	136	94	66	67	48	25	42	29	31	71	74	35	32	23	16	31	47	79	17	67	94	121	47	79	144	105	38	25	45	42	88	66	22	57	37	70	87	74	26	63	29	41	30	20	28	43	32	70	99	70	65	39	41	70	78	78	79	37	51	76	64	51	32	27	17	24	43	48	74	22	66	65	69	80	82	94	114	129	131	127	123	125	131	141	157	173	162	130	114	123	128	107	86	76	60	59	81	110	132	136	136	109	87	83	123	72	69	74	62	56	89	132	155	163	165	140	83	47	58	101	122	112	102	100	81	83	85	63	110	55	155	176	60	66	29	15	26	12	10	29	44	87	59	7	12	14	45	36	8	24	25	37	62	39	18	15	15	24	25	36	70	122	170	161	126	83	38	12	7	7	7	2	7	7	32	74	68	61	58	96	55	25	47	61	52	39	26	1	15	12	20	51	42	32	108	112	59	30	46	71	58	47	118	131	150	148	80	103	96	30	8	14	21	34	42	54	64	83	105	97	62	28	8	7	6	0	13	33	22	17	23	12	14	16	12	7	8	9	5	49	90	118	124	108	91	74	54	42	40	23	8	3	2	1	1	2	1	3	5	10	14	17	15	10	8	7	5	2	7	6	3	4	4	8	8	5	4	4	3	3	7	4	5	14	17	8	7	4	5	3	5	5	4	6	4	4	5	5	8	8	5	5	11	3	8	3	3	11	12	6	4	10	9	6	7	11	7	2	7	11	7	4	4	2	3	2	3	7	7	2	0	6	8	4	10	11	10	1	1	4	2	4	7	4	3	2	0	16	25	7	12	14	10	7	9	6	7	7	5	7	8	13	13	8	4	5	6	4	6	8	11	7	3	2	4	3	7	6	2	5	5	10	12	11	8	5	4	3	3	6	8	7	4	3	8	11	3	14	16	8	13	10	7	8	8	4	3	4	4	6	3	10	15	7	12	21	23	28	30	21	8	2	4	5	7	9	4	5	9	11	14	12	10	3	4	10	8	9	8	7	4	5	16	15	16	19	22	14	15	20	14	17	20	7	11	12	12	8	10	11	20	12	2	4	7	7	2	4	8	
2	3	2	3	1	5	4	5	8	6	8	4	3	3	1	3	4	5	6	4	10	13	11	7	6	3	3	2	3	5	2	0	0	2	7	7	5	4	5	8	5	4	6	4	4	4	4	5	5	5	4	5	7	7	5	6	10	10	5	4	7	7	16	36	88	117	165	128	41	5	14	20	12	1	19	44	84	103	85	131	155	99	251	217	55	251	152	87	134	67	58	14	149	257	172	22	50	35	14	36	100	62	86	38	177	66	200	183	50	38	28	80	81	56	50	55	81	96	98	164	220	62	275	129	71	75	26	24	39	29	4	67	140	98	57	18	20	78	64	37	52	24	62	74	85	232	260	42	208	219	131	148	161	205	232	122	70	223	201	144	121	106	100	100	131	166	172	168	141	120	118	99	95	89	65	18	65	91	88	75	58	42	36	36	88	24	30	66	65	69	90	122	93	67	85	86	67	81	120	101	113	94	76	55	27	31	62	44	44	83	112	114	87	65	90	86	43	84	60	89	43	13	27	20	78	113	75	17	41	93	119	116	114	116	111	140	138	120	89	87	78	77	61	74	97	112	106	86	76	82	94	98	91	86	85	71	48	22	12	21	35	56	61	43	24	25	35	95	96	116	101	72	42	96	118	112	79	106	135	145	118	88	97	110	110	107	104	100	97	108	117	80	44	32	28	94	77	119	176	134	118	96	97	111	104	70	54	98	132	112	98	103	140	164	165	144	140	127	93	34	19	24	17	42	23	20	34	24	40	99	134	143	123	89	46	18	12	16	8	5	7	10	41	51	55	78	123	104	71	70	74	87	118	138	115	77	74	94	110	136	133	158	123	38	22	35	18	72	168	208	161	104	34	59	107	70	60	64	57	48	29	8	41	63	69	52	24	6	8	7	5	3	3	5	25	33	26	12	6	2	3	4	2	4	2	4	11	23	29	14	13	21	41	61	59	36	14	6	7	6	5	3	1	0	1	3	5	10	14	15	10	5	3	1	8	8	3	4	3	4	5	9	8	5	5	5	5	8	5	10	7	10	11	4	2	2	3	9	8	10	13	11	10	12	13	7	1	4	5	9	6	12	7	4	5	9	6	1	5	11	13	14	14	14	13	5	4	2	0	4	4	5	4	1	4	8	8	6	8	5	2	4	11	10	7	4	1	7	13	14	13	11	7	1	14	24	11	14	11	8	3	7	1	5	6	2	5	4	4	8	11	14	12	12	9	14	8	12	9	0	5	3	4	5	10	10	4	4	10	12	14	13	12	11	8	2	3	7	12	14	14	10	4	15	11	13	10	4	9	11	9	10	10	7	5	4	5	0	8	12	13	10	10	7	13	23	26	17	9	10	10	9	10	4	5	8	10	10	8	8	4	4	9	2	5	10	13	12	5	17	13	7	9	14	10	8	19	18	20	15	7	8	11	12	11	10	13	23	14	4	9	9	5	1	3	7	
2	4	4	2	4	7	5	9	11	1	5	8	7	5	4	4	4	6	7	6	8	14	11	6	5	4	3	1	2	3	2	2	2	3	2	4	1	3	2	4	7	4	2	3	5	6	6	8	10	10	8	6	5	5	10	12	11	7	6	3	5	7	24	46	138	137	143	208	144	40	18	31	15	8	10	58	120	136	109	73	58	88	231	198	47	229	156	75	104	55	74	19	196	264	87	70	52	5	17	38	125	88	95	44	166	35	216	184	42	21	14	119	127	70	54	11	15	23	21	157	201	80	280	112	81	36	39	39	14	26	29	74	160	100	70	65	45	83	93	115	182	217	209	188	169	223	225	38	154	187	154	188	212	186	143	89	17	137	170	171	181	184	182	186	192	170	116	105	113	129	145	117	91	84	115	134	153	135	101	59	9	24	5	55	97	57	55	65	35	24	39	40	124	179	165	101	39	32	87	127	143	113	88	63	47	52	76	95	111	139	128	101	65	82	128	86	77	97	56	50	40	49	65	65	53	52	103	150	167	156	119	77	58	56	55	94	133	137	109	84	40	51	59	66	53	29	24	22	7	4	7	11	8	9	9	7	11	22	26	25	32	54	55	49	42	50	97	210	216	223	181	108	79	66	57	101	78	87	80	21	74	79	51	1	44	58	51	47	49	61	89	110	84	55	35	77	73	53	112	138	157	170	178	177	184	190	181	179	162	149	151	138	139	139	159	143	132	114	94	59	31	18	77	98	105	62	24	58	74	57	46	50	58	66	45	8	12	26	5	11	3	1	10	9	5	28	80	102	82	70	58	63	96	131	168	171	159	134	119	142	159	146	87	41	77	145	182	207	221	169	60	67	105	114	82	28	11	18	11	3	10	18	11	5	12	34	45	36	15	0	4	4	0	1	8	10	9	5	9	6	5	8	10	15	18	15	10	5	5	17	18	4	11	13	10	5	4	8	7	2	4	4	4	2	4	8	10	12	7	6	9	7	7	8	9	4	2	5	6	4	4	3	5	2	5	5	5	8	3	4	9	9	4	5	2	2	6	7	4	5	11	15	16	15	12	9	5	3	7	3	8	12	9	12	12	15	10	6	5	7	8	11	8	12	17	14	11	9	7	4	4	3	4	3	6	8	10	10	6	2	7	8	10	7	3	3	5	11	14	12	12	13	11	5	12	22	20	13	7	4	3	5	3	7	3	9	6	11	9	8	1	9	15	15	11	14	19	21	12	5	6	0	4	7	4	6	8	8	11	10	3	4	6	9	13	8	5	12	14	13	19	18	8	16	15	8	14	9	4	6	7	12	10	7	7	7	5	3	5	7	10	9	10	8	8	8	22	13	11	14	12	7	5	3	3	8	9	4	5	6	2	2	9	4	5	7	10	14	10	8	11	17	17	17	17	4	14	16	13	11	11	11	12	9	2	1	13	22	13	6	7	3	5	4	4	7	
3	5	8	7	10	11	8	8	10	4	4	8	10	9	7	4	5	5	5	10	10	13	10	4	3	3	2	1	6	8	6	8	6	9	10	10	10	8	5	1	5	4	3	1	4	7	7	7	8	12	14	12	8	7	10	11	8	8	8	7	9	8	24	18	138	201	78	110	175	95	8	42	17	17	17	65	151	194	137	119	65	146	208	142	53	194	155	102	59	38	91	26	213	253	58	36	60	63	43	69	155	129	102	96	113	36	166	195	136	101	75	155	157	82	115	80	101	114	100	218	202	109	266	153	100	36	52	46	69	78	91	135	188	144	122	145	141	161	194	232	257	252	207	170	169	181	139	30	74	125	128	125	103	79	62	57	13	60	85	77	80	96	121	128	94	42	9	11	16	51	106	96	72	95	155	213	235	231	228	224	192	129	82	71	111	99	99	80	64	87	91	84	97	97	97	96	55	37	52	76	59	22	32	32	29	13	35	75	86	84	37	66	43	91	114	77	101	112	113	77	23	10	21	46	94	148	178	163	104	34	9	13	25	36	33	31	42	46	43	24	5	15	35	26	8	27	31	30	35	52	66	63	53	48	49	44	30	21	17	19	25	26	27	43	16	43	140	224	138	86	84	59	76	102	63	27	36	49	45	148	181	167	162	127	82	51	51	36	26	31	15	46	63	65	52	50	54	3	41	64	68	77	86	90	111	148	161	138	96	80	98	97	73	40	64	56	55	65	77	84	121	138	139	81	109	78	38	62	49	47	50	55	59	62	45	4	7	32	14	12	3	5	7	12	8	0	31	72	70	54	39	29	50	34	62	93	88	71	66	69	74	70	38	107	155	158	181	179	124	17	106	168	144	105	73	55	51	49	39	27	11	9	28	38	37	27	21	27	16	5	3	5	5	2	7	11	10	5	7	11	8	8	11	10	5	3	3	4	5	10	5	11	8	7	10	2	5	7	2	2	0	4	7	6	8	8	8	14	14	10	10	10	7	4	4	4	4	4	9	7	8	0	7	3	7	5	4	6	3	5	9	8	3	5	5	4	6	5	5	5	6	7	5	2	11	13	5	2	8	2	7	11	8	11	16	14	10	10	8	2	10	10	1	4	11	11	12	14	11	6	4	1	4	0	4	1	5	8	7	7	4	4	8	13	12	7	3	15	15	6	8	17	13	4	5	10	9	8	7	3	2	2	4	5	5	9	6	4	6	5	7	7	7	10	9	9	13	10	8	7	8	12	7	2	10	4	5	8	10	11	10	7	5	4	14	14	4	16	18	7	17	18	11	11	14	7	8	14	11	1	3	10	2	1	5	6	4	2	4	2	5	3	6	4	7	14	18	5	8	8	6	3	3	6	8	11	11	10	2	5	6	4	9	7	4	6	7	10	13	10	2	8	14	18	23	11	3	7	8	12	11	13	14	10	2	9	12	16	12	0	5	10	11	10	7	7	
3	5	10	7	11	16	15	11	8	8	7	7	5	4	4	4	7	5	2	4	3	9	11	5	6	5	4	5	5	5	5	13	7	7	8	8	8	8	8	7	10	8	7	4	6	6	3	4	0	4	11	15	14	8	7	6	5	7	7	11	13	12	12	10	72	179	197	141	145	106	5	45	20	22	27	56	174	272	133	133	194	168	142	77	39	142	177	125	48	27	98	33	182	238	106	57	111	45	81	155	194	135	90	108	106	78	125	179	158	135	99	155	138	109	178	72	46	28	98	267	211	86	220	170	149	144	163	175	162	154	168	198	201	137	93	112	124	141	163	162	126	107	108	106	110	91	41	38	21	42	68	47	10	8	37	41	9	35	44	20	17	38	34	28	18	24	21	11	15	5	63	79	77	97	103	99	86	85	106	151	193	163	84	45	112	103	56	48	46	69	103	78	36	7	30	73	65	41	52	36	14	33	11	25	50	8	45	42	43	43	22	63	81	87	61	19	57	46	45	43	15	53	95	101	85	71	62	33	49	72	58	35	8	24	17	11	26	32	23	13	8	12	5	10	18	23	31	35	39	43	45	53	58	66	67	55	36	22	21	25	16	14	42	39	5	54	138	158	88	149	166	130	78	34	76	105	77	52	111	150	98	56	78	114	55	42	60	56	53	57	49	36	28	27	16	30	36	18	13	4	29	48	32	3	13	20	30	27	9	11	17	32	22	28	31	31	32	62	56	83	129	154	126	71	129	68	97	94	71	56	40	45	55	39	27	19	14	30	25	14	7	8	3	10	15	6	8	31	34	19	14	14	32	38	26	24	25	13	19	19	12	23	23	160	168	40	34	58	21	106	172	166	105	70	61	57	53	48	44	43	35	26	21	8	10	30	43	34	12	2	5	1	4	4	10	13	4	9	15	12	6	6	4	7	12	11	9	7	5	7	5	7	3	5	5	10	6	4	2	3	4	4	5	4	5	1	4	9	7	7	8	8	5	1	4	8	7	11	4	7	11	2	8	9	5	2	2	1	6	11	8	11	10	8	8	8	6	4	4	3	8	15	18	16	11	9	6	1	7	7	5	14	15	9	4	2	4	4	4	5	11	5	4	2	8	4	5	4	7	8	9	5	5	3	6	7	5	3	9	11	11	11	7	1	7	8	2	10	20	14	12	15	7	10	12	14	10	5	1	5	0	4	2	6	9	4	5	3	4	2	5	11	11	7	7	5	8	13	11	1	8	11	14	10	3	6	8	9	5	4	7	8	11	5	8	16	10	10	19	10	10	12	8	4	9	11	3	13	16	4	1	8	7	4	5	0	1	5	8	8	8	7	14	17	13	14	14	6	8	5	5	8	5	10	13	9	4	8	6	1	5	7	4	8	10	6	8	6	7	10	9	3	7	15	21	18	10	2	8	14	8	18	12	10	10	8	7	11	12	4	4	5	5	10	8	9	
10	6	7	11	7	12	12	7	5	8	5	4	4	4	4	2	4	7	3	3	1	9	12	7	4	3	1	5	7	5	10	12	4	2	3	4	1	5	8	8	8	4	7	6	4	7	8	7	5	2	4	9	13	5	3	0	6	4	7	11	12	13	10	2	19	80	142	147	113	80	11	43	24	24	34	24	164	302	152	194	229	123	76	41	9	53	108	133	103	36	84	36	119	180	146	140	167	76	164	218	170	73	45	46	69	48	74	106	75	79	70	143	123	146	190	99	128	168	213	258	178	46	148	95	129	190	230	223	197	188	189	173	124	49	18	29	44	43	39	37	15	24	43	57	51	22	7	15	22	15	7	23	22	20	47	33	6	34	40	15	45	51	22	35	18	30	38	25	3	9	24	47	56	51	21	21	22	21	26	5	79	124	73	36	104	90	17	22	35	32	32	32	22	42	56	54	32	15	42	25	39	47	54	57	79	43	52	38	10	21	29	40	64	47	13	44	73	77	57	6	57	79	45	25	74	107	121	101	92	76	34	50	25	23	25	25	19	14	15	17	20	13	0	11	16	18	22	16	16	28	26	23	13	31	34	38	30	31	40	47	43	34	39	37	34	51	112	136	159	169	127	82	64	46	75	115	143	127	126	64	46	120	172	164	55	44	12	18	8	29	44	63	82	79	49	36	24	16	32	49	86	116	116	71	36	34	28	20	21	13	12	5	10	27	33	41	41	65	57	67	64	43	33	79	124	131	164	142	132	130	123	108	78	27	16	33	27	30	33	20	9	5	13	13	10	6	10	18	31	25	25	31	23	15	23	53	57	49	32	19	23	24	73	180	112	69	120	151	130	143	130	85	41	32	35	34	35	36	37	43	50	61	72	67	55	49	35	18	9	5	2	5	3	5	16	18	9	12	12	9	3	7	11	12	7	2	0	0	1	4	3	2	2	1	10	6	6	7	11	12	13	13	8	5	5	1	3	7	7	2	4	5	4	1	3	7	6	15	11	7	12	8	11	16	18	15	10	2	2	8	12	8	4	3	4	8	10	8	5	7	10	2	5	8	8	10	7	2	4	10	4	9	15	14	8	7	8	7	10	5	5	12	11	5	8	2	4	2	1	6	7	10	8	5	4	7	10	5	4	5	7	8	10	10	8	5	3	1	14	17	16	11	2	7	10	11	6	7	2	4	5	7	10	8	4	2	5	5	3	5	4	10	13	5	8	10	8	10	8	7	9	7	4	7	7	4	7	5	0	3	3	4	10	11	3	8	10	6	19	24	17	8	1	4	7	7	2	12	18	4	6	5	11	8	2	4	3	5	5	13	12	9	9	16	26	22	10	2	9	5	4	7	2	9	13	14	8	8	6	5	18	17	12	8	15	7	10	5	3	3	7	5	6	12	15	23	21	15	17	14	13	20	10	8	14	10	7	12	14	8	7	9	7	6	9	8	
10	11	5	14	9	5	10	7	3	7	4	5	5	0	0	3	4	8	9	6	5	13	14	7	1	3	5	5	1	8	8	8	1	3	5	5	3	2	4	0	3	3	6	5	1	2	4	3	5	7	5	4	10	7	1	5	4	2	5	3	1	5	11	16	13	21	46	67	63	48	15	42	24	26	30	13	127	256	193	226	180	68	57	46	32	26	26	87	115	49	55	26	73	92	100	152	194	125	218	212	106	20	44	14	46	22	115	123	67	37	33	176	147	179	197	164	192	200	194	176	109	37	108	58	100	113	109	111	113	118	114	85	39	12	10	17	8	14	18	24	15	12	8	6	13	17	2	20	14	11	25	26	18	26	50	29	6	32	40	10	63	45	53	41	15	27	21	25	21	25	26	15	22	17	7	17	26	27	35	38	79	118	47	75	93	55	20	20	49	32	44	71	90	105	97	60	16	13	34	32	25	53	47	41	65	47	47	34	4	18	50	44	12	10	24	47	63	42	26	57	48	17	76	110	123	137	150	131	76	42	35	49	17	5	13	13	18	27	32	23	16	10	17	30	33	33	26	2	14	26	27	31	45	54	33	34	15	16	22	36	43	51	63	71	75	64	34	67	97	72	35	14	24	70	94	39	43	20	43	33	104	144	156	92	70	68	34	33	4	7	18	38	52	54	68	66	22	17	27	54	110	128	167	160	101	51	24	16	11	2	8	10	5	8	14	17	22	45	45	39	22	13	15	41	88	118	105	61	52	65	78	70	41	35	25	3	15	18	23	23	11	5	8	6	0	5	5	9	22	29	36	33	21	10	13	43	24	48	41	15	13	55	145	177	61	85	62	118	151	138	77	47	43	18	14	13	13	14	11	15	18	24	39	53	46	28	10	3	5	10	9	5	2	8	18	14	7	18	13	4	10	5	8	8	4	4	5	10	11	9	7	5	5	7	7	5	14	14	16	14	15	20	19	14	13	8	3	3	8	6	5	7	7	8	6	5	1	8	14	13	10	9	6	8	14	16	17	7	3	1	5	5	9	7	2	6	1	2	1	3	10	13	7	2	3	7	3	3	2	8	10	5	10	11	5	4	5	5	5	2	5	7	7	8	8	6	4	2	3	5	3	5	7	10	8	5	9	4	2	0	3	4	6	9	8	4	1	2	5	12	13	6	7	6	4	5	4	7	1	2	8	4	15	10	4	2	6	3	11	8	4	5	11	16	14	8	3	0	1	4	8	10	7	1	8	10	4	1	2	3	2	4	5	7	7	4	10	10	5	14	15	9	6	8	12	12	12	17	22	15	8	3	10	11	4	2	6	4	0	10	15	17	18	2	23	29	18	8	11	11	10	11	9	4	5	13	14	12	5	15	24	18	18	12	16	5	11	10	2	2	5	9	4	8	11	18	24	30	31	11	13	20	12	11	18	17	14	17	21	15	9	10	13	11	4	6	
7	10	5	11	10	7	6	7	7	5	0	3	4	10	11	8	7	10	12	11	8	12	13	6	7	4	3	3	8	7	4	5	2	5	4	5	4	3	4	2	3	2	2	5	5	7	8	8	2	7	10	8	7	8	7	6	4	5	3	3	6	8	3	8	8	3	4	13	19	13	13	36	22	27	18	21	84	159	158	178	110	31	28	47	41	33	18	41	107	53	39	12	63	43	22	109	172	87	203	161	62	41	53	21	41	31	127	104	55	46	91	217	124	167	149	83	93	75	65	82	66	25	79	45	72	43	18	26	3	18	11	2	10	7	13	12	10	17	10	8	13	25	34	39	35	19	21	24	18	19	14	15	12	25	45	31	22	25	35	20	76	32	64	51	10	11	16	30	23	5	8	17	32	33	24	24	27	21	20	20	58	82	63	101	83	39	21	4	58	37	54	90	89	60	41	48	28	7	21	55	41	10	17	26	36	46	58	50	42	27	29	44	33	26	43	47	38	28	5	51	105	118	91	39	13	22	35	65	15	10	49	53	24	23	21	22	25	21	17	5	7	18	40	42	37	31	14	13	4	9	4	7	17	49	60	50	38	44	44	26	8	8	24	40	42	42	44	48	48	40	26	13	15	57	102	143	167	157	151	133	109	77	47	18	86	97	59	90	62	32	5	31	57	49	66	78	27	30	22	44	109	75	43	109	103	65	21	4	5	7	8	26	35	25	15	7	7	16	15	13	10	7	8	19	34	34	10	15	22	23	15	16	25	26	39	45	37	36	35	19	5	2	5	7	4	2	2	1	9	11	13	14	21	23	31	60	55	48	46	16	20	91	146	117	39	106	91	38	77	90	75	41	40	27	2	4	4	5	9	10	11	15	16	9	7	5	4	4	3	1	7	10	10	11	17	17	17	15	12	5	11	15	8	3	5	8	11	11	10	8	5	4	4	4	2	9	14	10	4	4	3	8	13	15	17	18	16	10	7	10	4	7	9	10	7	2	6	5	3	9	6	5	10	10	5	8	15	11	7	4	7	6	1	4	5	8	7	2	0	2	2	9	7	4	5	7	1	5	3	3	5	1	8	10	5	4	4	5	10	10	4	2	4	7	5	3	4	7	7	10	5	4	5	3	9	12	11	5	2	5	6	6	7	7	5	2	2	1	2	6	5	7	7	4	4	5	4	6	3	4	7	1	16	10	3	2	3	7	8	3	5	5	9	15	17	11	2	3	5	6	4	2	5	7	5	10	5	2	4	7	7	7	2	2	6	5	12	18	15	7	7	7	9	8	7	8	10	16	22	20	11	3	6	9	5	6	7	4	5	8	14	15	21	18	10	26	16	12	13	10	5	8	7	5	3	2	9	10	10	22	23	5	12	6	10	2	11	13	3	3	2	8	10	8	5	1	10	30	42	23	7	17	15	23	31	31	19	13	17	15	4	3	3	5	5	4	
6	7	6	7	10	11	7	2	6	7	5	4	7	8	7	2	5	5	7	8	4	9	15	5	10	8	8	10	8	4	3	4	6	6	7	5	4	4	4	4	4	5	6	7	4	5	5	8	7	4	2	4	5	7	7	2	9	7	4	6	3	11	6	7	10	7	7	5	4	5	16	23	17	24	10	27	63	77	47	64	30	7	2	23	20	15	27	23	105	60	41	17	71	35	35	81	154	54	188	117	30	44	57	41	27	18	119	118	77	28	139	239	71	160	128	25	44	16	26	68	73	27	71	27	43	18	43	44	38	25	21	25	23	15	11	8	8	7	14	10	10	19	18	8	4	18	29	14	21	27	8	5	8	22	31	25	29	15	20	32	77	28	57	57	21	11	13	15	19	29	33	27	8	17	16	16	20	19	17	16	31	49	53	61	31	11	26	15	46	41	21	94	127	80	49	50	19	8	18	48	53	2	29	15	18	32	36	26	32	37	29	17	21	34	55	48	11	15	53	86	60	24	51	77	100	129	137	106	59	43	52	44	21	23	29	19	19	18	10	1	8	21	37	24	16	27	34	31	21	23	31	26	11	14	34	36	24	32	55	59	43	26	18	1	12	17	16	53	82	76	55	34	14	45	81	105	115	118	134	139	83	19	80	67	69	119	46	55	55	53	49	21	28	59	76	64	8	24	7	41	114	154	149	123	102	76	25	11	8	24	39	42	36	33	23	5	4	8	8	7	11	11	8	7	7	11	14	15	5	13	11	10	13	19	31	40	45	43	29	14	7	10	13	12	9	8	8	9	12	13	8	7	14	20	21	39	52	31	34	15	33	86	119	127	86	63	99	71	50	34	27	41	24	21	7	1	1	5	12	14	13	10	13	17	14	8	11	13	11	8	7	0	7	10	14	17	15	11	11	8	6	17	17	6	4	10	18	11	7	10	7	5	3	4	9	8	8	16	14	9	6	7	1	5	5	8	14	14	7	7	2	0	3	4	6	6	3	4	6	1	4	7	13	12	5	8	14	11	6	4	8	13	12	4	2	5	8	5	3	3	10	19	18	13	8	5	3	7	5	9	8	6	10	12	8	2	4	7	6	4	5	7	7	7	7	7	6	7	5	5	4	7	7	5	5	9	6	7	3	7	2	1	2	2	6	4	2	2	4	5	10	15	10	5	1	6	7	7	4	3	4	1	13	12	2	6	6	7	4	7	5	4	4	6	4	10	9	4	4	4	4	2	4	7	2	7	9	7	4	1	6	6	3	3	9	10	3	12	13	7	7	8	6	4	11	16	13	8	10	10	11	7	5	7	5	11	12	5	7	6	10	8	12	20	12	22	9	7	9	4	1	6	10	10	5	6	7	5	13	23	24	7	8	7	8	7	12	18	8	2	2	5	13	17	18	15	8	14	40	35	10	11	8	21	24	28	21	11	16	19	8	4	6	5	7	3	
1	5	5	0	3	4	5	8	7	1	2	6	7	3	7	5	7	7	0	5	4	7	15	6	7	5	8	5	1	4	4	4	7	4	2	4	4	5	7	8	7	5	5	8	4	3	4	8	4	7	9	6	5	8	12	11	9	6	4	7	2	11	6	7	8	8	5	7	7	8	16	14	13	13	4	27	58	54	10	26	47	45	24	31	21	12	25	17	89	63	35	4	61	36	53	83	140	44	171	92	23	32	43	45	36	38	98	121	131	109	135	232	56	159	121	59	68	45	39	68	89	34	74	39	25	7	39	23	38	35	13	11	10	15	15	12	13	16	19	19	9	14	26	30	26	22	18	14	29	22	2	15	25	25	12	13	24	27	21	40	73	23	49	64	36	7	2	8	3	10	25	41	40	34	27	21	15	14	5	2	11	22	13	24	34	21	11	6	24	37	22	40	98	107	71	28	19	26	41	45	36	5	20	19	13	8	8	18	25	12	5	1	15	38	62	38	33	18	80	86	122	163	138	94	72	79	84	71	59	56	52	36	21	11	7	12	15	14	9	0	10	17	29	36	36	34	30	20	15	20	27	27	16	20	25	28	14	12	14	36	34	34	36	22	14	16	43	31	24	58	52	34	22	19	17	28	32	19	25	43	78	68	18	42	77	131	42	44	14	32	61	65	61	49	55	38	24	26	22	18	42	87	120	121	84	45	13	29	57	70	50	5	32	42	26	6	6	10	12	4	5	5	5	8	14	15	10	4	10	15	14	14	17	13	7	7	13	15	10	11	13	13	9	9	11	13	15	17	21	23	17	6	4	4	4	8	24	9	24	15	23	58	104	150	163	136	102	60	44	43	16	12	13	6	10	7	2	10	11	7	3	2	7	3	4	2	13	9	5	6	7	4	4	5	5	5	2	5	7	4	1	8	19	14	3	8	18	13	11	13	5	5	8	11	12	7	11	21	25	17	8	8	7	5	10	13	10	6	2	2	4	7	7	4	5	5	4	8	8	5	6	11	12	8	3	4	12	11	7	5	4	5	10	7	2	2	7	10	8	5	13	20	10	8	4	6	4	7	7	4	5	7	11	15	11	3	2	8	13	12	11	8	8	8	11	11	9	3	12	12	4	8	2	8	9	3	6	10	5	9	7	7	10	10	5	5	0	2	7	11	15	17	8	7	6	4	7	6	1	4	8	9	4	11	11	6	7	11	5	7	4	2	4	8	9	7	9	7	5	4	7	5	1	5	7	4	8	8	11	11	8	2	7	4	7	14	11	9	8	5	4	8	5	2	5	14	16	13	14	10	6	8	7	4	9	13	18	15	14	6	14	8	3	14	11	12	7	4	4	6	8	11	14	17	10	8	10	3	14	21	24	14	9	11	10	10	10	20	17	10	10	12	12	10	10	11	12	4	27	35	31	25	21	18	8	23	21	12	15	23	17	4	3	4	8	8	
4	5	5	4	2	2	0	5	10	5	2	5	5	3	7	2	8	6	2	4	1	8	11	4	4	2	3	3	0	3	4	4	3	6	7	9	5	6	5	3	3	1	3	4	6	5	5	9	1	4	7	6	8	12	15	16	14	10	8	10	6	7	7	4	8	10	8	10	8	9	17	17	14	9	10	24	49	58	57	35	24	34	53	55	31	20	15	10	66	70	11	23	43	17	36	89	127	47	141	74	25	24	25	35	53	43	74	70	69	75	103	200	52	129	110	91	69	43	34	52	80	20	56	39	25	19	42	26	15	34	12	12	7	11	10	3	7	14	27	32	25	13	23	27	15	5	11	8	20	8	13	14	7	5	2	11	12	32	41	67	80	23	48	73	37	10	13	15	9	17	12	19	30	34	34	36	35	34	29	22	18	20	15	18	33	31	6	12	20	32	22	12	36	68	86	82	69	54	33	23	12	7	8	4	9	6	27	44	41	29	21	8	34	58	52	15	53	10	52	71	129	111	65	49	39	41	9	13	28	39	34	20	7	7	10	7	12	8	4	8	3	14	28	33	20	29	44	46	47	46	38	40	34	42	38	41	31	15	14	27	25	18	15	24	14	34	45	7	59	72	41	6	37	57	50	29	26	20	17	21	58	80	86	58	112	127	35	58	25	14	48	28	23	69	73	21	32	33	27	23	1	1	13	10	13	8	7	43	68	33	43	58	53	33	12	2	4	5	10	15	21	17	6	7	6	5	4	4	5	10	8	5	8	7	4	1	6	4	1	4	6	4	3	5	6	7	10	13	14	14	20	6	6	7	10	14	16	7	20	8	12	10	22	54	96	121	107	66	41	38	17	1	8	5	4	11	5	12	13	4	0	3	5	6	10	10	15	15	18	15	9	5	5	7	8	8	4	5	8	13	12	4	16	17	7	8	13	9	7	8	3	18	46	59	43	27	31	25	1	15	15	15	12	4	15	16	17	12	5	1	2	1	4	3	3	4	0	8	8	8	7	7	4	4	7	7	7	13	11	1	7	5	10	7	2	4	5	9	11	5	12	17	7	15	11	8	5	8	10	3	3	8	12	13	9	7	13	19	20	13	5	3	1	4	7	4	6	12	8	8	12	7	4	8	7	3	7	9	3	5	5	5	5	7	4	4	8	8	7	7	10	9	2	7	7	4	3	0	7	11	11	9	7	2	15	12	0	9	6	11	8	7	5	8	10	5	6	12	11	5	5	1	5	6	4	4	4	1	2	8	13	4	5	5	2	5	6	5	5	5	2	8	9	5	7	10	12	10	10	5	4	7	6	3	7	5	13	14	18	18	20	11	7	5	10	7	13	5	6	7	9	11	9	17	16	9	8	6	12	18	24	19	3	4	4	4	2	13	18	16	14	8	5	4	9	10	5	7	10	22	32	29	33	22	8	19	19	10	9	19	24	15	8	6	14	14	
4	5	4	4	8	10	8	4	7	6	4	7	3	7	11	15	15	10	8	4	5	8	5	5	5	5	2	3	2	1	2	3	2	4	7	13	7	3	4	4	4	2	4	2	2	5	8	12	2	4	4	1	8	10	9	8	9	11	12	13	10	3	6	3	5	8	4	7	6	8	16	17	12	10	12	21	39	46	45	55	45	42	80	66	24	22	13	19	48	79	42	19	21	31	38	74	123	89	107	54	19	20	11	25	41	19	74	78	59	23	96	157	49	81	66	33	15	15	12	31	67	25	34	26	25	24	43	42	23	30	8	28	20	20	16	13	17	17	17	7	19	37	23	24	26	12	20	23	39	30	8	12	14	12	6	8	17	28	21	84	88	21	48	74	31	17	12	25	16	17	21	5	6	5	9	19	21	17	16	18	16	19	35	23	24	38	4	25	20	37	25	16	21	9	19	48	55	34	12	16	22	22	25	34	25	26	51	47	32	25	21	4	50	69	33	39	49	33	27	40	76	30	34	27	31	26	7	7	12	10	4	4	4	5	7	17	14	4	4	1	7	8	8	24	62	78	83	73	61	58	52	51	37	72	51	41	48	7	20	39	54	53	41	11	22	46	53	54	52	31	48	43	22	41	63	31	14	16	20	13	20	47	72	73	153	119	86	80	50	71	113	104	85	58	60	33	25	4	25	20	8	10	21	21	3	6	4	37	64	57	80	58	13	1	1	8	12	14	15	21	9	16	4	7	7	10	8	5	4	7	7	5	0	7	10	7	2	6	8	8	6	3	4	4	4	4	3	8	13	13	26	14	9	18	38	40	21	12	14	3	10	2	8	11	24	38	45	44	36	34	12	3	3	8	7	9	4	12	10	5	7	8	4	5	4	6	15	21	20	16	12	8	4	7	13	8	4	3	5	7	11	10	13	13	2	2	9	10	6	15	17	70	117	117	104	90	110	113	75	28	11	21	23	4	16	14	3	8	7	3	2	7	10	8	6	7	4	9	9	0	2	7	10	9	8	7	3	8	14	10	1	5	5	4	4	7	10	11	9	1	9	10	10	11	5	5	5	14	13	8	10	14	13	5	6	12	15	12	10	11	4	7	8	8	10	11	10	10	6	6	10	10	11	8	3	0	4	9	8	5	5	5	7	5	10	13	12	16	10	4	7	10	8	5	5	4	4	0	11	10	2	4	5	5	10	11	13	9	5	10	6	11	11	5	4	10	9	8	14	7	3	5	2	7	7	5	4	5	8	12	13	2	3	4	7	7	4	4	4	2	3	4	11	11	10	9	13	15	14	10	7	5	2	0	5	7	7	5	12	16	16	12	16	10	12	4	7	8	8	10	5	7	5	13	21	13	5	8	14	14	21	18	7	4	3	1	2	4	8	5	2	2	7	10	8	4	0	3	6	12	11	24	33	21	7	15	17	9	4	10	17	17	13	15	21	10	
5	7	4	4	11	13	15	15	10	5	4	6	3	5	13	15	12	10	13	13	10	7	1	0	0	4	6	5	7	1	3	2	4	4	10	12	7	1	4	7	4	0	1	4	3	2	5	12	7	1	1	6	8	3	5	5	3	4	2	7	10	10	7	1	8	10	4	8	9	4	7	10	5	8	10	5	18	38	54	32	33	70	74	47	10	20	11	20	31	82	58	24	32	36	35	37	90	100	83	35	22	18	14	17	11	18	74	95	46	33	108	118	33	56	53	16	17	1	11	28	60	26	24	21	18	37	42	24	4	13	55	62	42	40	23	8	17	16	23	29	30	41	5	43	36	21	46	47	54	56	22	3	5	7	6	4	22	37	13	92	89	17	46	69	31	14	8	22	27	17	18	7	2	2	2	2	11	18	19	9	4	17	50	18	48	58	37	46	21	29	21	11	29	39	46	32	13	22	7	32	34	49	59	39	47	38	49	18	27	39	25	14	57	71	11	31	36	15	11	40	65	30	21	17	23	13	4	8	4	4	7	7	5	7	7	19	14	12	7	1	7	14	21	42	83	67	16	22	12	26	15	24	11	80	51	35	60	39	43	45	46	19	34	33	25	53	70	78	68	47	37	51	76	89	63	17	6	13	12	10	3	16	24	52	131	135	173	164	142	126	108	57	52	26	32	16	41	51	42	13	19	20	7	18	12	4	7	18	48	65	56	19	9	6	2	9	6	2	8	13	18	22	9	8	9	5	2	4	7	10	8	5	5	1	4	6	7	11	15	15	12	10	3	1	1	1	4	10	19	23	22	11	19	57	75	61	52	29	9	5	10	1	11	12	10	8	8	18	16	14	8	6	1	4	6	1	8	12	9	9	11	7	8	7	10	10	5	2	3	4	2	3	6	5	12	11	7	5	10	9	3	5	8	9	7	9	13	16	14	10	60	137	124	75	81	98	113	123	110	82	49	2	25	11	11	18	10	5	6	4	4	5	5	6	5	5	7	5	8	9	12	15	15	12	9	7	5	2	10	14	11	8	9	5	1	7	13	18	17	11	10	3	8	6	3	3	7	10	5	7	15	13	2	7	8	4	4	4	8	14	7	3	2	4	5	8	10	7	1	4	3	6	7	6	6	5	5	8	11	9	8	9	10	8	10	10	5	17	12	11	10	11	12	11	9	7	5	4	11	14	14	9	3	1	3	8	14	13	14	7	2	4	12	14	6	11	11	4	12	15	7	2	5	6	7	3	2	2	5	8	9	4	8	10	9	9	10	11	7	3	7	11	13	12	4	2	3	10	14	15	11	6	4	4	5	7	6	3	5	10	13	12	17	16	11	2	9	2	12	13	9	7	5	8	21	19	9	15	17	14	15	13	5	5	8	7	4	7	8	5	2	4	7	6	4	2	3	5	7	2	8	21	27	22	20	26	21	9	4	8	10	9	7	13	27	29	
8	8	7	8	10	7	10	12	8	6	7	3	2	9	8	3	4	4	7	10	7	3	4	7	9	12	13	9	11	7	5	5	8	10	10	10	5	1	4	8	4	0	1	5	5	2	4	7	10	9	2	7	7	6	7	8	8	11	10	4	3	8	10	10	11	9	7	8	8	4	7	7	2	7	12	5	8	50	63	26	55	54	39	23	8	18	13	16	28	75	55	20	11	7	30	14	33	55	48	27	29	13	11	3	12	24	60	82	47	59	92	88	22	49	57	15	17	15	8	43	61	26	27	61	91	106	96	65	39	48	75	54	73	63	15	22	25	7	12	19	20	56	56	53	25	44	65	45	32	61	44	9	2	7	12	14	24	44	28	88	83	20	41	67	41	13	10	11	23	20	10	5	8	4	10	28	39	38	33	25	17	19	51	18	76	65	44	59	51	43	35	32	45	26	17	38	27	24	9	51	25	61	81	22	28	27	36	5	36	41	19	10	55	71	56	69	68	72	68	49	38	28	1	18	19	3	11	18	16	6	8	13	14	13	13	14	24	41	41	33	33	38	38	39	58	55	65	62	47	41	24	28	30	72	30	42	66	43	21	9	30	60	65	55	42	31	31	32	44	77	100	91	67	47	21	8	6	1	3	6	10	15	18	27	66	95	103	84	75	46	24	26	37	7	31	22	38	25	62	42	8	24	1	17	15	4	11	6	6	10	4	8	6	6	1	5	10	11	13	20	26	17	9	8	4	7	8	8	7	8	8	8	4	7	10	8	7	6	5	6	14	15	1	4	4	3	2	8	14	18	13	10	39	70	49	37	60	39	11	6	11	4	13	14	11	10	4	6	7	4	8	7	2	1	4	10	14	12	10	12	11	6	8	7	9	12	15	13	13	13	10	7	7	1	8	14	3	4	1	4	5	1	4	10	11	1	20	13	25	78	143	153	46	54	20	44	7	57	66	82	89	43	14	18	3	15	8	6	4	3	5	5	5	4	5	4	5	1	4	4	12	15	16	17	15	13	12	8	3	13	18	13	1	5	4	3	4	5	0	12	13	3	8	9	9	7	3	5	7	4	10	15	8	7	1	5	9	12	11	12	4	5	7	7	5	4	4	3	4	7	7	7	4	4	3	4	2	2	4	6	5	4	5	5	5	10	2	14	17	14	12	13	15	16	14	9	3	0	5	13	15	12	10	11	12	11	8	12	17	8	6	6	4	9	7	11	7	5	3	15	17	14	9	5	7	5	1	3	5	8	11	6	5	7	7	6	8	14	12	7	13	14	7	10	5	2	3	9	5	7	7	4	5	5	3	4	4	7	8	8	12	11	12	8	8	11	11	6	17	11	10	8	3	5	14	17	18	19	11	7	10	10	8	11	8	4	9	9	5	4	3	2	9	4	3	6	4	2	5	6	8	16	18	17	22	23	13	7	3	10	10	9	2	10	21	27	
8	4	7	9	7	5	0	6	5	5	8	7	3	8	12	5	2	2	2	3	5	3	5	5	8	11	7	4	7	5	1	3	3	3	2	7	5	1	4	7	4	2	5	8	5	4	4	3	5	10	6	4	7	5	5	8	5	5	7	7	3	2	2	7	8	10	10	5	4	3	4	3	3	3	10	8	4	33	68	68	52	25	15	14	7	14	11	12	28	67	51	18	25	30	42	44	23	17	17	31	36	15	15	13	10	15	47	63	43	40	59	79	32	40	60	30	18	30	31	46	47	8	52	91	95	70	53	52	31	34	45	22	91	76	14	41	20	22	14	29	51	60	74	45	14	56	62	38	2	52	55	20	4	10	18	14	12	35	53	87	65	19	29	57	43	19	5	0	7	8	12	21	22	19	24	35	31	20	18	18	24	11	34	42	66	33	17	28	14	15	17	18	47	61	38	22	5	8	22	54	14	62	87	39	21	18	45	45	64	65	44	17	48	70	82	89	74	64	52	46	23	14	21	21	11	14	29	40	41	27	13	24	20	14	21	4	29	38	49	49	37	27	21	10	31	48	39	16	11	18	21	27	33	63	14	36	53	55	59	66	75	80	75	58	36	21	22	7	33	40	34	23	8	6	7	7	8	2	3	3	9	12	19	18	3	26	5	39	42	26	35	48	39	34	45	27	65	46	43	47	17	27	15	22	23	6	13	8	15	13	11	8	7	8	9	6	4	4	1	10	8	5	5	4	8	10	5	2	2	5	8	11	2	6	4	2	5	8	7	4	14	14	4	7	9	12	8	7	19	11	9	18	46	51	28	48	57	35	10	8	7	5	7	10	10	8	6	6	7	7	5	6	5	8	12	11	10	5	5	10	5	5	5	2	1	1	5	7	6	7	9	9	6	5	6	12	10	9	9	7	4	4	8	13	20	22	31	22	106	160	156	73	35	51	7	34	54	47	27	41	80	70	10	19	7	10	7	8	8	7	3	4	5	4	5	3	4	2	5	5	16	11	9	12	13	12	12	12	7	7	13	18	14	9	3	4	12	18	18	13	10	4	11	7	8	4	4	4	5	1	5	12	11	2	2	7	6	6	5	5	4	5	3	0	0	6	5	5	7	6	4	5	7	6	2	7	3	4	5	9	8	4	3	4	3	11	8	10	13	11	11	12	12	12	11	10	7	1	5	5	8	12	14	13	13	13	9	13	16	11	7	8	11	8	5	10	3	4	8	2	9	13	9	7	5	4	5	2	7	8	8	8	8	4	5	4	8	4	8	12	15	13	7	10	3	6	7	8	1	10	10	7	5	1	0	4	0	8	8	10	13	4	9	1	4	12	17	4	17	13	5	3	5	7	7	10	14	11	6	7	13	11	7	8	4	7	10	9	3	3	3	3	7	10	8	7	7	4	3	8	8	10	12	7	9	5	4	9	4	7	12	10	11	20	18	24	
11	7	7	3	1	4	5	3	4	5	7	5	7	3	12	10	1	6	5	3	4	4	4	9	9	5	3	5	5	6	3	5	7	7	6	8	9	5	4	4	4	4	7	5	1	4	5	3	4	7	8	4	2	4	4	6	4	6	10	8	1	4	7	10	6	2	2	0	2	2	3	4	2	4	7	12	13	11	11	24	16	7	13	8	6	8	7	11	28	69	54	19	31	24	32	53	34	14	18	45	45	24	22	16	8	21	49	56	19	17	46	77	44	31	62	45	12	26	36	38	58	44	45	79	85	51	40	47	22	22	43	58	82	67	9	48	31	19	22	27	72	43	15	19	25	58	72	60	21	39	55	30	4	10	16	21	13	10	53	67	30	12	28	48	31	18	12	18	20	23	25	17	13	12	9	23	27	31	25	5	17	25	22	29	60	64	61	52	39	35	36	33	15	29	39	30	19	14	20	49	15	68	104	49	31	5	50	33	52	74	70	51	40	57	48	25	8	19	9	16	17	16	48	74	75	52	48	43	48	39	11	26	12	17	29	9	36	35	4	19	16	7	7	10	12	16	18	11	19	15	29	26	35	55	16	22	48	60	64	62	45	24	17	20	21	22	31	22	32	43	18	15	12	4	5	4	9	5	7	3	3	9	19	19	24	24	39	55	32	8	18	32	21	44	61	24	36	57	39	18	21	22	11	17	27	10	9	6	8	5	2	1	5	10	13	15	16	15	13	15	14	8	2	5	11	8	2	4	1	6	10	9	1	4	4	4	4	9	5	7	10	8	7	15	26	36	37	21	15	13	10	24	27	31	50	55	43	15	15	18	8	7	6	5	10	8	9	11	12	13	14	12	11	13	12	7	4	4	3	8	7	5	2	3	3	2	3	6	2	4	2	4	5	8	11	12	8	2	4	2	2	5	3	3	13	25	8	93	155	106	21	45	56	7	22	17	14	8	13	24	60	71	25	10	5	2	10	9	6	7	7	4	5	5	5	4	5	2	5	8	15	7	6	4	6	14	12	5	9	9	3	9	11	4	3	11	17	20	22	15	5	5	11	5	7	11	7	7	7	0	2	4	11	10	5	7	11	9	8	9	8	1	6	7	6	7	1	7	4	2	5	4	12	7	7	5	2	5	6	5	7	8	7	4	5	11	8	2	7	5	2	4	6	4	4	7	10	9	5	6	5	8	11	11	9	9	12	16	17	12	10	8	6	7	12	11	4	5	7	11	7	4	6	6	2	5	10	8	8	4	3	8	12	7	11	15	17	16	11	10	10	13	13	10	5	4	5	8	6	8	7	4	8	7	6	7	7	11	3	8	18	15	10	4	4	8	16	7	10	13	11	4	8	11	8	8	6	4	7	13	15	10	4	4	3	4	11	9	2	4	1	7	2	11	13	7	4	7	7	9	8	0	11	10	4	2	5	5	6	7	7	10	13	14	8	18	
10	2	8	8	6	6	5	2	4	2	7	2	6	3	8	11	4	8	5	5	0	5	3	8	8	7	7	4	2	5	4	0	3	4	4	5	9	8	4	1	1	2	5	4	0	4	7	4	3	2	5	7	2	3	3	1	6	10	11	7	4	3	5	8	7	7	4	2	4	4	6	3	4	8	5	17	22	13	17	14	5	8	16	4	10	7	8	14	23	78	63	11	19	36	42	49	36	20	26	56	45	15	4	15	26	18	53	76	44	34	71	82	39	31	63	44	22	42	29	4	33	37	25	43	70	74	48	33	25	27	37	38	46	47	11	29	36	24	17	7	54	57	27	8	12	42	70	69	25	36	46	27	14	10	2	12	17	28	55	41	5	11	35	48	25	22	24	18	11	10	10	8	8	12	19	32	38	29	16	17	22	55	103	130	130	96	48	21	10	17	38	54	52	22	10	13	14	16	6	45	29	66	111	51	50	51	86	102	69	64	81	68	20	31	8	19	20	22	20	18	17	36	53	47	67	60	34	16	43	47	8	25	11	20	29	6	23	38	34	23	12	2	7	18	16	15	29	28	28	2	25	17	38	39	17	4	11	14	7	3	9	7	13	9	8	14	26	28	9	32	37	12	8	11	5	5	4	7	12	10	9	10	11	10	16	17	56	53	26	11	27	43	33	31	50	42	10	20	27	14	8	2	9	10	18	13	1	6	7	4	4	2	1	3	4	8	10	9	8	11	11	8	8	10	11	3	3	5	6	10	10	3	4	6	5	5	4	6	7	8	5	2	4	18	31	31	38	33	15	7	17	22	9	26	41	42	29	11	13	8	19	7	7	3	10	11	12	10	7	8	11	12	13	11	5	3	2	5	2	5	5	3	4	4	4	1	0	8	3	6	4	2	2	4	4	4	4	5	3	4	4	1	5	5	7	14	36	140	123	24	93	93	57	39	29	22	8	4	26	43	55	49	25	15	4	8	5	7	1	3	4	3	5	5	2	6	8	7	6	7	8	8	14	16	13	12	8	4	5	8	11	12	14	11	12	17	15	9	13	14	12	11	11	10	13	9	1	9	5	7	8	6	1	10	9	9	12	12	9	7	8	7	3	2	0	2	5	7	1	2	7	10	12	7	11	8	3	3	8	9	5	8	9	3	4	11	16	15	12	9	6	7	3	5	4	4	7	8	5	7	7	5	8	10	5	2	5	14	21	17	11	8	4	5	15	24	17	7	5	10	17	19	15	9	4	7	6	8	4	1	4	7	12	4	10	13	9	15	18	14	6	1	5	5	6	10	12	12	8	3	11	10	2	7	4	5	2	8	4	8	8	13	9	8	7	7	10	7	7	10	13	8	4	8	5	4	4	2	7	10	10	7	6	4	4	4	13	13	5	5	3	7	4	9	13	11	1	7	11	11	2	8	6	10	6	4	2	2	0	1	4	5	0	8	9	1	
11	11	5	5	0	0	6	4	4	0	5	2	1	6	5	7	5	5	7	2	6	4	2	5	7	4	4	2	2	5	5	4	4	1	0	2	5	5	4	1	0	1	4	3	1	5	7	3	1	2	5	7	4	4	5	7	8	7	4	3	5	7	8	8	4	3	3	4	4	4	7	4	8	5	2	15	25	18	4	4	7	15	15	6	14	9	9	18	14	78	74	6	9	21	24	36	30	18	25	60	40	21	22	18	25	10	44	92	69	32	102	84	24	37	64	36	12	33	15	16	29	26	18	22	21	38	26	17	28	15	8	7	28	37	19	6	21	19	5	25	66	61	26	2	18	27	74	71	15	33	33	22	18	16	12	2	22	37	50	33	8	8	36	38	12	19	23	7	17	24	29	25	16	18	21	16	14	10	4	8	46	87	110	106	110	102	45	18	21	21	25	11	35	28	3	8	9	14	5	38	43	40	104	103	99	100	108	125	98	69	76	63	10	30	25	24	12	18	15	18	15	26	50	52	36	23	8	20	48	44	7	24	12	18	20	12	18	12	18	26	21	15	14	18	19	12	28	30	12	24	30	16	32	26	14	13	10	12	9	15	10	2	3	10	17	13	16	28	52	85	99	58	10	15	29	35	29	23	33	28	18	17	26	35	24	37	54	29	26	32	12	42	58	56	44	30	20	4	18	25	14	9	11	16	16	11	6	2	1	7	10	5	2	4	4	3	0	3	7	11	8	1	9	12	10	4	4	5	8	4	7	9	6	4	4	3	4	5	8	5	0	2	2	17	32	25	19	20	7	4	17	27	26	31	31	22	15	18	24	20	18	4	9	6	4	10	11	8	7	6	7	8	11	7	5	4	4	7	5	8	11	11	10	5	5	3	2	5	5	7	7	4	3	3	1	4	7	7	2	4	1	2	2	6	6	14	43	135	94	89	98	71	66	75	82	67	44	46	64	57	41	19	15	19	11	6	5	8	5	7	1	7	5	6	7	1	10	11	4	3	2	5	10	11	12	3	7	8	7	11	18	21	16	10	10	10	8	7	7	5	5	11	11	9	5	2	5	6	3	8	8	8	7	2	5	1	3	5	4	4	7	8	11	10	6	6	11	9	5	9	10	7	5	4	6	6	3	3	4	10	11	13	10	4	3	9	19	23	18	13	12	15	7	4	5	2	2	8	2	8	6	3	2	6	6	1	3	5	17	19	10	9	9	10	15	22	29	21	17	18	22	22	16	10	8	13	4	6	5	8	10	8	11	7	12	18	10	2	4	4	4	4	4	4	4	4	2	6	9	5	5	12	5	3	5	8	9	14	11	7	0	4	5	7	13	16	8	1	4	5	11	14	11	10	4	2	4	1	7	8	8	6	2	4	5	4	8	12	7	5	4	5	3	4	12	15	6	5	12	12	5	7	4	15	15	9	5	5	7	8	6	3	5	4	10	10	
4	10	10	8	6	6	5	2	3	2	4	1	4	5	4	3	8	3	9	7	1	1	1	4	7	2	3	5	5	5	5	3	3	2	1	5	7	3	3	3	0	3	4	1	3	7	7	3	4	2	6	5	7	7	6	7	5	3	1	1	3	5	8	9	9	4	3	4	3	4	3	7	8	4	2	10	21	24	18	12	14	16	10	5	16	15	2	19	4	69	87	18	15	7	12	36	28	12	34	66	34	7	5	7	14	14	29	91	83	23	103	89	31	32	67	42	14	35	13	11	35	31	41	35	23	42	24	22	23	17	27	21	33	35	17	3	11	13	20	56	88	60	45	22	19	48	82	61	15	33	33	19	6	4	14	14	29	44	52	49	30	6	35	39	13	13	19	19	20	17	21	23	17	13	15	12	28	25	28	44	62	100	88	15	81	122	64	18	22	26	53	44	34	20	7	8	10	9	7	32	35	11	37	39	56	67	50	76	52	31	64	48	11	38	31	18	1	11	7	10	5	18	47	70	78	60	35	31	42	27	4	18	10	13	9	11	10	4	6	11	18	21	22	18	13	7	1	5	19	34	23	23	42	39	26	17	7	7	12	9	9	11	13	13	12	19	8	50	135	145	163	143	43	47	121	143	146	110	45	7	13	7	14	43	60	40	44	31	18	33	23	14	27	37	34	17	10	14	21	17	6	4	8	16	19	13	2	1	5	11	10	8	5	2	4	2	5	5	7	8	4	8	5	4	7	7	9	7	1	5	8	8	4	1	1	7	10	6	4	4	4	3	2	8	25	36	36	27	17	13	16	25	26	24	20	6	5	8	17	18	6	4	5	7	6	5	6	7	5	6	5	7	7	4	9	4	7	8	3	6	8	4	7	10	11	10	8	5	4	3	7	4	5	2	0	2	2	6	5	4	1	2	7	5	0	7	24	101	105	100	70	45	53	66	69	68	63	74	75	49	25	10	3	14	13	2	9	12	8	8	6	7	10	4	9	7	7	10	5	7	7	4	10	7	7	11	4	3	4	11	12	8	5	0	5	7	8	11	11	9	8	8	4	3	3	3	4	4	2	6	4	5	10	4	8	6	3	3	6	7	7	5	7	7	7	2	8	1	11	10	1	5	4	7	8	10	5	1	3	6	8	4	5	3	4	11	14	17	17	11	14	23	21	13	13	9	3	11	4	11	8	1	3	8	7	3	5	6	6	15	10	13	17	15	15	11	21	22	18	15	13	11	12	6	4	8	8	8	7	8	8	7	8	9	5	18	18	10	8	6	1	4	7	7	6	8	11	9	5	5	3	9	8	5	3	11	6	5	4	1	6	7	4	4	12	10	10	2	3	4	7	14	18	15	9	5	4	2	5	9	11	12	11	10	12	14	12	14	8	0	6	7	5	3	11	17	7	8	13	7	1	2	8	21	17	13	7	3	4	3	4	7	4	7	5	1	
0	3	2	1	0	1	2	2	1	6	5	6	7	4	6	2	7	9	5	11	9	10	8	4	8	4	4	2	4	7	5	4	2	2	4	7	5	4	1	4	0	3	4	2	4	8	7	1	5	2	3	5	4	3	1	4	1	0	0	0	0	3	5	8	11	7	3	4	0	4	2	7	5	4	4	4	10	16	15	11	9	12	9	3	13	19	7	18	12	50	89	50	12	14	17	47	31	7	42	69	29	22	11	4	8	7	29	84	62	59	91	70	36	15	60	59	15	34	24	17	27	15	27	45	54	52	19	36	11	22	15	25	45	38	10	15	27	30	34	56	62	32	56	27	11	47	62	42	7	28	39	32	25	26	25	21	25	42	51	53	46	24	29	48	28	20	10	5	8	8	9	10	14	6	15	26	54	63	86	97	73	48	83	82	107	125	58	7	24	26	38	43	17	4	12	9	13	11	15	28	17	28	35	22	36	40	20	80	47	31	57	26	21	44	28	7	9	7	6	4	17	24	22	26	32	39	25	28	32	10	8	8	10	8	1	6	4	9	9	7	4	7	10	14	12	3	2	5	22	37	23	4	22	33	24	11	10	4	13	29	28	38	25	6	24	5	77	148	190	161	172	231	112	125	212	192	212	228	179	114	80	82	147	214	213	146	40	18	27	25	21	21	13	8	5	16	23	32	43	41	29	14	14	23	13	12	8	2	8	10	3	11	6	3	3	4	6	3	5	15	20	13	6	13	17	6	7	7	2	6	4	4	4	1	4	11	7	3	2	2	5	6	5	4	7	10	12	11	9	8	6	6	2	12	10	1	5	2	2	6	9	7	6	4	9	8	6	8	2	5	6	5	6	4	10	5	7	6	4	8	13	12	7	7	12	12	11	8	7	5	11	6	4	3	1	5	9	6	3	5	5	6	7	4	5	5	10	48	59	59	38	28	30	30	32	41	48	58	42	27	23	19	14	15	15	10	8	6	3	7	6	5	11	2	5	4	2	5	7	8	9	10	9	8	2	9	10	9	9	15	18	8	8	6	7	7	8	8	7	5	5	8	8	7	5	4	1	5	4	5	10	1	8	6	7	1	4	3	2	8	8	7	7	4	7	2	8	9	8	7	5	4	3	3	4	7	5	5	8	5	7	4	8	4	4	12	12	6	14	9	13	20	29	27	23	19	13	12	5	12	11	2	8	12	11	9	9	8	5	8	6	10	12	13	8	2	10	7	0	2	1	11	17	15	12	4	9	15	18	21	13	9	10	13	4	11	18	15	12	8	7	4	3	4	2	4	5	3	2	6	3	7	6	7	8	15	16	16	16	14	10	6	5	8	6	4	12	4	4	3	3	7	10	8	8	6	5	6	9	12	15	19	18	14	13	15	16	16	9	7	5	3	6	7	13	16	6	12	12	4	4	2	13	22	10	11	13	7	11	7	3	8	1	7	5	5	
7	5	4	3	0	3	4	5	3	7	6	6	6	3	5	10	10	8	3	8	10	8	8	4	8	8	10	9	4	3	3	4	4	4	2	5	6	4	2	3	2	2	3	5	3	8	8	4	3	6	5	4	5	4	1	4	2	1	2	1	1	4	6	7	8	8	8	7	5	5	4	7	4	1	4	5	8	11	10	5	2	8	10	6	8	14	11	11	14	24	66	70	47	27	26	59	36	20	54	84	35	17	15	6	11	14	35	79	43	66	78	51	23	5	38	55	29	26	33	13	16	16	19	53	76	39	41	57	32	41	24	23	47	42	5	28	29	20	14	36	48	58	54	24	11	41	52	48	18	26	46	40	25	18	7	14	22	21	28	35	40	28	24	57	37	31	40	37	27	22	24	22	23	17	22	31	85	93	96	57	42	56	104	130	117	82	26	16	29	42	7	33	19	8	5	4	14	12	21	30	5	21	18	12	37	41	22	69	43	31	51	19	31	48	23	6	5	3	8	3	23	28	11	5	10	31	16	24	21	9	12	4	6	8	6	4	6	5	2	4	3	0	8	14	13	11	8	13	28	44	25	16	14	32	33	8	17	44	60	72	74	95	110	87	46	55	155	179	162	125	117	255	179	174	205	91	95	172	196	148	113	151	241	258	232	222	116	26	25	10	14	31	14	6	18	28	27	25	28	27	37	31	22	31	40	18	11	16	12	8	10	14	4	5	1	6	2	6	8	6	4	15	25	25	31	27	23	17	8	8	13	8	2	4	7	9	6	14	13	8	2	7	10	7	5	4	3	3	0	0	6	13	10	15	11	9	11	10	11	10	11	7	4	1	12	13	8	12	10	10	8	6	3	0	8	10	7	1	4	6	10	16	13	6	5	4	8	11	9	1	13	7	5	5	4	7	6	5	2	5	5	3	3	1	3	6	11	17	11	12	11	20	24	20	22	27	28	18	7	8	8	21	16	20	17	9	4	3	11	8	1	5	7	3	4	1	0	1	1	1	3	7	9	4	1	2	4	3	3	10	19	18	12	5	4	3	4	4	4	4	5	7	4	3	1	5	7	7	11	3	9	4	5	1	2	5	3	3	6	8	11	8	10	7	2	5	3	2	2	2	4	2	3	1	2	7	2	5	8	2	10	4	5	7	7	11	12	4	8	7	10	8	17	15	10	14	17	17	10	13	12	11	15	14	9	8	11	12	10	5	2	5	8	6	5	10	14	11	8	5	8	17	20	14	5	13	11	6	7	12	13	11	10	13	9	5	10	12	13	10	8	8	4	4	1	5	3	7	2	9	1	11	11	8	4	7	13	16	17	17	12	9	15	10	5	4	13	8	9	8	8	7	2	5	4	7	8	8	7	7	10	12	13	8	5	6	9	8	5	10	7	5	11	15	22	22	4	10	6	5	7	4	17	20	8	12	13	6	8	11	3	6	3	7	4	5	
10	7	6	10	12	10	6	5	6	5	7	3	1	0	4	7	7	4	2	2	0	4	6	2	7	8	4	8	8	2	0	0	1	3	5	7	10	1	5	2	7	7	6	3	3	7	7	7	4	4	6	9	7	1	4	4	1	3	2	2	3	4	1	6	5	5	8	6	5	7	4	4	4	3	1	7	11	12	10	4	7	5	4	9	8	6	7	7	8	7	29	53	66	45	16	58	56	36	31	88	50	14	18	5	18	25	33	80	41	48	70	36	5	14	21	36	34	15	34	16	7	10	12	56	81	28	56	58	18	41	42	20	37	47	11	31	36	13	5	23	16	19	14	18	15	21	42	56	33	22	51	53	36	9	25	32	40	39	30	36	45	31	25	61	55	28	6	18	23	26	29	33	39	35	39	30	121	106	31	64	90	71	65	70	48	8	22	17	34	48	5	39	22	1	11	7	17	14	23	36	16	28	21	10	32	26	23	46	34	18	43	18	33	48	17	15	11	2	7	6	21	29	12	2	18	34	18	27	28	17	11	11	9	4	13	7	10	8	4	3	3	5	13	13	7	12	4	14	20	49	25	6	7	31	38	12	55	85	112	118	113	120	134	154	126	115	182	145	90	63	34	187	181	169	127	24	37	44	116	98	80	164	200	119	113	204	146	72	20	36	41	64	47	26	17	26	17	6	17	25	4	26	12	50	103	113	51	15	21	7	14	10	8	11	10	11	8	5	13	13	10	8	25	18	8	14	18	19	17	15	15	17	3	11	15	9	11	13	6	11	6	4	4	7	10	4	2	4	2	3	9	17	8	18	17	15	12	10	11	12	13	8	7	2	15	13	3	10	19	18	10	5	2	2	1	5	4	3	3	2	4	14	11	10	8	5	10	14	5	5	8	6	9	6	7	11	2	7	5	5	3	4	7	8	9	11	13	11	6	6	8	15	7	20	36	57	85	109	105	79	80	100	84	62	22	9	5	11	26	26	23	11	5	6	6	7	7	4	3	0	6	7	4	4	2	1	1	4	3	1	8	16	13	8	4	1	1	2	0	3	5	5	1	1	5	9	8	3	10	10	4	5	8	7	5	4	4	5	5	4	10	8	3	5	3	3	5	3	0	0	1	3	2	4	5	7	4	1	4	12	12	5	6	8	6	8	13	8	4	5	5	8	4	8	4	4	8	12	12	13	12	14	13	7	1	4	4	6	8	8	9	13	17	16	12	10	10	5	8	11	11	15	16	6	11	15	6	8	13	10	5	3	9	12	11	9	6	3	9	9	5	9	6	7	7	9	3	5	7	6	4	13	7	7	9	5	0	2	9	6	12	18	20	6	6	8	16	15	5	7	11	13	11	6	3	3	2	1	4	4	5	3	7	4	0	3	4	1	7	8	8	9	12	7	18	26	7	9	11	5	5	6	14	16	14	12	4	8	3	8	7	5	7	7	7	4	
8	7	5	7	8	6	3	4	7	7	5	3	2	0	5	4	3	1	0	3	5	5	0	4	3	7	5	7	10	4	4	4	4	5	8	9	15	10	4	3	10	7	4	3	7	7	3	7	7	8	7	5	4	5	4	1	0	3	2	0	5	9	7	4	4	2	0	2	1	4	4	2	2	4	5	2	10	14	8	7	11	9	6	4	2	1	2	2	2	7	19	40	58	55	35	11	76	127	124	85	36	16	15	8	31	36	26	79	71	32	93	67	3	32	31	21	20	16	29	22	7	4	4	50	82	38	40	59	31	7	25	17	26	45	21	21	43	27	27	37	22	21	17	1	9	11	43	58	37	8	41	58	48	23	27	22	19	18	14	33	41	21	12	45	55	41	25	6	19	37	45	58	61	54	55	29	137	91	58	99	64	40	22	2	23	19	7	27	50	49	18	48	21	9	10	5	15	9	36	40	18	29	30	5	29	14	18	29	26	7	39	25	28	54	30	20	29	15	6	12	13	24	17	4	25	34	14	15	22	3	5	5	16	17	18	7	12	11	10	5	6	14	20	20	14	10	4	16	29	80	66	48	26	29	30	44	88	94	88	91	86	61	55	113	167	172	179	134	64	10	33	83	112	134	53	52	65	58	74	63	96	157	105	33	106	181	133	85	35	50	43	65	76	52	25	25	14	19	14	35	37	40	12	127	158	194	160	42	18	5	18	26	24	17	10	11	17	14	16	28	81	145	174	155	107	95	87	56	26	17	9	18	2	15	10	5	17	27	30	29	19	9	1	8	10	4	1	6	8	5	10	22	12	12	14	11	9	8	8	9	11	8	10	7	13	8	5	9	11	12	11	8	5	0	4	3	5	3	3	5	5	9	5	4	3	0	11	15	4	15	10	9	7	4	6	11	5	5	7	5	17	29	27	15	0	5	7	7	4	1	14	44	78	116	148	171	182	177	161	138	143	132	119	97	42	22	12	22	47	45	54	42	21	14	16	19	18	14	8	7	8	7	2	4	3	2	1	6	2	4	4	4	11	13	5	2	3	3	4	4	5	5	2	2	8	9	2	4	2	8	10	7	3	5	5	7	7	7	2	2	5	8	12	7	1	3	5	3	3	4	3	4	3	8	10	4	1	0	6	13	10	8	11	8	2	5	13	13	1	9	5	10	2	5	7	5	5	2	10	11	9	10	7	2	2	3	4	6	5	4	7	11	10	11	9	8	9	5	5	7	6	10	16	4	14	12	6	7	5	4	1	2	8	14	15	14	11	10	7	5	5	11	5	10	10	15	14	7	7	4	7	9	2	4	5	8	9	13	18	11	7	22	28	17	4	4	14	17	11	4	11	15	13	9	7	4	3	1	6	5	9	11	8	5	4	5	5	8	11	10	11	11	9	4	19	26	13	12	17	16	7	2	7	8	11	11	8	5	2	5	11	5	6	6	2	5	
5	7	7	4	2	3	3	7	8	8	7	5	5	6	4	2	4	4	4	5	7	3	8	7	4	5	4	6	10	4	0	0	0	3	7	6	12	10	6	5	6	8	4	6	7	3	2	4	8	12	15	16	14	8	2	0	0	1	3	4	7	0	5	2	3	1	4	2	1	4	7	7	5	4	4	4	10	12	4	7	5	7	11	5	2	0	2	1	3	6	13	35	50	35	35	44	57	83	112	74	10	13	5	19	46	32	27	69	93	35	73	89	16	45	34	18	13	7	23	19	3	1	2	38	69	43	22	36	32	36	34	19	25	42	29	9	51	51	48	52	44	36	25	18	3	26	52	49	26	9	31	47	36	13	15	16	22	7	6	27	37	22	21	40	54	57	65	77	70	45	34	53	47	64	72	26	127	95	106	94	48	34	17	4	21	26	21	49	55	43	28	59	24	16	7	13	9	18	38	24	5	29	36	14	31	18	8	25	26	5	35	30	8	51	58	22	24	28	15	3	7	18	18	7	34	31	8	16	27	16	14	9	14	20	14	10	26	24	17	15	28	51	82	100	88	51	24	15	70	107	60	51	47	39	8	69	96	64	32	40	28	23	28	39	125	163	152	116	61	50	44	25	31	47	60	95	59	69	48	14	117	120	25	37	100	155	106	71	43	35	53	4	41	52	30	15	5	18	18	5	32	37	53	169	129	140	213	138	51	12	49	65	44	9	27	36	22	21	72	126	195	246	254	253	209	210	220	200	143	91	43	13	10	17	74	99	76	44	38	44	43	27	13	11	5	3	7	8	15	17	7	21	15	2	8	7	5	4	5	5	2	5	3	8	8	1	7	13	10	2	8	10	7	3	1	1	4	11	15	13	6	5	5	4	2	3	9	12	38	72	76	62	19	9	10	11	4	7	3	28	63	70	59	42	14	11	17	10	8	20	76	142	185	191	168	120	65	30	56	61	80	41	114	88	33	26	13	28	49	31	41	56	36	14	14	12	11	16	10	7	7	4	1	4	3	4	6	5	1	3	9	10	8	11	7	5	5	5	1	4	7	8	6	4	11	12	7	7	4	4	7	11	15	18	17	15	11	5	0	3	4	2	3	7	3	2	3	3	4	4	4	6	11	14	8	3	3	2	7	15	7	9	15	7	0	2	13	18	5	14	2	12	5	4	5	7	0	5	5	7	1	3	4	7	8	8	9	10	10	5	7	7	2	5	7	7	2	5	7	5	3	9	16	5	13	12	3	8	12	14	11	5	2	5	7	7	5	5	6	5	5	11	6	11	12	1	12	18	7	11	11	7	4	4	1	7	14	12	21	18	6	12	28	28	14	7	9	14	15	10	8	10	11	11	6	0	4	5	8	11	8	13	15	13	12	13	14	10	5	4	9	9	4	7	19	21	14	5	5	13	13	7	4	6	7	6	8	11	12	12	16	14	4	1	5	7	
3	1	4	6	7	2	5	7	6	5	4	4	5	7	8	8	7	6	7	8	11	8	9	5	5	8	7	8	10	5	3	2	3	5	8	4	7	14	11	3	1	7	7	5	6	2	3	0	2	5	4	8	10	10	5	2	3	3	4	3	8	5	1	3	1	6	3	4	3	2	1	4	7	6	2	4	10	8	5	5	3	5	12	7	1	2	0	2	4	2	17	39	82	98	119	98	54	54	38	60	28	22	44	58	72	27	25	51	87	66	50	78	32	31	52	24	7	17	20	15	4	3	15	48	54	18	36	33	6	17	24	17	31	40	32	17	57	48	45	45	43	56	32	25	28	37	37	30	20	13	35	42	24	7	17	22	23	4	4	21	29	16	6	30	61	74	71	69	55	38	14	40	15	75	74	13	89	108	114	82	48	28	12	8	17	24	16	50	46	24	26	61	26	15	12	12	9	20	38	18	14	28	35	13	29	29	7	29	32	6	31	27	8	30	63	43	14	17	22	19	13	20	17	17	40	24	5	29	33	10	18	12	7	7	1	22	34	24	19	30	42	65	102	128	131	99	54	54	93	63	22	29	35	60	15	82	70	10	43	74	72	67	68	119	98	56	33	56	15	49	70	26	46	42	109	108	39	37	43	53	122	74	46	79	102	128	89	61	50	20	57	42	21	38	29	21	24	9	19	37	36	11	64	166	167	20	137	188	148	46	96	85	102	53	35	21	42	114	152	164	181	155	101	154	133	154	178	217	212	164	72	5	21	106	195	218	220	210	225	231	199	132	50	12	11	11	12	12	11	18	8	11	18	10	3	5	4	1	2	1	5	7	5	10	2	4	5	14	16	11	4	11	8	3	0	3	8	13	14	14	10	5	8	7	4	7	7	18	89	139	140	140	73	17	15	11	6	16	13	66	85	68	69	64	37	43	56	58	53	83	166	192	171	124	58	29	64	85	88	71	82	98	126	68	22	27	12	25	35	41	11	39	53	30	10	12	21	19	11	10	14	10	4	4	7	5	6	5	5	10	10	9	7	5	2	4	6	9	9	6	4	10	6	4	4	9	9	5	4	5	1	7	15	13	7	4	5	6	5	4	6	4	5	5	4	1	2	5	4	1	2	7	10	5	1	5	2	3	6	15	8	9	16	6	0	4	15	18	3	14	8	13	4	3	0	7	6	4	4	5	2	4	5	7	10	8	4	2	7	5	7	3	3	3	0	1	5	10	10	8	4	10	15	7	11	17	8	7	6	8	11	8	4	3	1	4	5	2	3	5	4	9	11	11	20	17	5	20	10	11	15	9	2	5	7	8	8	4	18	21	17	12	11	24	17	4	5	13	16	14	3	7	11	11	8	8	9	4	9	13	11	7	7	9	11	12	12	8	2	5	10	10	7	11	16	16	13	7	4	9	12	7	3	7	6	4	1	7	7	8	14	17	14	6	4	7	
5	4	5	1	8	7	3	6	1	3	4	6	5	4	4	3	1	3	5	7	11	7	7	5	7	8	4	7	9	10	8	5	4	5	8	7	4	15	12	3	2	1	2	3	1	5	4	1	1	5	8	5	0	7	8	6	4	4	7	2	5	7	5	2	3	7	3	4	5	7	7	4	2	4	4	5	7	7	7	3	1	3	11	8	1	1	5	6	8	8	23	47	165	210	239	242	183	81	32	45	4	48	67	83	123	63	15	41	64	49	53	61	24	13	36	30	13	16	23	19	10	8	26	56	39	13	24	4	13	14	13	10	24	38	38	13	45	38	53	64	12	44	29	28	44	35	24	25	22	4	34	39	15	15	22	19	8	7	7	34	32	23	25	40	76	88	87	78	52	50	18	41	59	75	48	7	24	41	49	33	15	7	1	0	22	27	21	48	41	27	26	58	43	44	64	58	36	28	42	36	13	20	41	19	18	36	17	31	39	8	35	27	7	26	49	32	14	4	11	26	26	25	12	29	43	15	18	36	18	20	29	12	10	18	15	21	38	22	19	49	56	74	85	28	75	91	66	108	85	15	48	36	6	53	25	70	76	38	23	34	48	89	91	180	153	41	79	117	111	79	74	57	55	65	112	82	16	0	21	69	128	90	114	116	95	96	86	68	44	8	36	28	26	56	54	36	29	28	38	48	76	43	31	111	159	110	1	113	188	148	170	151	194	172	84	46	144	196	161	115	99	68	76	93	15	46	7	50	136	211	126	25	113	204	217	155	171	200	231	241	237	219	109	5	11	11	13	9	4	11	9	4	12	15	3	3	4	4	0	1	4	7	4	10	4	6	5	11	16	18	14	12	7	2	3	5	12	12	3	12	8	8	9	8	10	16	8	39	110	115	43	126	97	31	16	7	15	16	32	82	61	7	47	53	30	41	59	76	109	144	175	120	35	32	56	70	60	55	72	89	116	118	84	32	15	18	10	14	15	35	41	16	65	82	56	34	6	41	71	56	17	9	14	3	8	10	5	3	7	12	10	10	8	5	4	4	4	1	10	7	4	8	4	4	4	4	3	2	4	4	3	6	6	4	8	7	3	2	9	7	7	6	3	2	4	1	3	8	11	10	5	5	2	3	3	1	7	9	9	14	12	7	14	7	1	7	14	12	7	7	7	6	8	3	4	8	8	4	4	5	1	7	5	4	2	6	5	8	4	1	2	3	5	7	7	4	6	8	0	8	7	9	12	9	10	17	7	3	5	8	15	19	14	9	8	8	10	7	11	8	5	8	15	6	8	15	6	14	18	17	18	11	7	11	5	1	4	4	9	17	21	24	17	12	15	10	2	15	16	12	9	11	10	8	11	9	3	8	16	10	6	10	5	4	4	4	4	7	8	4	7	8	12	8	11	12	14	11	2	7	11	7	8	7	5	6	1	5	10	11	9	8	10	10	4	7	
5	1	5	6	3	8	3	7	4	3	6	2	9	7	2	1	1	4	7	1	7	3	5	5	6	4	2	5	8	10	11	7	3	6	7	7	1	12	13	5	2	4	4	4	4	4	4	5	6	4	2	7	4	5	10	7	4	9	8	3	4	7	11	3	3	4	5	0	3	4	5	8	5	3	6	6	1	5	5	6	2	1	8	8	5	1	7	4	9	7	20	50	192	216	96	74	131	154	127	54	17	52	63	40	134	110	18	38	55	60	68	51	22	20	29	20	8	11	31	22	5	6	22	64	52	10	25	37	22	5	6	8	13	29	40	17	42	44	48	49	40	35	24	25	39	37	30	31	25	14	37	50	16	24	22	4	6	3	32	49	33	24	23	30	72	54	57	83	61	31	18	40	55	46	27	7	8	13	22	14	8	7	11	10	33	19	35	47	27	19	11	55	66	43	38	44	38	28	28	35	32	5	41	25	28	40	11	40	44	14	45	33	5	38	51	29	12	7	3	24	36	32	6	35	46	15	28	40	5	30	23	11	22	7	18	8	31	41	64	117	119	83	45	54	79	48	61	107	70	77	31	13	23	33	33	39	58	27	18	39	5	99	61	187	174	44	80	81	120	125	94	68	58	75	96	58	38	5	34	52	103	99	120	85	52	66	85	74	29	29	36	10	29	52	30	10	13	32	75	35	76	61	68	114	120	76	60	36	80	178	219	188	223	280	213	100	197	171	86	49	34	56	128	120	90	78	82	74	69	230	160	91	207	200	110	24	25	52	52	45	122	235	175	32	26	12	4	2	8	5	4	10	11	12	4	0	4	7	7	4	3	7	10	7	2	4	6	3	7	14	13	7	2	4	4	5	14	14	3	9	7	7	5	8	7	23	11	60	99	90	85	100	72	30	10	4	13	19	44	63	48	43	48	40	14	36	65	62	86	103	89	57	64	79	79	65	52	57	52	42	50	54	36	12	13	11	2	8	10	19	44	57	32	53	84	55	70	140	152	144	90	28	6	13	5	8	11	5	8	11	5	7	5	4	4	4	5	7	10	3	4	5	4	4	3	4	2	1	5	4	3	5	7	7	8	8	11	10	8	7	4	7	7	5	5	3	5	17	14	19	12	6	5	6	5	4	7	7	11	14	14	10	8	7	4	7	8	11	10	6	7	13	13	8	6	8	6	3	7	7	5	6	2	9	10	7	10	6	5	1	1	2	6	7	8	8	1	8	4	4	10	14	15	13	8	9	8	7	10	9	2	14	19	17	15	15	17	7	7	12	11	12	17	11	13	17	12	10	13	17	21	15	15	16	8	8	8	7	2	6	11	14	13	7	9	14	2	15	15	10	9	5	5	7	13	8	2	11	14	4	7	11	8	7	4	4	3	2	7	4	6	8	7	4	5	8	16	21	13	0	12	16	11	2	7	3	3	6	13	16	9	2	6	11	7	3	
8	4	4	7	4	10	3	8	8	8	13	11	9	6	0	2	3	3	8	5	3	3	4	0	3	3	1	6	7	7	8	5	5	9	5	5	6	7	12	10	4	2	3	4	4	4	5	7	8	10	10	8	5	5	10	8	9	12	8	5	2	4	12	11	6	5	8	5	4	3	0	5	7	7	4	4	4	3	7	7	2	1	6	5	5	2	6	6	4	3	11	28	143	257	263	166	87	78	121	94	30	70	74	17	96	119	106	71	5	40	43	24	16	31	42	32	20	13	39	25	14	7	5	44	61	34	26	21	18	10	14	21	28	41	50	33	42	68	61	25	2	18	26	21	27	48	58	45	27	17	36	61	18	31	17	10	11	22	39	31	7	6	10	33	76	45	18	27	26	9	22	27	16	20	22	10	23	15	26	17	3	13	17	26	41	4	49	48	25	18	9	41	78	72	55	49	31	22	15	25	38	5	36	14	37	38	17	45	41	13	47	31	24	52	53	28	22	18	16	26	41	36	7	36	50	19	37	52	21	43	31	6	22	14	7	14	36	72	91	123	92	64	32	46	54	23	67	67	43	87	36	8	20	21	16	40	42	15	39	29	44	108	21	194	174	40	89	41	68	94	86	49	49	67	86	47	53	18	48	44	64	60	80	59	54	66	70	70	11	49	31	11	26	38	44	29	15	15	81	51	51	54	131	161	114	23	68	104	92	108	110	68	68	191	241	108	174	98	8	22	17	73	109	75	96	96	76	70	38	202	155	139	235	114	4	38	29	58	88	81	83	180	197	97	8	21	11	8	11	6	6	7	8	5	6	7	8	9	10	8	0	7	11	11	6	6	10	13	11	8	8	10	10	11	8	4	11	13	9	3	3	1	6	10	7	14	65	129	106	16	73	73	38	21	11	6	8	24	31	27	36	39	38	33	12	42	74	64	38	32	53	69	63	61	63	57	59	60	34	16	35	21	22	20	9	11	7	10	11	13	31	72	87	71	57	46	122	147	98	142	147	100	43	7	16	4	8	7	11	12	3	4	4	3	4	4	3	3	6	1	4	3	6	2	6	2	7	6	8	4	2	5	5	4	10	11	12	13	7	4	1	4	7	8	9	7	12	20	11	12	14	7	8	10	8	3	4	7	10	8	5	4	1	5	8	7	8	10	10	13	18	18	13	14	15	18	13	9	9	8	7	8	8	4	6	1	7	6	8	5	6	5	9	6	4	10	3	7	5	3	8	15	18	14	8	10	14	14	17	21	18	11	4	4	4	13	18	13	4	3	8	14	20	13	15	18	12	8	5	15	21	18	22	21	15	13	11	10	8	4	1	7	8	7	7	11	4	12	10	9	8	3	5	11	15	5	6	9	9	6	5	10	8	8	5	5	5	7	10	11	7	4	5	8	8	8	10	18	21	14	7	10	10	9	7	2	3	13	12	3	9	6	8	10	8	9	
10	7	7	4	5	8	2	9	11	7	10	10	5	2	2	2	4	2	7	4	4	3	1	2	3	2	5	2	2	6	7	4	7	10	5	8	9	6	12	11	1	1	2	1	3	5	6	4	2	5	10	10	5	5	7	4	5	8	4	7	0	3	5	10	4	1	4	5	4	3	1	2	1	2	1	3	3	2	7	8	5	5	7	4	2	4	2	6	3	2	1	8	48	133	216	194	126	129	148	126	61	92	88	41	75	138	203	213	160	83	41	23	8	14	41	51	40	7	36	42	26	13	11	28	53	49	25	41	36	27	5	40	34	35	41	20	25	73	79	33	18	25	22	11	27	72	74	33	17	9	40	62	17	33	8	26	22	44	42	22	12	9	9	28	74	57	19	22	19	6	18	11	12	21	27	14	32	7	30	22	10	11	5	33	44	5	54	47	15	5	16	30	44	50	54	50	36	30	32	27	27	6	31	3	40	27	18	45	53	32	34	22	25	45	43	21	8	12	15	31	45	33	18	32	47	16	41	59	15	38	37	10	17	20	2	24	39	35	36	68	73	56	61	45	28	22	66	89	68	74	41	12	4	13	11	45	36	8	29	37	68	109	34	198	178	38	100	54	38	32	52	44	40	50	48	25	55	34	68	62	71	38	58	49	67	69	41	47	30	41	25	16	10	32	47	42	49	76	90	50	38	63	129	87	16	74	81	62	154	151	78	102	120	107	153	96	127	67	14	34	34	102	124	49	35	65	65	73	18	162	127	129	190	76	44	39	42	58	81	92	80	88	156	154	56	8	12	5	8	4	10	8	4	4	10	9	8	8	9	14	9	14	8	8	5	5	9	16	22	23	20	15	11	13	14	8	5	7	9	10	4	2	6	8	3	64	144	163	106	110	75	21	10	14	15	4	12	11	13	24	25	23	24	17	11	36	60	80	72	61	66	68	53	44	53	46	39	33	8	12	38	42	4	19	11	11	5	4	5	9	14	38	68	74	41	56	91	74	31	44	109	136	112	42	8	10	8	8	11	11	1	5	5	4	5	7	7	7	8	3	2	5	8	5	5	2	7	5	10	4	5	6	7	7	12	9	5	8	2	1	1	2	3	4	7	4	13	13	4	8	12	5	8	3	6	7	9	14	17	14	8	2	2	2	7	4	3	6	1	8	10	8	8	10	15	18	17	15	11	7	5	5	2	9	10	7	8	11	12	8	5	7	7	7	10	11	7	8	10	10	9	2	10	17	19	16	18	18	18	19	18	18	16	13	12	12	13	12	6	2	2	8	18	14	12	13	5	8	6	13	17	4	15	20	19	19	16	14	12	11	9	5	3	10	10	4	6	12	3	5	11	8	5	13	12	6	8	8	5	1	1	8	10	10	7	5	7	10	12	5	4	8	12	14	13	10	8	11	17	19	11	4	10	11	7	5	1	13	11	8	13	6	10	13	12	13	
7	5	9	5	6	5	3	6	12	10	3	7	3	0	0	3	4	6	10	5	3	3	4	3	3	1	5	6	4	5	6	2	7	10	0	4	4	3	12	9	3	4	2	3	5	7	1	3	3	4	4	4	7	9	8	4	6	8	1	8	3	4	1	9	5	4	2	1	7	5	4	7	7	4	1	0	1	1	3	7	9	9	4	2	4	5	5	1	3	3	2	4	9	34	105	152	128	127	137	111	71	123	141	107	104	111	126	160	196	165	124	64	23	12	25	51	42	16	19	38	41	37	12	42	56	31	28	57	43	48	29	42	30	29	33	5	34	62	78	40	21	19	17	21	47	94	68	6	7	8	42	48	19	24	6	41	29	56	56	23	10	8	4	26	67	60	22	14	13	6	12	14	14	24	20	11	27	5	32	23	4	8	10	31	40	12	58	40	6	16	19	28	25	13	7	10	9	22	28	22	18	10	28	11	38	22	0	22	41	31	11	24	12	48	63	45	10	5	7	25	45	35	35	34	34	5	35	47	25	22	37	23	16	24	9	22	47	51	22	34	78	75	39	34	26	5	28	48	42	37	29	16	14	30	36	70	69	17	8	18	56	92	28	175	212	54	102	67	32	17	29	46	34	40	48	19	55	61	82	72	108	25	73	25	26	33	19	10	24	14	23	6	8	7	24	15	37	80	98	82	70	51	69	68	91	84	44	32	110	121	110	143	152	113	35	64	97	72	39	25	28	83	150	104	27	23	84	90	29	127	111	60	121	106	46	52	65	56	51	67	72	42	72	151	123	42	6	4	5	4	4	8	8	9	11	7	3	3	6	13	16	11	1	11	8	8	7	7	10	11	7	1	1	3	9	11	4	2	2	6	6	7	5	2	60	145	164	100	57	137	91	9	7	10	13	5	9	10	18	18	17	14	11	5	13	23	39	72	85	61	40	46	59	58	59	42	22	25	9	8	30	45	12	11	7	8	1	5	3	2	3	3	6	5	30	80	88	73	81	71	30	76	117	75	13	6	7	5	9	11	2	9	4	2	5	5	2	4	5	7	3	4	8	7	5	5	9	7	7	4	7	5	5	7	7	4	7	8	3	2	5	9	14	14	8	4	10	11	12	15	13	8	11	13	9	11	8	3	4	6	7	4	6	12	13	8	3	12	9	16	8	3	5	3	7	7	5	8	4	1	4	7	8	10	5	2	4	7	7	4	9	7	5	10	10	5	5	7	12	16	20	18	9	20	27	17	12	10	10	12	10	12	14	13	11	10	12	14	7	2	3	1	9	9	8	8	2	5	6	6	13	12	4	8	14	15	14	15	12	10	11	9	8	7	6	5	8	7	4	5	7	12	1	10	11	10	10	11	8	7	4	7	11	11	8	4	4	9	5	4	7	8	12	10	5	8	10	14	20	15	11	10	7	8	4	3	5	10	8	7	8	2	7	12	13	13	
7	9	4	7	7	5	4	5	12	11	2	7	5	4	3	5	4	7	11	3	5	3	3	5	6	6	6	5	2	7	9	9	12	9	5	5	5	6	10	8	5	7	8	3	4	9	7	5	3	7	6	7	11	8	4	4	9	6	3	6	4	4	1	10	7	1	3	1	9	4	11	8	5	3	0	1	5	7	8	10	11	7	4	7	8	7	5	4	5	5	1	3	15	26	42	91	114	103	90	60	48	153	189	92	12	14	37	43	93	129	145	114	45	12	55	62	31	16	13	13	45	49	8	48	61	22	26	41	18	47	44	34	23	33	30	10	32	46	65	45	39	23	11	31	84	98	42	20	27	24	30	32	11	7	14	44	19	50	66	29	8	8	5	31	65	50	14	22	23	3	4	10	22	26	21	17	31	14	23	20	16	18	14	22	33	16	54	28	10	3	9	28	24	14	7	7	4	14	25	16	10	27	33	23	37	19	13	7	29	36	2	24	12	14	51	61	24	13	17	10	33	29	51	68	58	36	37	34	24	15	41	42	31	29	12	13	25	64	44	35	17	21	6	25	28	21	17	7	17	7	22	6	7	40	36	37	76	46	12	18	28	74	67	96	196	61	105	85	43	36	36	38	35	39	63	42	50	54	65	51	115	63	71	21	10	38	14	15	24	16	24	12	10	7	39	33	57	88	80	55	65	30	71	105	91	63	22	61	75	40	66	113	105	112	74	35	58	51	7	5	41	29	135	115	34	38	96	87	29	96	118	55	50	101	60	63	65	43	35	43	57	60	28	79	136	86	14	8	3	4	3	7	11	10	8	5	5	3	2	3	7	7	15	18	15	14	13	10	8	9	14	16	13	9	8	7	2	7	8	4	7	11	10	47	139	169	97	12	88	141	86	17	12	10	7	0	4	10	5	7	10	7	1	3	7	17	13	26	58	60	35	27	40	54	57	44	36	40	38	35	35	37	10	8	1	4	3	7	4	5	4	8	16	15	5	60	97	90	86	97	104	91	96	70	20	7	7	5	8	11	9	10	2	9	8	11	4	3	1	5	7	6	5	8	4	2	5	5	1	4	4	2	3	4	1	6	7	6	0	1	10	13	14	11	7	5	5	7	10	8	4	4	5	11	11	4	7	12	16	18	16	13	13	18	17	15	4	14	5	15	13	2	4	1	5	8	4	5	4	1	4	10	12	7	11	10	8	5	6	3	7	13	15	12	9	6	4	5	9	14	19	24	20	25	31	14	8	7	6	8	8	12	13	10	3	3	12	12	1	2	2	5	5	3	7	5	2	1	2	3	6	9	4	2	4	5	9	12	11	5	4	5	9	8	7	5	7	8	3	5	2	12	4	8	6	4	5	6	5	6	11	7	12	12	8	4	6	13	14	5	5	10	13	11	8	4	1	13	22	13	8	10	8	5	1	0	4	10	14	10	5	5	4	5	5	5	
9	10	3	4	8	8	8	10	14	8	1	5	4	6	5	6	4	3	8	7	1	4	4	4	4	1	2	6	1	10	11	8	8	1	9	8	7	6	6	8	7	4	10	8	3	7	8	6	3	8	5	7	11	8	4	7	8	3	5	0	5	4	2	8	10	4	3	1	7	9	9	1	6	3	0	3	7	5	7	8	7	1	7	10	9	7	4	3	5	7	7	4	15	26	14	20	43	47	46	30	41	150	182	118	70	38	37	40	50	68	131	151	68	42	80	41	15	25	37	31	44	42	11	38	61	36	14	52	34	37	44	22	17	36	23	13	27	44	63	42	24	29	34	48	78	76	34	46	40	29	11	26	18	5	8	42	21	49	66	29	5	8	8	32	66	39	6	18	30	7	8	12	18	26	25	4	24	14	12	9	17	17	17	15	35	10	47	25	11	23	25	47	28	14	15	22	17	5	32	29	17	51	31	32	38	12	9	10	30	26	16	15	24	55	58	53	15	10	21	13	18	24	69	79	63	57	56	44	39	27	32	39	23	11	21	22	18	68	70	36	48	27	10	22	17	17	11	10	14	13	32	32	24	20	41	27	56	44	26	30	12	32	76	74	174	52	117	92	29	22	22	26	28	46	64	35	26	28	38	20	80	69	60	25	15	29	36	22	28	17	27	20	10	17	43	20	40	94	128	61	52	91	66	61	58	56	62	99	52	17	78	107	77	116	132	132	132	123	78	35	38	49	137	104	10	66	94	58	17	38	99	84	45	53	37	64	51	27	36	47	60	77	85	47	98	100	38	4	11	3	3	10	6	7	13	13	10	6	4	4	10	19	15	11	4	11	13	14	21	22	17	8	8	3	5	4	5	8	4	5	5	13	18	91	170	117	7	55	112	140	73	17	11	10	9	8	7	5	1	5	6	6	4	5	6	14	11	8	30	51	41	32	32	38	36	25	27	41	36	32	29	21	3	6	2	3	5	9	3	5	6	11	11	7	18	23	62	76	67	68	86	92	72	46	13	8	8	10	1	40	75	71	43	18	6	8	3	3	3	5	8	7	0	5	5	5	3	1	2	3	2	0	2	0	4	4	3	3	0	2	13	10	2	7	9	7	5	4	5	1	2	6	7	5	8	10	16	18	14	12	11	10	13	18	12	20	10	13	10	10	15	4	4	4	4	8	2	5	3	4	6	12	18	15	14	12	14	8	5	4	7	15	20	17	14	13	7	6	6	5	8	15	23	30	24	5	7	8	7	5	5	12	15	15	9	2	13	11	3	1	2	3	2	1	6	2	4	0	1	3	5	9	7	5	3	8	12	13	12	8	8	9	3	7	12	8	2	7	4	5	4	11	5	8	6	3	1	2	7	5	15	7	11	17	13	10	10	10	14	9	6	11	14	11	7	5	6	8	20	11	4	5	5	5	8	7	6	8	12	15	14	8	1	4	2	2	
10	5	4	2	3	7	5	8	10	0	7	6	3	2	7	5	3	2	2	7	3	1	4	7	8	8	7	5	1	11	11	4	3	7	11	8	3	3	4	8	8	2	8	11	8	8	10	7	8	8	3	5	9	8	4	4	8	10	7	7	1	4	2	4	10	7	2	2	2	3	1	5	5	0	3	5	8	5	5	7	8	6	9	11	10	12	8	6	1	3	4	8	15	26	16	4	3	9	20	13	46	108	136	135	114	104	53	47	39	59	105	144	138	139	120	57	54	31	41	25	29	39	7	31	44	48	26	51	60	19	32	22	14	36	20	7	17	26	46	36	22	42	65	48	29	79	72	61	35	32	5	27	16	18	21	46	26	43	57	30	7	4	1	32	62	31	13	31	35	5	9	12	22	31	29	8	18	6	7	4	10	14	30	11	37	8	49	41	34	29	38	69	30	23	24	11	19	16	34	37	43	49	5	47	37	13	5	10	32	7	30	23	61	81	90	63	26	20	15	20	5	37	80	34	53	63	67	59	31	9	16	27	16	9	28	29	29	60	65	20	38	16	12	31	18	10	19	8	10	13	39	25	19	7	21	11	44	31	11	18	25	15	38	41	150	44	121	94	9	16	9	6	11	36	49	21	13	17	20	4	36	32	24	21	28	22	35	31	12	22	31	17	7	24	39	14	22	38	130	145	42	96	73	15	27	38	73	125	47	61	98	96	48	72	104	127	138	136	124	97	73	105	142	85	40	86	53	21	46	41	96	45	51	44	43	61	41	25	34	48	62	66	91	87	69	75	54	17	8	3	2	8	12	17	21	23	21	13	10	12	20	23	11	14	31	30	10	14	23	23	13	9	12	9	12	14	12	7	2	5	5	10	39	127	157	44	59	96	126	111	41	4	5	6	2	1	2	1	2	5	8	7	2	4	4	7	11	14	22	41	38	32	33	34	23	12	17	31	21	18	13	4	2	2	3	4	7	11	1	9	5	11	16	15	12	12	8	29	38	43	42	33	18	20	8	5	10	14	34	104	123	121	97	45	13	13	12	10	7	7	8	6	3	3	7	9	1	3	4	6	5	4	2	4	4	1	1	5	7	7	10	8	8	9	7	8	7	7	10	8	7	10	8	7	11	18	15	13	10	7	5	2	12	15	8	22	12	12	9	7	13	9	8	3	6	10	3	6	3	2	4	4	12	12	8	6	12	10	10	8	10	14	11	13	11	11	10	3	8	4	5	4	17	21	8	2	3	7	9	5	6	10	8	17	17	11	11	7	3	4	2	3	5	6	9	5	1	6	6	5	6	11	8	7	3	11	16	12	9	8	7	4	5	8	4	8	10	11	10	11	11	9	1	8	6	4	3	1	8	4	15	7	7	18	18	10	1	8	18	15	5	8	11	15	17	14	5	7	16	11	2	4	9	11	13	12	5	2	2	4	9	8	7	5	5	6	
4	2	4	5	2	5	4	7	8	10	11	8	8	3	7	4	1	3	1	7	4	1	3	4	4	0	3	2	4	9	10	4	7	8	11	7	4	3	4	7	7	4	10	12	10	5	8	10	11	7	4	7	8	8	8	7	7	3	5	8	4	7	4	2	8	11	2	4	1	3	3	2	3	4	4	5	10	7	1	2	7	7	7	6	1	7	7	8	5	3	0	5	12	26	24	6	7	10	15	15	46	65	63	102	159	198	187	198	161	56	69	148	145	136	136	136	143	91	52	49	48	52	4	28	24	49	58	65	53	7	35	23	9	35	28	4	22	28	35	26	24	41	41	39	21	29	46	40	27	40	3	27	5	27	19	47	29	33	48	34	14	13	13	34	57	29	18	41	37	18	8	18	26	31	27	12	20	11	11	8	9	20	32	14	37	14	60	50	21	8	24	77	69	80	131	112	41	25	34	50	47	14	40	51	28	13	9	24	39	17	45	24	97	74	25	29	31	23	2	19	15	39	81	8	78	65	60	59	21	14	5	20	24	15	21	30	37	61	38	34	61	54	51	43	63	33	18	4	13	24	46	19	24	22	27	22	55	47	39	38	15	33	46	53	139	56	115	96	24	37	12	16	7	27	45	24	8	11	14	12	18	8	7	14	21	16	14	31	29	21	22	11	21	28	22	11	13	24	70	160	127	59	67	40	23	4	70	105	68	105	108	75	25	19	33	61	100	121	140	137	115	121	117	64	78	100	63	59	53	36	96	43	66	26	81	62	43	33	16	30	52	33	43	62	57	27	45	39	14	4	16	17	23	44	43	14	15	24	23	14	19	29	18	58	100	114	105	76	50	49	60	47	18	3	6	15	16	7	2	4	6	17	78	152	114	26	85	110	108	54	14	13	2	2	4	4	3	0	2	2	11	9	4	5	7	2	4	5	11	31	38	27	22	22	13	10	19	34	21	15	13	8	5	3	1	4	8	15	9	6	4	1	5	8	4	8	8	2	17	23	16	12	7	15	7	4	6	15	71	113	50	65	93	53	7	11	8	8	10	9	8	6	3	3	3	8	7	5	4	4	8	8	6	8	5	1	3	8	8	9	4	2	5	7	7	8	6	1	5	8	7	11	14	15	12	15	13	1	4	3	5	3	14	13	6	18	13	10	2	4	8	10	7	7	9	8	2	7	4	3	4	5	4	4	5	5	13	14	9	5	10	11	2	7	7	10	9	4	5	7	12	16	20	10	8	4	1	5	10	7	4	11	6	11	17	16	12	4	2	4	4	3	9	7	11	8	4	7	7	11	8	9	6	8	4	11	15	11	11	10	9	3	5	8	7	7	11	6	7	6	7	5	5	10	9	3	4	3	8	4	13	6	2	13	20	20	19	21	22	8	7	8	13	23	17	12	12	6	12	15	7	2	8	14	4	10	12	11	14	13	7	5	10	7	3	1	
3	2	3	5	3	7	3	5	10	13	9	7	8	4	5	5	5	5	4	6	4	2	1	2	2	3	4	4	7	10	7	4	8	7	7	1	5	3	4	4	5	7	11	10	7	4	4	10	12	8	5	5	8	10	7	0	7	10	8	2	3	4	5	4	8	11	4	4	1	2	1	4	7	6	2	2	9	12	12	15	8	3	0	17	39	45	32	12	2	3	4	5	6	21	24	11	7	4	10	16	40	48	18	33	110	203	260	267	217	175	75	94	88	22	72	84	168	168	135	87	86	62	11	21	18	35	51	55	25	24	26	17	8	27	34	7	24	31	27	19	18	23	7	24	33	33	10	7	39	35	4	23	1	29	8	38	28	26	40	36	18	7	9	31	53	29	16	37	51	44	35	5	32	22	23	18	19	10	12	14	18	28	36	26	36	30	71	43	2	6	2	61	124	149	135	157	77	26	10	24	10	32	45	24	15	10	7	38	46	24	58	19	100	79	31	56	42	13	11	26	19	23	66	24	76	59	45	51	38	27	14	19	22	11	27	45	61	63	14	59	66	60	107	59	91	93	53	7	19	29	62	32	31	11	14	15	67	58	24	63	32	42	45	59	127	62	111	86	29	56	30	17	15	17	36	26	17	25	30	24	15	3	10	13	14	7	4	14	16	4	17	22	26	22	12	12	11	33	20	70	123	115	94	56	7	55	84	38	64	110	91	50	22	13	20	21	54	88	123	125	100	94	79	37	66	96	106	83	70	15	102	56	90	88	63	56	17	26	15	33	55	24	3	18	34	31	14	45	18	7	15	53	125	155	158	120	65	19	21	24	14	17	44	113	137	149	182	186	166	175	181	155	107	43	8	7	9	8	1	8	11	41	134	155	46	51	68	100	89	13	4	16	4	3	3	7	4	2	2	4	13	8	2	3	4	7	5	3	3	12	31	33	28	17	10	9	23	32	16	8	13	13	8	5	2	6	1	10	8	2	7	9	7	0	4	4	7	4	6	4	6	8	8	8	5	2	0	22	64	75	71	93	86	50	8	13	11	3	10	12	8	8	9	10	7	0	5	2	5	8	10	8	4	9	7	2	3	9	7	3	1	0	4	7	6	4	4	5	3	4	8	12	15	14	8	8	11	11	13	13	9	5	13	14	6	9	8	6	4	4	4	4	14	14	8	5	6	10	6	5	4	3	6	4	2	12	17	11	4	8	11	5	10	13	12	8	3	3	4	15	15	26	27	12	6	7	4	5	8	7	7	8	10	5	12	14	12	8	5	0	2	0	9	5	9	9	5	7	2	5	5	3	4	10	11	10	6	12	17	19	15	9	12	12	12	11	7	5	7	4	3	7	8	13	13	3	3	4	8	4	13	6	2	7	12	22	25	20	11	6	13	9	10	19	20	19	14	0	8	20	11	3	5	16	10	10	17	8	8	13	14	7	7	7	10	10	
7	0	4	2	2	4	2	0	7	5	3	7	6	3	2	7	8	4	7	6	4	1	6	7	5	2	2	2	4	10	5	7	7	2	2	2	1	5	4	0	4	8	9	5	2	4	5	5	9	7	3	5	11	8	2	4	8	8	3	3	1	3	4	1	7	10	4	3	3	1	1	4	3	2	3	4	10	14	8	5	11	9	11	47	75	85	77	46	10	6	7	4	7	19	17	10	14	11	7	14	29	38	17	11	12	28	60	70	124	228	199	110	111	36	109	68	53	72	68	91	108	46	16	7	21	12	14	18	13	32	20	8	6	21	30	7	20	24	25	26	11	11	17	7	42	57	50	31	44	20	10	18	3	27	16	27	28	11	31	39	24	6	4	23	49	42	23	23	34	61	51	17	31	10	13	7	7	4	5	17	25	33	48	28	26	40	76	32	17	16	22	59	120	167	55	143	120	17	36	8	32	56	30	7	26	30	18	49	50	34	66	17	89	63	32	46	17	12	14	25	15	8	49	57	61	38	39	57	51	37	13	21	16	15	25	49	79	65	7	77	79	54	141	90	30	88	80	27	21	33	77	35	39	51	52	36	43	71	20	73	62	47	45	63	118	82	79	42	20	37	26	26	21	21	33	23	10	16	27	29	20	17	12	13	26	13	17	29	22	8	8	8	12	7	6	11	8	18	37	25	27	47	58	42	42	85	85	52	82	68	38	11	15	21	25	12	9	25	77	94	81	81	60	25	36	37	69	104	111	3	122	102	84	100	56	25	36	6	20	42	49	15	4	22	13	43	14	48	17	33	83	154	195	160	167	188	176	126	66	19	13	26	103	134	103	82	104	148	161	175	155	152	155	118	52	12	22	17	12	10	21	65	156	109	40	63	34	87	87	15	1	17	3	2	6	7	5	4	4	7	14	5	4	4	5	7	2	5	7	8	15	22	22	18	18	19	21	21	13	4	5	7	6	8	5	7	7	7	7	6	5	5	9	3	1	4	4	4	9	8	4	2	1	3	7	7	3	27	56	42	29	52	60	37	9	8	11	9	4	11	10	8	6	7	10	8	8	10	10	8	4	7	4	9	7	2	1	7	10	8	4	2	5	8	5	9	8	5	7	5	4	7	9	11	11	1	5	9	16	16	16	17	21	23	16	6	1	8	12	10	4	6	18	12	2	2	6	11	4	7	2	4	5	8	11	18	17	4	2	10	12	12	13	7	2	6	5	2	8	14	4	22	27	19	2	4	4	7	4	2	5	7	7	2	1	4	7	8	8	5	4	3	7	9	11	7	3	6	2	4	7	10	9	9	10	7	2	2	8	19	23	20	19	15	10	7	7	8	6	8	7	6	3	10	12	5	1	4	7	5	13	3	7	3	7	10	12	6	2	11	13	7	1	13	20	17	6	5	7	20	12	4	3	13	13	4	17	13	4	5	7	8	7	3	10	15	
8	3	4	0	0	1	2	2	7	8	13	10	1	6	6	6	10	0	8	6	4	5	4	4	4	4	3	3	4	11	11	4	7	3	0	1	4	3	4	4	5	8	5	0	3	4	3	0	8	9	7	4	15	8	1	4	7	7	3	5	3	1	2	1	5	11	8	3	4	4	4	5	5	1	6	7	6	11	19	17	14	37	45	72	79	57	79	77	30	8	6	2	8	16	8	10	12	13	18	18	17	24	31	17	28	80	117	110	39	124	226	221	128	46	78	111	125	74	23	106	110	121	93	41	10	11	17	14	18	34	20	5	9	22	27	5	22	13	10	22	22	11	9	37	55	50	65	28	28	7	15	16	4	29	22	19	29	10	22	47	37	13	5	10	28	41	31	8	17	77	55	25	29	11	17	13	13	6	7	17	20	8	33	10	15	40	72	23	24	30	55	72	46	132	134	65	132	57	32	10	50	68	25	38	20	32	15	60	54	51	73	17	77	45	29	21	9	13	7	28	17	8	23	45	36	3	22	33	55	59	22	30	22	21	8	58	96	68	22	94	80	55	141	97	49	37	79	60	27	45	78	29	60	69	37	49	13	56	22	65	83	33	15	38	82	63	25	23	48	35	8	7	5	20	34	18	20	24	5	12	17	24	15	17	30	10	32	38	11	27	21	28	32	24	13	5	19	22	39	44	38	32	25	7	45	110	101	43	91	62	41	22	11	10	10	9	7	7	35	59	55	50	35	40	34	32	28	103	132	13	139	131	52	75	82	53	22	17	24	36	30	11	12	23	3	34	20	49	5	84	142	175	133	47	42	87	141	160	131	83	56	118	161	126	65	45	14	31	44	48	42	76	67	99	103	81	73	49	8	8	6	60	127	99	103	73	41	72	76	19	8	16	5	4	7	5	4	5	7	8	11	4	1	1	4	4	2	1	7	6	5	8	4	5	17	19	9	9	14	12	7	4	6	10	6	3	4	7	7	4	4	5	7	4	2	4	0	6	3	7	3	4	4	3	4	8	8	29	55	50	50	73	75	34	10	8	5	10	6	5	6	7	1	2	3	8	13	11	7	3	3	7	9	4	5	5	4	7	8	6	4	4	6	7	4	7	8	7	7	7	7	5	4	5	12	4	4	8	13	7	8	10	15	21	22	12	6	8	7	12	5	5	15	14	8	5	4	8	3	5	2	4	3	2	8	14	8	2	3	5	10	11	7	7	7	7	7	5	9	10	10	20	19	16	13	10	11	12	8	5	4	4	4	7	9	12	10	3	5	5	2	4	2	3	2	2	4	7	2	10	13	14	12	7	4	7	12	12	7	5	14	13	9	5	1	5	5	6	8	11	2	5	7	5	10	7	1	5	4	8	10	4	7	4	10	3	7	8	8	8	12	5	6	4	7	7	7	5	6	14	15	11	6	10	14	6	11	10	7	7	3	4	6	10	11	7	
8	3	5	3	3	1	1	4	8	10	11	5	10	7	8	4	9	0	8	7	4	4	4	4	4	5	4	5	3	5	8	6	7	5	3	2	3	4	9	8	7	4	2	4	5	5	4	3	8	11	6	7	13	6	4	2	4	7	7	8	8	7	5	4	5	12	10	3	0	0	0	5	10	9	13	9	0	8	16	24	60	66	69	66	50	5	48	81	52	16	5	1	8	13	10	8	5	8	22	25	12	14	21	31	43	50	60	122	141	87	16	109	143	136	130	124	100	105	126	224	279	252	208	122	11	30	25	24	11	33	26	7	15	27	22	12	34	17	12	12	31	19	15	56	62	24	58	29	12	11	10	17	14	31	18	13	25	22	3	40	40	15	12	17	21	27	29	6	22	84	58	30	34	18	24	15	12	14	16	18	10	12	37	27	24	22	70	35	22	34	52	38	13	54	116	39	116	97	27	5	67	75	18	56	22	28	8	63	47	48	70	19	58	31	18	8	17	10	13	36	19	17	15	6	13	11	20	53	75	63	18	24	24	13	5	49	90	89	31	107	84	67	124	60	83	63	18	54	52	69	69	21	58	60	2	34	22	48	38	53	100	84	41	21	55	39	19	31	23	18	15	5	6	23	31	9	20	20	16	15	16	16	13	18	19	10	33	41	3	32	27	12	29	36	28	13	30	29	14	23	21	24	31	15	14	81	124	107	64	29	42	34	32	37	29	13	1	7	13	29	22	8	13	31	43	42	23	108	133	26	144	117	27	15	56	69	45	35	35	24	14	13	17	14	4	17	18	35	32	133	153	100	22	31	46	46	22	66	107	86	119	195	168	93	52	27	11	29	36	41	105	109	65	13	119	187	202	177	104	21	12	46	91	101	85	68	76	87	66	25	19	19	13	12	12	8	7	5	8	9	7	2	3	5	8	8	7	5	3	7	14	13	5	11	7	7	7	8	13	13	8	1	7	10	8	6	3	5	4	1	6	6	2	5	5	2	2	4	5	7	7	8	10	5	7	1	15	39	52	51	38	70	121	86	22	7	4	5	5	4	5	6	3	2	2	6	5	4	4	4	7	3	4	5	3	11	11	12	11	8	2	5	7	2	8	8	11	10	8	8	9	11	9	7	12	2	3	12	17	4	3	3	5	13	23	22	12	2	7	13	8	5	9	10	7	2	5	5	2	4	4	3	2	5	10	10	4	2	1	0	3	2	2	7	11	8	7	8	6	4	12	20	11	6	16	15	13	11	7	7	7	5	4	6	12	15	12	10	4	3	2	6	2	5	5	4	7	6	5	13	12	5	11	7	2	8	13	17	17	11	5	2	2	5	6	5	2	5	9	8	4	6	0	2	10	8	2	8	6	12	8	5	3	5	8	9	10	7	3	7	13	7	7	5	4	6	7	6	5	13	15	11	7	7	11	13	10	4	3	2	4	7	5	13	15	10	
7	1	6	4	2	3	3	4	4	2	4	7	13	5	7	5	10	4	10	8	3	1	3	3	4	7	3	7	3	5	4	2	5	5	4	0	3	7	10	7	3	2	4	3	3	0	6	4	7	11	7	13	8	2	5	4	7	11	11	9	9	10	12	10	10	11	7	4	1	0	0	8	15	8	16	14	4	7	11	51	88	52	37	29	17	20	27	54	55	23	4	2	5	10	7	2	4	2	15	26	17	12	14	18	46	104	129	68	34	105	120	64	21	84	116	106	96	183	195	149	173	178	225	160	36	44	34	45	10	26	31	11	16	28	14	24	34	11	18	17	29	22	22	69	60	4	50	34	2	11	9	8	7	26	15	14	20	17	16	38	38	13	7	17	31	37	21	6	28	90	66	24	40	22	24	19	4	18	27	26	16	23	37	7	33	17	60	44	15	38	23	19	19	65	106	57	69	108	57	58	71	58	15	53	25	25	10	52	56	42	46	14	37	20	10	19	33	14	20	42	18	29	14	5	18	7	41	72	73	45	12	14	16	16	17	29	61	92	51	98	86	78	117	21	67	115	90	28	43	79	57	46	48	35	16	11	12	25	38	6	58	95	71	26	67	50	32	32	5	38	25	12	15	23	23	7	14	12	13	15	8	7	5	7	5	11	22	33	8	19	31	29	13	50	38	18	31	48	42	13	32	36	22	8	12	18	57	73	56	22	20	17	26	34	35	15	5	6	4	15	19	16	7	10	23	31	32	107	133	90	141	82	13	18	13	47	35	32	33	20	12	13	17	8	7	3	14	11	70	149	133	42	30	35	27	30	34	46	92	28	134	153	67	31	14	7	31	33	56	84	100	73	24	91	116	135	145	182	202	137	44	19	55	69	60	59	73	65	32	12	20	12	20	43	49	29	6	17	10	5	5	3	5	7	9	10	10	5	1	6	7	4	11	10	2	10	10	3	7	8	10	4	5	7	7	7	8	7	2	5	5	4	1	6	5	3	2	2	3	5	9	2	10	3	5	5	22	34	26	52	79	31	74	107	57	8	5	8	10	8	6	3	4	4	4	6	4	1	2	1	7	8	3	5	7	16	13	2	6	7	7	4	2	5	11	7	11	9	9	11	12	14	14	10	8	3	3	15	16	2	4	5	7	5	20	30	18	10	14	17	8	1	7	13	8	4	7	5	6	9	9	8	7	2	11	13	5	4	4	4	2	4	3	1	7	10	6	5	5	4	9	15	3	7	4	7	7	3	4	3	6	4	1	7	11	8	6	10	9	6	2	4	7	2	5	7	8	5	8	10	10	4	13	7	5	12	6	6	15	20	13	5	1	3	7	4	7	3	3	7	5	2	5	4	8	10	2	12	7	14	12	6	0	1	7	9	5	1	7	10	17	11	11	7	5	4	8	12	10	7	17	16	13	6	3	9	8	5	4	4	5	5	0	8	11	14	
5	1	5	5	3	3	4	5	2	4	4	5	9	5	4	7	11	8	15	10	3	2	3	3	4	7	3	6	4	8	4	4	4	3	4	3	2	4	10	4	7	7	4	1	2	5	5	3	4	9	10	8	2	4	0	10	11	14	13	6	1	3	8	11	15	12	5	2	3	4	4	10	14	3	12	10	5	7	30	64	75	21	14	13	5	17	25	41	45	28	9	6	7	10	11	6	4	6	5	17	18	12	16	7	24	52	129	185	172	117	55	52	51	25	10	50	107	220	299	259	211	232	203	99	75	65	46	60	49	22	29	13	18	28	9	22	30	14	5	4	24	24	28	74	51	9	39	30	18	6	14	14	11	24	17	12	18	9	13	31	31	15	12	28	46	26	10	26	33	99	85	28	49	29	25	21	11	20	37	41	23	43	39	58	63	35	65	30	26	35	5	18	42	72	88	69	81	136	89	59	43	30	14	42	18	13	11	28	49	41	25	9	27	14	22	40	57	54	42	47	12	41	17	15	16	3	45	81	63	19	11	12	10	12	21	25	43	74	37	87	92	65	125	8	59	48	105	84	59	51	39	64	44	10	7	15	15	25	70	91	53	58	69	8	63	49	24	33	27	57	20	19	12	18	21	11	17	13	10	2	9	14	15	10	6	11	22	34	19	22	30	22	19	50	33	8	11	31	45	30	40	31	10	8	12	12	3	14	38	34	25	14	11	20	28	13	7	11	13	8	19	20	6	3	5	15	17	79	125	124	122	67	36	25	10	33	31	29	24	17	16	18	18	5	12	9	17	47	92	118	101	31	29	25	11	5	4	47	62	21	122	109	40	58	31	21	46	71	91	99	72	30	52	122	81	17	33	37	130	182	126	34	17	30	26	26	27	8	7	13	16	31	112	164	168	131	43	19	20	10	3	7	7	5	8	7	9	13	7	3	13	15	10	2	2	7	9	11	14	13	9	1	5	2	3	7	10	8	4	4	4	8	10	14	15	8	4	4	4	5	10	5	7	2	3	5	22	32	27	48	86	103	60	78	64	15	10	18	15	15	12	3	1	3	3	3	5	4	3	2	4	4	5	5	12	14	5	10	14	14	8	1	2	5	10	7	7	5	3	1	4	10	12	5	3	7	5	16	13	7	6	8	7	3	13	23	21	20	22	17	8	5	9	16	5	9	7	4	4	5	8	11	13	12	5	13	11	7	4	5	2	7	5	5	2	4	6	4	7	4	5	13	8	3	4	0	4	3	4	1	5	4	8	11	8	2	1	4	9	8	5	3	7	10	4	10	9	2	6	7	5	3	8	10	10	7	5	5	5	11	14	7	4	2	4	5	4	1	5	11	13	10	2	3	5	10	4	14	7	10	9	8	7	5	4	4	4	5	7	6	14	7	13	14	17	12	8	13	12	5	24	25	19	17	14	3	4	7	8	6	1	4	3	3	6	9	
4	5	7	4	3	6	7	7	4	7	5	5	8	10	5	7	8	7	19	14	3	5	6	5	5	7	4	3	7	7	4	7	5	3	5	4	0	2	8	5	8	5	4	4	4	5	5	2	2	6	5	2	7	4	1	13	15	9	9	10	5	3	4	10	12	8	5	2	2	4	4	8	9	8	8	3	11	23	35	52	43	29	32	28	15	22	27	32	27	26	21	9	8	14	20	18	10	1	2	7	12	15	21	12	29	49	24	82	141	166	140	77	25	21	34	14	42	139	258	316	309	262	136	24	87	75	37	22	44	51	37	11	24	29	11	18	27	23	25	28	37	32	28	71	43	11	25	20	24	23	10	7	18	24	16	8	17	7	10	26	25	14	8	17	52	49	19	32	12	84	96	24	44	24	15	20	15	32	51	46	13	38	62	128	110	122	64	32	71	51	30	10	45	63	64	53	96	131	69	18	11	15	13	41	22	16	20	13	25	23	21	24	33	20	31	35	38	64	70	70	38	34	2	11	8	14	30	78	70	26	2	10	13	12	12	38	69	81	30	90	98	27	123	58	68	58	43	46	42	24	28	17	28	17	23	28	21	59	53	70	86	68	49	5	54	61	36	19	40	68	12	24	2	17	29	18	30	29	27	20	25	30	35	31	30	30	28	39	10	27	28	7	24	41	31	10	4	17	28	24	19	20	8	12	1	5	9	6	18	21	20	21	23	27	23	6	6	18	27	24	15	19	6	3	2	19	12	25	57	65	54	27	19	19	5	19	12	8	12	11	21	27	22	17	29	26	35	63	68	75	87	29	31	35	32	25	21	38	33	30	81	90	66	57	32	32	72	98	75	46	35	20	72	95	56	79	91	87	47	105	155	101	62	94	114	111	82	26	14	27	16	106	186	181	156	194	101	10	26	10	9	10	8	7	7	5	14	18	8	12	3	3	1	1	2	4	7	12	14	10	4	3	6	3	5	5	9	6	5	4	10	13	17	21	23	17	8	7	7	7	8	4	2	2	1	5	15	20	18	24	29	71	73	63	53	9	20	18	2	14	12	4	4	4	4	4	7	5	3	7	9	9	7	8	7	4	2	12	11	11	12	9	4	8	14	13	7	8	13	14	11	2	10	9	3	4	1	14	11	12	10	13	7	8	11	10	12	17	15	6	8	9	11	12	4	8	8	1	1	3	6	5	7	12	10	10	13	6	5	6	5	7	2	8	5	5	8	3	2	4	2	5	10	7	3	8	7	8	4	3	4	7	13	13	10	5	2	5	0	5	7	7	5	12	2	10	9	0	9	8	4	5	7	8	7	3	2	8	10	4	11	8	8	7	4	2	2	3	6	7	6	11	7	5	4	7	6	13	4	7	5	8	11	10	4	6	7	4	4	12	10	2	8	11	16	21	20	11	4	9	21	26	14	10	18	11	2	0	1	2	3	1	2	1	0	3	
4	5	5	4	5	8	9	5	2	5	7	7	7	8	11	13	7	6	17	15	7	5	3	4	4	7	8	7	7	4	7	8	6	0	6	4	0	2	4	5	5	3	2	5	8	9	2	4	4	3	4	7	5	4	4	15	16	4	9	12	4	8	7	3	3	6	4	2	4	1	0	5	5	4	3	6	22	35	31	33	25	30	25	30	19	27	18	17	29	34	33	15	6	11	17	22	20	7	4	4	10	18	29	21	16	48	42	14	17	44	79	85	63	31	10	31	24	4	66	118	133	115	85	107	34	84	77	46	22	24	40	36	39	32	11	14	21	18	23	21	41	36	33	63	33	11	16	9	21	26	12	7	22	23	12	5	15	8	10	28	23	10	8	1	28	47	25	22	12	57	86	33	28	32	20	25	6	48	60	28	21	5	90	134	107	182	90	79	58	36	53	17	51	66	47	14	96	107	37	8	14	18	14	40	24	17	27	7	12	12	15	24	39	33	15	26	12	21	52	55	35	29	20	13	11	11	31	80	64	16	10	2	23	16	3	40	80	69	23	92	84	7	108	105	44	82	56	35	31	18	49	43	22	7	15	10	8	61	66	26	12	43	30	32	70	73	38	13	47	60	19	21	10	7	25	14	32	34	31	29	28	33	29	24	15	13	42	58	25	49	27	17	39	41	23	5	6	7	16	16	2	17	8	5	11	11	6	0	6	10	8	10	12	8	11	13	10	20	19	25	22	19	4	8	10	12	17	0	8	7	5	20	17	5	18	23	23	22	24	19	18	18	10	38	48	38	43	44	33	60	86	38	49	50	39	43	39	30	2	14	45	50	57	59	51	62	93	75	30	8	15	34	83	87	72	71	70	88	109	68	75	130	147	182	184	180	164	104	44	16	95	171	164	61	83	169	133	52	13	10	1	9	17	11	12	28	20	8	22	13	1	6	2	5	6	5	2	8	9	3	6	5	5	2	4	7	7	3	9	14	13	8	11	10	17	22	12	5	4	9	10	3	4	6	4	6	12	6	8	11	6	18	33	27	25	15	19	7	8	14	6	3	4	4	4	4	5	3	4	13	12	7	4	6	6	3	4	11	10	3	7	12	4	5	2	8	2	9	11	5	11	8	7	9	5	5	8	12	1	11	12	18	10	5	5	2	3	5	1	7	1	10	13	8	4	5	11	7	4	5	9	4	1	5	5	5	10	5	5	5	5	7	3	9	6	6	8	4	1	2	2	3	4	5	9	10	5	8	4	2	4	9	11	11	10	12	8	5	7	0	7	12	12	5	7	10	2	8	11	10	4	4	4	4	3	5	2	5	7	2	5	7	7	7	7	2	3	3	7	6	4	8	4	9	8	3	3	8	3	4	4	5	7	8	9	9	3	7	10	9	4	5	11	18	2	29	27	3	7	4	10	24	25	13	10	11	8	5	4	3	3	0	2	6	8	9	
4	2	4	3	5	7	2	3	1	2	1	3	4	1	9	14	8	4	10	15	15	11	6	5	4	8	11	7	2	4	8	7	3	5	4	3	1	2	7	10	8	5	4	3	7	9	11	12	13	13	9	8	5	2	9	14	8	11	7	5	10	12	6	7	9	7	4	7	10	7	1	3	4	1	2	0	29	45	30	18	2	8	15	21	11	14	3	15	21	42	38	15	7	5	10	18	17	11	10	12	15	19	32	35	25	32	33	25	16	19	27	33	49	55	25	11	28	31	13	20	16	11	57	121	123	114	74	42	61	52	21	39	62	46	17	5	19	14	8	7	38	29	45	55	18	17	19	17	25	23	4	11	18	19	10	8	13	7	9	27	24	10	8	8	14	33	25	12	10	44	64	44	2	34	34	27	3	51	54	30	48	55	125	87	72	155	80	13	55	52	50	20	51	69	42	29	89	86	15	33	30	32	19	24	25	15	22	10	4	7	7	4	18	27	21	13	34	36	51	29	23	38	54	24	18	5	33	85	55	12	4	8	22	13	13	37	84	76	53	92	62	25	118	122	38	66	29	14	51	32	41	46	32	23	12	30	40	38	33	45	46	38	21	67	75	56	14	32	44	49	20	26	25	21	36	32	46	57	13	28	22	30	21	31	20	22	43	65	10	56	37	22	44	28	9	19	18	9	8	17	10	7	12	9	15	17	13	7	6	7	8	7	5	7	15	18	9	19	17	16	21	11	14	5	5	14	15	2	5	5	8	11	21	12	17	23	15	14	23	21	20	11	13	43	53	37	43	27	7	57	80	55	63	52	39	51	52	41	31	22	31	13	42	47	57	68	76	47	23	18	26	40	88	111	98	72	63	77	100	107	54	47	115	131	84	90	144	171	154	146	181	168	63	63	103	77	111	99	36	55	78	74	41	22	73	91	81	43	26	28	18	4	8	4	11	15	12	14	12	7	8	8	5	1	3	5	5	5	17	18	8	6	10	17	5	18	12	4	6	15	12	8	15	15	12	5	10	4	8	4	5	7	5	8	5	7	6	3	8	9	3	0	0	0	1	4	4	0	6	13	10	3	5	7	7	4	7	7	7	8	10	15	10	11	12	11	6	10	14	10	4	7	1	9	8	2	8	10	7	13	2	15	14	4	2	4	3	3	5	8	6	10	7	7	5	5	9	10	8	9	12	6	2	5	5	4	8	5	4	3	3	5	3	5	7	7	7	4	1	8	8	7	4	4	5	4	3	8	3	5	9	11	9	7	2	10	13	4	7	7	5	9	7	5	10	7	8	8	10	8	5	7	8	8	7	7	6	7	5	2	1	2	4	9	7	2	3	2	5	5	11	6	9	10	10	7	4	5	5	1	2	4	7	11	16	11	7	7	2	5	7	8	12	23	12	22	25	12	5	4	6	17	27	23	9	6	7	2	1	2	0	3	4	4	2	1	
4	2	2	4	7	8	1	4	4	5	7	8	8	8	7	8	8	4	5	11	16	12	7	5	4	10	12	4	3	7	8	7	3	3	1	3	4	2	5	4	4	4	2	3	4	4	7	8	7	7	6	7	5	5	12	10	7	7	5	1	4	4	6	13	3	8	15	15	14	13	4	1	4	5	9	14	31	49	31	7	5	3	12	12	11	4	6	8	26	38	31	24	16	4	15	19	12	2	10	10	8	8	18	27	27	22	20	23	13	17	14	9	23	46	44	19	27	26	17	8	28	35	24	35	67	59	34	15	38	72	73	40	46	39	71	74	35	4	12	11	34	15	36	39	8	25	19	8	17	18	4	12	9	16	12	11	7	8	13	15	22	23	26	23	16	30	24	12	6	40	40	44	31	25	42	25	7	44	41	21	25	75	137	67	70	124	99	84	96	75	29	10	46	57	29	20	67	71	33	44	27	28	12	7	15	15	12	9	3	2	1	7	1	13	35	22	9	34	32	6	41	37	63	49	22	7	31	84	55	4	4	6	16	3	13	22	69	60	40	74	38	49	126	112	14	55	29	34	63	33	15	21	22	27	11	40	51	55	32	7	44	58	5	72	84	70	54	40	32	41	24	23	25	21	55	45	43	82	52	5	18	30	25	49	20	21	31	54	16	47	40	12	42	50	49	44	42	38	19	5	17	13	8	13	10	3	9	4	3	3	5	8	8	13	9	10	8	18	22	12	12	17	18	5	11	20	12	9	10	5	3	6	8	10	8	17	19	29	23	11	16	12	8	27	62	67	34	31	23	46	80	46	39	49	53	59	45	28	39	34	15	46	58	50	56	53	54	44	41	29	28	32	48	76	87	77	67	74	55	75	89	68	69	56	9	21	60	107	131	150	148	65	48	94	60	20	48	91	88	153	155	156	111	94	157	134	136	123	93	49	10	9	12	42	65	58	39	24	15	10	5	7	2	5	2	5	6	10	24	15	10	12	5	14	10	13	9	5	9	18	9	21	29	21	21	5	6	4	4	4	7	6	5	7	6	7	8	9	4	7	5	0	0	0	3	4	0	5	8	9	8	4	5	6	7	4	7	3	3	9	14	15	9	7	4	3	2	4	8	11	8	4	8	7	13	4	10	7	4	13	10	4	12	11	4	6	5	3	6	7	6	10	5	1	4	2	5	5	2	8	11	10	6	9	11	11	14	12	7	3	3	5	4	3	1	2	5	4	4	9	4	13	2	8	5	3	5	9	2	9	9	5	4	4	5	4	13	12	2	11	10	1	5	7	12	7	10	9	3	4	7	7	7	5	7	4	7	8	6	3	2	3	4	9	5	3	1	3	11	17	17	11	18	8	8	10	7	6	5	2	1	7	11	12	21	12	0	4	10	10	14	14	3	16	8	8	21	21	10	1	4	7	16	25	19	5	5	5	5	4	4	5	7	10	8	7	
4	7	5	4	7	8	4	5	8	8	4	4	4	3	3	1	7	10	2	8	13	10	3	2	5	12	8	0	5	8	8	8	7	8	4	3	5	3	4	6	4	1	2	4	2	1	4	7	6	8	7	7	5	3	11	12	5	2	5	6	7	7	8	11	2	13	15	5	10	14	7	0	2	3	11	19	29	37	25	14	12	8	9	11	16	20	22	20	22	21	19	25	22	10	16	17	10	6	10	4	9	12	11	5	4	2	10	24	19	11	4	5	15	36	59	34	28	38	26	16	48	34	27	25	12	7	13	7	8	34	74	93	67	58	136	175	152	64	25	29	42	19	37	46	10	30	26	8	15	21	10	8	3	13	12	7	8	18	8	3	11	15	21	24	9	27	22	10	12	37	17	30	39	13	40	26	8	43	35	15	18	79	122	55	52	127	131	86	33	61	23	26	42	42	21	12	57	56	5	26	13	30	10	8	6	7	8	2	3	4	5	8	8	5	24	33	31	26	25	45	44	19	45	46	31	21	18	69	63	17	4	8	12	3	13	17	66	53	26	65	30	45	119	118	48	31	48	52	51	6	34	28	24	32	19	53	45	35	52	44	21	53	26	36	89	119	113	79	47	32	24	16	39	47	61	36	13	57	60	26	17	23	14	51	48	18	27	38	6	35	34	7	22	50	58	57	61	63	50	22	11	17	7	11	15	12	7	5	7	4	0	8	12	11	10	14	5	20	23	7	6	23	17	13	10	26	18	10	10	13	21	22	15	5	4	7	9	11	3	3	9	7	5	12	54	94	56	28	48	38	82	63	21	55	39	33	34	34	38	31	68	95	87	73	66	56	44	37	20	26	24	23	4	14	35	48	45	42	8	65	76	63	86	80	35	15	34	49	26	42	47	41	91	59	11	6	18	55	136	170	112	150	126	150	172	97	114	137	168	145	68	16	49	93	101	82	64	33	10	7	4	7	6	5	9	13	13	16	26	13	15	15	8	12	6	8	8	9	9	14	12	34	38	25	30	9	6	6	1	7	2	6	6	8	3	8	12	15	14	8	4	0	0	1	5	4	4	7	10	10	5	3	6	7	4	2	6	7	5	5	8	5	3	5	5	7	7	5	3	3	8	5	6	3	9	16	16	9	5	8	9	7	5	14	10	2	4	2	3	7	6	5	6	6	2	3	4	5	7	8	3	11	16	12	8	4	8	7	5	1	2	5	1	4	6	5	5	5	1	8	9	12	1	9	8	6	8	10	5	11	5	2	1	2	2	2	8	14	8	7	10	4	2	5	10	7	9	8	3	2	9	7	5	8	10	5	7	3	2	5	2	3	4	8	4	1	3	6	9	8	7	12	23	10	5	5	10	12	7	2	3	6	13	5	21	14	5	8	11	6	15	17	6	12	12	4	11	19	21	14	8	5	2	17	24	9	2	7	8	6	8	8	1	5	6	4	
4	5	7	6	3	7	7	0	10	11	4	1	4	4	3	1	3	10	6	10	14	11	5	4	9	12	5	5	8	7	7	8	0	6	2	3	3	6	2	4	4	4	2	5	3	3	4	7	7	8	6	8	7	2	6	10	5	8	9	7	5	5	7	4	5	12	11	6	11	12	7	0	2	5	17	20	20	19	19	18	14	13	12	8	16	24	25	17	13	17	16	20	17	5	8	14	14	2	10	6	8	7	12	16	15	12	14	21	21	13	8	7	16	29	55	45	27	50	31	21	55	74	59	32	21	30	38	17	13	15	7	17	41	126	144	95	189	188	117	51	44	36	35	65	27	27	33	8	7	15	7	5	8	15	20	10	19	8	15	7	7	8	4	18	5	23	17	4	26	44	23	18	40	8	42	28	9	45	39	8	15	66	103	57	67	153	133	53	46	86	50	30	13	31	46	31	56	62	29	42	32	31	4	23	20	22	8	5	9	11	10	13	6	10	8	21	36	42	43	39	15	15	30	21	20	22	13	51	60	26	1	12	11	5	15	13	66	63	21	66	34	31	94	103	67	41	51	49	39	27	29	13	19	29	14	50	68	50	6	38	19	42	54	22	32	55	65	46	10	15	19	11	21	41	43	2	54	63	34	30	28	13	16	19	41	45	44	34	13	31	29	20	27	26	29	31	35	50	65	50	16	11	14	2	7	6	3	7	7	4	4	8	15	7	7	11	8	23	20	5	12	19	14	10	13	24	19	5	10	18	18	18	22	15	6	0	3	4	5	6	5	2	10	11	29	80	74	43	47	25	58	83	5	62	41	31	33	27	46	73	91	80	61	55	50	48	40	23	8	15	17	8	7	3	7	18	20	17	9	63	83	48	41	85	90	50	43	58	52	75	87	67	71	17	7	16	15	70	114	82	45	116	70	114	85	37	48	38	70	128	105	31	71	81	29	54	69	40	10	8	11	4	15	14	19	21	20	19	16	7	13	8	17	20	16	14	13	14	6	7	18	41	37	25	40	20	8	7	6	6	4	5	6	12	10	7	13	13	14	10	2	0	0	3	7	2	9	10	8	7	5	5	4	2	1	3	5	4	2	5	7	4	5	8	8	7	5	4	4	3	1	5	5	10	8	11	12	8	7	7	5	5	9	14	10	2	7	3	2	3	4	4	5	6	2	2	4	8	10	7	4	7	8	5	2	4	8	8	5	2	3	5	2	5	3	4	4	7	7	1	1	6	4	10	9	0	10	7	8	8	2	4	3	9	8	4	4	11	13	11	5	2	4	4	7	2	7	8	5	3	7	8	8	11	9	5	8	5	3	2	2	1	4	8	4	3	5	9	14	9	5	12	22	8	5	4	1	10	13	7	3	4	8	10	17	10	8	9	5	3	9	14	12	8	13	4	2	10	18	21	19	17	14	8	18	13	10	7	2	6	12	4	4	5	4	7	
4	3	0	2	2	5	9	7	7	10	5	4	4	4	4	2	1	5	5	7	14	7	2	1	8	13	8	4	4	4	7	10	13	11	5	5	0	8	4	1	3	7	3	6	5	4	3	2	4	2	5	8	7	2	6	7	7	10	9	8	3	3	2	5	11	9	5	4	10	10	4	1	5	10	17	19	13	8	12	15	15	15	17	10	17	15	16	21	15	18	16	17	14	4	4	12	21	17	7	5	10	15	20	8	10	2	4	11	12	7	8	6	9	24	52	59	15	56	34	15	28	58	70	64	63	21	30	24	24	63	112	133	80	79	200	141	43	201	268	237	145	63	36	69	41	28	40	15	11	11	4	7	25	27	31	26	27	5	20	9	24	28	21	19	6	20	8	5	41	39	17	14	33	20	46	17	15	35	41	12	16	51	82	48	117	176	96	4	65	76	24	22	23	31	38	25	44	71	14	31	18	15	13	26	5	22	15	6	16	11	10	17	3	12	1	6	15	21	12	8	10	24	22	8	10	18	2	41	54	33	6	14	9	7	16	4	55	71	27	56	35	18	75	90	66	37	43	26	17	27	9	12	29	24	15	15	47	76	50	37	46	29	59	43	52	66	84	68	29	24	17	8	10	30	20	36	74	55	36	27	32	6	22	30	41	63	58	32	21	37	26	23	33	15	8	8	9	21	62	69	37	13	8	4	3	4	0	7	5	1	5	8	17	8	15	7	17	27	18	6	17	24	20	15	13	14	13	4	6	14	21	13	11	24	11	4	5	7	6	5	4	5	10	8	13	45	56	43	37	18	40	81	37	36	46	34	8	29	58	66	52	31	13	11	13	22	27	20	12	10	7	5	7	2	2	7	11	14	20	53	104	66	8	37	83	82	67	66	49	45	76	74	55	22	18	14	16	72	85	35	55	90	27	62	69	71	58	67	87	86	83	35	51	67	67	72	58	29	16	15	17	15	22	14	14	17	14	6	7	18	20	9	22	10	10	12	20	14	2	11	22	34	24	17	43	34	11	8	8	1	5	1	7	10	18	14	8	7	10	14	7	2	2	5	7	5	16	12	6	6	4	3	3	4	2	6	4	8	5	5	8	5	2	7	4	3	2	1	0	1	3	5	13	7	18	11	5	5	8	6	3	8	12	12	5	5	6	2	3	0	0	3	4	2	2	2	7	13	18	14	7	3	2	6	3	5	10	10	5	1	2	1	8	8	5	4	4	8	12	12	9	9	10	8	5	3	7	6	8	4	1	4	3	9	2	5	1	4	7	5	1	0	1	4	5	4	8	12	8	11	10	8	3	9	6	3	6	5	5	5	6	4	3	8	3	5	5	6	11	8	7	11	16	7	5	8	11	5	11	12	4	7	5	11	9	5	13	13	6	3	8	11	14	11	8	5	2	2	7	12	15	18	18	11	10	8	7	13	15	10	8	4	8	7	5	5	
6	8	7	4	3	1	5	7	5	5	5	4	4	4	5	4	0	2	4	5	12	8	5	4	3	10	10	4	5	5	4	8	13	12	9	7	2	6	4	3	0	7	4	5	6	3	3	4	2	7	9	10	7	3	5	2	4	1	10	12	4	4	2	11	9	3	3	8	12	9	5	4	5	6	12	17	14	9	12	17	22	24	25	21	18	11	7	16	19	15	14	18	14	8	7	6	12	20	16	13	11	14	23	18	13	8	10	14	11	5	3	2	8	21	45	68	15	55	43	14	7	6	12	34	63	59	38	22	28	86	103	117	147	58	132	219	152	55	149	235	231	153	90	78	42	41	42	15	8	7	4	17	33	15	32	45	37	21	31	25	39	40	48	28	15	21	4	12	43	28	17	14	24	38	34	7	29	38	41	28	27	48	57	12	116	140	23	54	63	53	11	46	26	10	35	34	41	76	21	25	10	13	11	31	24	12	29	22	15	5	11	16	4	8	7	10	11	14	12	17	19	19	12	21	23	24	19	43	43	30	5	12	8	6	15	4	34	58	21	35	35	3	49	87	72	12	27	10	8	7	17	4	31	18	12	10	13	45	34	29	42	21	54	26	77	97	84	33	37	42	22	4	13	35	15	46	72	23	24	20	30	17	20	28	55	65	48	23	24	53	29	8	29	31	22	17	20	11	48	70	46	38	27	12	3	5	5	8	10	9	5	5	16	5	15	4	31	41	31	24	32	33	17	15	12	7	12	7	18	26	33	35	10	22	17	7	10	6	4	2	5	9	11	3	10	22	37	46	44	31	41	77	85	50	21	10	11	23	32	21	11	8	4	3	6	9	8	12	11	11	11	7	5	4	5	7	6	11	13	29	94	97	26	20	11	43	66	73	63	51	56	74	84	77	63	34	31	56	66	58	64	75	39	51	73	69	74	93	96	66	40	29	19	56	68	55	31	8	12	17	14	17	15	5	8	10	3	10	12	12	7	20	26	2	17	18	19	9	5	14	23	20	13	8	26	42	31	6	7	6	8	9	12	5	18	17	8	7	1	11	11	5	4	7	6	7	16	8	4	2	6	2	4	6	3	4	3	4	2	1	8	9	4	9	8	6	2	2	1	2	1	7	15	6	17	15	7	4	5	7	11	12	10	4	2	4	3	7	7	5	4	4	4	2	2	4	10	4	13	12	5	1	2	2	4	7	11	16	8	1	1	4	8	5	7	5	3	3	3	8	5	3	5	3	2	3	7	13	11	5	4	4	4	8	8	3	0	0	4	6	1	3	4	7	8	10	12	17	14	11	9	13	3	11	10	5	4	12	12	9	8	8	4	6	4	8	3	8	8	4	7	5	8	10	2	10	6	8	5	12	10	6	3	13	5	3	12	13	10	8	12	14	13	10	6	8	6	5	5	7	8	12	14	6	7	9	3	5	9	7	4	12	9	5	4	5	
3	3	5	6	4	2	1	3	6	4	3	0	1	5	8	4	1	2	4	3	9	7	4	4	2	5	10	9	2	6	1	6	5	4	10	8	3	2	4	5	6	5	3	3	5	7	8	9	9	8	7	5	2	5	4	2	4	5	7	15	5	8	5	11	4	5	10	13	12	7	4	6	11	14	14	14	15	13	14	14	17	22	27	28	23	13	7	8	10	8	10	15	12	4	4	4	4	5	9	8	4	12	15	14	7	2	8	14	10	8	8	8	10	8	29	70	42	36	60	35	15	9	18	23	25	38	37	22	32	100	140	95	107	112	17	161	194	173	138	45	99	138	129	113	60	49	38	25	19	13	18	28	28	7	45	56	39	23	43	48	29	21	60	27	22	18	4	17	38	18	15	16	11	25	12	16	32	44	41	20	21	33	29	17	90	133	75	76	58	39	29	57	7	29	39	19	45	71	13	24	8	25	14	30	42	19	41	38	9	1	9	14	3	3	4	7	7	9	8	12	25	19	15	25	33	30	29	51	39	22	5	8	11	4	11	8	22	45	22	21	25	24	39	78	76	10	26	7	7	13	19	13	34	18	16	19	34	49	35	33	39	38	49	31	58	37	32	34	64	45	23	25	16	46	20	38	60	60	64	58	60	56	25	35	53	41	31	18	27	66	29	9	12	18	4	13	32	19	40	57	33	45	47	32	14	8	5	11	15	19	6	5	10	6	11	15	54	56	38	29	35	42	23	11	20	7	16	13	22	14	22	38	22	7	19	10	4	17	20	12	9	9	11	4	7	11	20	29	30	27	30	47	69	70	60	45	21	24	60	51	22	22	23	14	13	5	9	4	8	9	13	10	7	8	12	9	2	7	11	12	52	102	86	22	31	22	29	51	53	52	50	55	63	68	68	61	55	36	25	45	55	77	66	58	57	57	77	75	47	38	33	35	27	29	29	20	10	5	5	14	4	8	4	5	11	11	8	14	7	3	10	28	24	12	24	14	7	10	6	15	22	9	13	19	8	24	34	15	5	7	8	8	14	10	12	15	8	7	6	5	7	6	4	9	5	8	14	7	2	2	5	2	4	4	2	1	2	6	7	6	10	8	1	5	4	3	5	4	4	1	7	10	12	4	11	15	8	5	11	13	9	5	3	3	4	1	5	8	8	7	5	3	3	1	7	8	15	13	12	13	4	2	3	1	4	6	5	15	10	5	6	4	7	4	7	7	2	5	5	4	7	2	3	3	2	6	8	6	5	5	7	4	2	2	1	4	6	6	7	2	4	4	5	11	12	12	12	14	10	4	8	14	6	5	8	7	16	17	19	12	6	7	6	4	3	5	4	9	3	7	10	7	1	9	2	10	3	7	7	9	9	8	9	8	3	3	11	12	13	14	6	11	9	8	3	7	1	4	7	7	8	14	20	14	14	16	3	12	1	8	10	6	2	9	7	7	
5	4	0	3	4	6	3	7	6	7	2	0	1	7	10	3	4	3	5	3	7	8	5	4	3	4	8	9	9	7	5	8	9	4	8	8	3	0	1	3	4	3	1	1	3	4	5	8	9	5	5	2	4	1	4	6	4	4	2	13	10	3	1	8	4	5	8	8	4	3	4	2	2	10	15	9	9	10	8	4	6	6	14	17	15	12	9	7	6	6	5	8	14	14	5	8	5	7	7	4	3	11	8	10	10	4	13	9	6	7	7	5	4	6	19	58	57	1	50	45	16	11	22	21	13	7	14	10	14	63	141	171	125	75	19	93	145	166	216	213	133	80	79	109	71	24	5	38	23	15	36	31	4	25	45	55	40	15	46	55	43	60	60	13	31	14	9	17	37	15	4	13	7	11	14	4	34	52	19	22	35	36	44	52	18	96	85	57	42	20	45	55	4	34	35	8	50	64	11	25	11	34	5	45	51	7	45	41	11	5	10	16	5	4	5	3	6	12	12	21	22	15	41	27	39	36	24	49	24	8	2	4	9	8	4	9	28	43	12	24	1	48	85	95	59	11	27	5	3	18	8	31	40	22	30	35	21	28	24	27	48	50	48	46	90	82	27	52	69	35	13	43	14	51	35	18	40	52	56	59	47	41	39	17	52	53	41	19	32	68	27	8	27	35	24	15	40	21	44	51	7	15	35	39	24	14	10	9	13	26	16	8	8	8	3	42	68	41	16	38	40	39	25	12	22	12	18	18	29	16	14	36	30	5	13	14	18	30	30	25	16	9	9	5	0	6	7	5	5	15	24	36	31	8	29	31	44	40	47	72	63	53	44	35	25	10	12	8	12	5	5	5	3	4	11	8	10	9	12	11	10	64	117	77	21	33	43	55	37	22	29	31	28	17	58	82	64	41	53	50	42	81	73	60	58	54	65	44	19	20	31	32	18	8	8	11	5	9	15	13	4	5	6	6	11	17	15	11	1	8	21	34	17	25	27	0	19	26	20	4	24	14	15	16	21	16	31	21	2	0	7	4	8	8	7	13	8	2	6	7	3	1	6	9	4	11	8	4	4	6	4	2	4	1	1	1	4	7	9	9	8	5	3	8	8	8	5	4	6	4	9	3	8	10	11	14	11	8	7	4	3	2	4	0	5	5	7	5	1	5	4	3	2	7	14	11	14	11	8	8	6	8	7	5	4	3	7	11	7	8	10	7	4	5	5	11	11	7	1	4	6	1	3	1	3	5	8	3	4	5	7	4	5	6	4	9	14	16	13	8	6	4	7	14	15	9	2	8	9	8	7	8	9	7	5	13	26	14	15	14	9	5	3	4	5	7	5	5	5	10	8	10	10	7	2	6	7	4	8	3	7	14	14	9	5	4	7	11	16	17	8	8	10	10	6	8	7	2	2	3	7	14	24	14	10	20	6	11	7	8	14	10	7	7	4	4	
7	5	4	3	6	8	3	10	3	6	3	0	2	7	9	4	7	3	5	1	5	9	7	3	3	4	4	4	6	5	4	5	9	7	5	7	4	1	2	1	0	0	0	0	0	1	5	6	7	6	3	4	4	4	4	7	3	2	1	7	11	7	2	5	2	2	8	8	3	6	10	12	12	12	16	10	3	2	4	4	4	7	2	6	7	5	7	8	8	8	6	1	7	14	11	3	7	5	3	5	2	8	7	11	15	10	13	7	5	7	7	5	7	7	23	56	50	9	44	45	14	15	25	19	14	7	8	13	15	29	29	56	57	27	15	42	89	104	127	158	132	87	63	82	74	23	35	39	4	35	36	8	42	57	50	51	42	12	42	43	37	47	29	17	33	11	7	12	28	17	9	16	18	7	15	13	30	56	33	42	48	38	52	58	53	23	48	25	29	16	52	49	11	25	36	14	45	60	7	32	17	41	10	57	45	15	51	37	15	11	17	20	8	3	8	6	6	8	15	27	24	32	52	23	45	52	15	54	41	19	9	8	7	6	0	7	34	38	11	28	20	66	67	48	7	31	24	12	11	8	25	41	32	18	34	55	38	38	54	43	13	41	45	37	68	104	74	71	63	29	11	46	26	39	42	4	13	24	19	34	36	43	26	5	24	52	62	31	30	62	28	16	38	30	19	24	37	16	43	59	15	24	17	35	30	21	17	17	4	26	23	10	5	11	1	58	65	5	46	59	45	35	24	19	28	17	31	12	31	29	12	44	37	10	14	19	25	23	7	27	21	14	10	5	5	3	2	7	11	17	36	48	38	44	46	61	59	28	5	35	65	60	42	35	28	7	6	7	12	8	3	3	4	4	13	4	17	3	5	5	9	15	83	117	88	62	66	54	18	3	9	18	16	7	49	71	69	76	77	77	68	71	54	21	37	36	33	14	6	6	16	10	1	4	2	8	10	13	12	8	5	4	4	5	8	11	9	8	9	15	31	31	11	36	21	23	42	38	38	13	22	17	18	7	13	10	27	18	2	1	9	2	7	3	7	9	6	3	1	0	2	0	7	7	11	13	8	5	4	7	4	3	4	4	4	5	8	5	5	6	4	3	6	9	3	3	6	4	3	4	4	6	7	10	10	10	12	8	0	3	2	4	2	5	4	4	5	3	4	7	7	5	4	10	15	5	15	7	4	5	8	6	5	5	0	3	7	6	3	8	8	10	2	8	8	15	19	18	13	8	4	2	3	4	3	5	6	1	3	5	4	5	10	8	11	15	11	11	8	13	7	2	8	20	17	5	2	10	16	11	4	6	12	14	14	18	22	5	9	9	11	7	4	4	3	3	1	4	8	5	2	6	13	13	7	5	7	6	0	5	5	5	7	9	10	7	1	7	17	25	21	14	14	8	3	4	7	5	1	7	9	10	18	18	12	16	7	9	11	5	14	11	10	6	2	6	
8	5	6	5	5	7	3	8	7	5	2	2	0	5	10	9	5	3	8	7	8	12	8	7	7	3	1	1	2	5	4	2	5	7	6	4	3	5	6	5	2	2	2	4	3	4	6	0	3	3	5	8	3	3	2	4	4	5	6	7	7	8	7	4	3	4	7	8	2	7	11	14	15	11	12	7	3	5	4	7	4	4	2	4	5	2	4	7	8	7	5	4	2	5	11	5	6	8	7	7	5	6	1	7	14	10	10	8	7	7	8	10	8	5	29	54	42	20	32	33	18	13	26	15	4	12	11	18	14	27	17	21	25	11	4	7	34	50	60	96	78	51	59	71	69	26	22	14	15	34	12	35	60	53	41	39	32	5	34	33	15	18	5	17	24	20	12	21	18	8	24	24	34	11	26	27	31	51	18	20	38	31	41	33	60	31	30	11	34	28	57	55	26	11	30	21	40	51	7	46	27	51	17	53	32	30	51	30	12	4	16	22	10	5	7	2	9	1	11	26	25	33	37	8	46	49	10	41	36	15	6	7	5	7	5	4	35	41	15	25	23	68	62	30	17	36	26	28	31	24	37	33	21	15	12	40	40	46	56	66	66	50	27	17	32	75	73	62	46	27	22	45	42	26	35	13	5	18	3	43	67	46	19	16	15	34	60	39	26	57	16	7	41	40	14	13	27	17	40	74	31	33	21	18	23	24	24	20	1	27	23	7	10	8	6	66	67	16	64	50	25	24	20	24	42	22	38	36	29	26	19	49	40	8	25	21	13	27	23	18	18	14	9	5	8	8	10	14	15	13	27	56	40	41	63	57	25	5	10	27	24	53	53	33	24	9	10	12	5	5	5	2	7	3	11	8	18	4	7	8	5	10	32	85	101	76	57	29	5	5	16	14	9	11	42	44	28	29	32	50	63	41	30	27	11	20	10	9	20	22	25	14	1	3	2	5	9	6	1	2	3	4	1	3	1	5	3	8	11	25	50	28	26	39	11	46	49	33	49	27	33	25	26	15	11	10	27	17	2	2	9	3	8	2	8	5	2	2	1	1	4	6	10	9	9	8	7	9	9	4	4	2	4	1	1	4	3	5	4	0	1	2	3	8	11	11	9	5	3	2	1	3	4	3	1	5	12	7	10	9	4	4	6	5	2	4	4	1	7	4	5	3	7	10	16	8	16	5	3	2	1	2	4	7	4	2	4	5	5	8	5	10	4	10	9	5	9	15	19	17	7	2	4	3	3	6	7	4	5	7	2	6	10	8	16	20	11	4	13	11	5	4	8	26	20	6	7	13	17	7	8	8	9	15	15	12	11	6	9	10	14	11	8	8	8	7	6	6	5	1	5	7	7	8	13	8	6	5	3	5	4	4	3	6	7	7	3	4	11	21	24	16	7	2	7	7	8	8	5	11	10	7	6	14	13	8	4	7	10	2	8	5	8	10	10	3	
8	4	4	5	5	5	4	8	8	6	2	1	2	2	5	9	7	7	10	5	6	11	5	4	4	6	3	4	1	2	3	2	1	5	5	1	1	7	5	10	8	5	7	1	2	4	7	9	5	5	4	9	4	4	4	5	6	5	4	8	3	4	9	8	5	5	7	6	1	8	14	4	8	4	5	10	11	7	4	4	7	10	8	6	7	5	2	5	5	5	3	2	4	1	9	7	1	5	7	5	10	8	6	4	10	10	8	8	5	7	8	10	4	1	21	53	65	39	4	32	31	10	25	17	8	19	7	14	8	18	5	10	14	15	8	8	17	29	55	95	58	23	24	33	54	26	10	8	11	31	29	42	45	21	14	23	18	2	21	29	10	10	7	12	17	12	27	28	4	21	28	30	47	25	33	33	31	52	1	11	20	15	13	26	35	29	22	31	31	16	48	52	33	16	24	10	37	44	12	51	16	54	14	40	22	41	47	27	14	7	19	24	10	1	11	15	9	2	5	15	14	24	17	16	40	30	23	51	41	17	7	5	5	11	9	11	17	44	22	13	12	54	62	41	5	40	35	26	29	51	47	18	14	5	20	25	5	4	15	36	62	63	33	9	13	36	32	20	23	22	23	39	41	19	22	7	11	22	4	45	66	33	18	14	19	38	55	31	35	56	15	10	24	31	34	34	36	32	46	91	56	19	31	17	14	28	31	22	8	31	26	8	4	4	13	72	69	21	74	53	18	22	24	16	55	39	24	33	33	8	38	43	28	3	31	21	4	14	22	16	17	14	5	2	5	5	8	13	5	0	25	67	55	11	21	32	22	9	18	26	23	83	71	32	19	15	13	13	10	7	7	2	5	7	7	10	16	5	11	4	8	15	10	15	41	36	19	7	5	11	16	14	11	18	49	41	17	13	15	17	19	25	21	30	22	13	14	19	36	37	40	25	7	7	6	2	5	5	4	4	0	6	2	4	4	2	5	5	5	30	63	27	37	36	21	52	34	25	43	21	22	7	21	15	5	7	27	21	1	3	10	4	8	4	11	5	0	1	4	5	7	7	8	10	4	6	3	5	7	7	2	7	8	7	5	4	6	7	7	2	5	6	4	3	5	2	3	5	7	3	0	7	4	7	2	4	7	14	23	22	19	7	0	2	2	3	5	6	7	1	3	5	6	5	14	9	9	5	5	6	8	5	2	7	5	4	4	5	5	5	3	8	6	10	7	4	5	1	15	19	13	4	1	4	5	5	6	4	4	8	3	7	10	1	14	20	14	7	10	8	7	7	10	26	21	3	11	18	14	4	5	14	13	7	6	1	5	6	5	7	14	8	0	0	1	4	7	6	2	6	7	12	13	4	12	10	7	3	5	7	5	5	7	2	3	6	5	8	5	7	13	11	6	7	4	4	5	7	1	12	13	9	12	14	12	3	7	10	5	4	8	3	6	4	11	8	
10	4	1	3	4	5	4	5	5	4	5	4	4	4	2	4	8	12	10	7	4	9	5	1	4	9	4	4	3	6	8	7	7	1	7	0	1	8	4	10	15	7	12	8	4	1	6	5	6	3	5	5	4	7	7	6	6	4	6	11	3	2	5	7	4	4	4	3	3	5	17	14	5	6	4	8	9	5	7	1	7	5	7	5	5	7	3	6	3	9	1	2	3	4	10	4	2	4	4	2	10	11	7	7	4	7	7	5	5	10	7	8	7	2	5	22	46	55	29	28	39	13	28	22	17	27	8	14	11	13	4	7	14	28	31	31	36	15	60	102	51	18	7	19	52	24	8	10	10	22	11	24	36	20	16	20	9	2	12	24	18	5	14	9	17	8	29	35	5	36	26	28	48	36	26	29	36	58	8	15	13	7	11	20	14	21	22	45	24	47	52	34	24	23	28	20	48	49	13	56	11	53	22	26	24	35	34	22	14	11	27	30	11	10	7	7	7	3	4	8	4	18	12	20	36	24	17	41	25	5	3	4	3	16	8	17	21	34	43	30	18	38	65	53	14	49	49	16	11	47	61	37	13	7	23	24	29	51	68	66	45	38	40	27	23	34	19	6	17	20	6	26	34	7	11	2	9	23	3	34	60	51	24	25	44	70	63	17	41	43	8	10	9	10	40	53	32	15	25	87	80	27	8	11	18	32	35	21	12	33	38	15	15	18	16	77	70	18	71	52	20	23	29	18	60	45	10	14	24	36	52	27	8	13	19	22	4	6	10	4	13	14	2	3	4	5	8	12	5	4	49	80	26	45	74	72	54	36	13	26	71	100	64	30	16	13	8	4	7	4	4	0	0	4	1	10	13	7	4	7	8	3	10	17	20	18	4	5	8	11	10	16	17	25	62	41	3	13	21	22	11	14	22	22	18	3	17	38	34	21	46	33	11	4	6	9	6	4	0	5	5	8	8	2	5	8	10	7	15	47	61	18	35	30	25	45	15	33	34	8	10	14	17	17	5	1	25	30	8	11	5	2	7	2	12	7	1	2	3	4	10	8	2	8	5	10	15	16	10	8	14	20	21	13	10	3	4	4	7	1	8	4	7	3	4	4	0	5	10	10	7	9	2	8	7	2	8	21	23	24	31	22	7	4	4	5	0	7	7	3	2	2	2	2	6	2	2	3	5	6	4	5	0	5	4	0	2	2	4	3	3	5	10	10	5	0	5	7	10	15	14	7	2	4	3	3	4	5	1	7	4	4	7	7	8	13	18	10	1	8	7	8	15	22	15	6	13	17	8	9	7	11	18	7	4	4	6	7	5	4	11	10	5	3	4	4	1	2	2	7	6	9	11	3	10	10	7	0	7	5	4	5	5	3	7	4	5	8	6	10	8	8	11	7	3	7	8	10	8	5	9	11	11	10	14	11	6	4	2	8	5	6	5	2	6	4	
9	5	3	1	2	4	2	3	4	3	4	1	3	3	0	4	5	8	10	9	3	7	7	3	3	11	7	5	8	2	3	0	10	2	8	0	3	7	8	11	17	5	8	7	4	4	2	8	10	4	5	2	2	2	1	2	3	3	7	9	5	1	5	4	3	7	8	8	7	7	14	18	9	5	3	3	2	6	7	3	6	4	5	4	2	5	6	5	4	10	7	5	7	14	15	8	8	15	19	15	4	10	5	7	1	1	2	4	7	10	3	11	8	1	5	5	27	60	48	7	38	14	31	15	23	33	14	15	15	5	5	6	9	45	51	44	64	17	56	97	47	20	24	31	55	18	5	18	9	21	24	29	44	35	27	20	7	5	12	22	18	5	13	9	16	11	33	36	12	44	27	18	38	36	8	20	48	56	12	19	15	11	4	12	9	16	23	47	37	76	63	32	0	13	10	11	45	52	5	58	26	47	39	11	13	21	26	19	10	8	35	34	5	13	9	9	4	4	5	7	2	19	14	17	36	31	15	48	51	31	13	4	7	12	14	18	39	55	55	29	35	34	83	63	21	57	54	21	4	29	63	56	28	32	33	41	57	71	63	43	30	21	22	16	34	50	35	25	17	20	15	20	32	8	8	2	11	23	12	24	41	42	43	47	17	70	69	12	35	31	14	12	8	7	36	51	54	54	31	48	80	63	34	11	19	25	29	18	4	21	37	40	32	41	36	75	65	18	66	50	31	30	25	14	53	44	11	21	18	39	62	31	9	14	13	13	13	10	8	4	12	19	12	5	5	6	8	12	6	8	60	63	40	69	44	53	86	48	28	53	61	64	27	15	13	10	10	6	11	8	11	7	5	4	6	7	7	11	9	10	4	4	2	7	13	13	9	8	7	8	1	15	28	42	65	24	25	31	27	22	11	7	10	9	7	7	18	45	25	26	45	30	12	5	7	11	0	5	5	8	5	5	10	11	9	10	12	18	37	56	44	4	28	17	18	32	5	36	30	6	0	2	11	17	7	13	26	42	15	15	12	8	7	4	11	8	4	3	6	10	9	5	4	6	14	18	27	29	22	13	20	20	19	23	17	1	4	3	5	4	6	4	6	2	4	0	4	4	5	8	12	15	8	6	10	5	14	16	13	11	26	32	17	5	4	5	6	5	4	2	1	0	0	3	3	2	4	3	3	1	7	7	4	8	7	5	2	5	8	5	3	1	5	4	4	4	2	4	8	10	12	7	3	2	5	9	8	8	0	5	5	9	6	6	5	1	11	15	8	6	5	8	14	13	6	8	12	9	6	11	13	8	17	9	5	8	5	6	6	7	8	6	3	4	5	2	8	7	3	5	4	7	9	2	11	11	4	4	8	5	3	3	3	8	9	7	2	6	9	5	4	7	12	4	6	4	5	6	10	10	4	1	0	5	12	14	8	6	10	9	2	7	4	2	4	1	
4	4	5	4	0	4	4	3	3	5	4	1	5	3	4	0	5	4	2	8	8	5	3	2	7	13	7	7	9	3	5	7	11	5	8	3	3	3	9	10	11	5	7	6	6	5	2	13	9	7	7	3	2	5	5	4	5	4	3	7	7	5	8	3	6	7	8	10	9	7	8	14	9	4	1	3	2	4	5	5	1	3	4	0	4	7	8	8	9	11	8	3	8	15	11	12	17	16	9	18	6	8	8	2	4	3	6	4	5	8	2	10	7	4	2	2	16	47	59	31	19	17	23	6	36	34	14	7	7	8	2	4	15	56	53	31	70	22	50	84	41	11	14	22	35	16	27	34	24	18	25	3	35	49	41	19	4	5	15	22	15	5	8	8	12	23	49	38	29	53	24	14	31	35	22	36	56	33	34	34	34	43	37	22	2	13	15	31	47	74	41	43	22	8	4	16	33	47	9	55	34	41	43	9	12	20	26	18	11	9	43	35	8	11	6	7	6	7	13	15	7	17	16	7	29	43	31	30	46	32	18	4	5	7	17	33	37	41	24	35	52	43	99	66	13	55	64	38	23	5	52	48	41	68	76	74	67	38	5	10	15	29	29	15	37	46	31	45	31	22	17	9	30	11	8	1	12	28	13	16	30	25	34	60	69	72	53	1	27	24	18	17	5	7	14	43	53	47	37	15	41	50	41	28	16	14	26	21	16	52	73	67	37	31	30	57	48	17	45	44	57	60	33	12	48	58	30	28	17	45	51	25	17	23	26	24	17	0	13	13	6	23	31	20	10	5	12	12	8	14	48	42	28	34	18	50	87	40	33	37	46	69	55	21	5	10	9	5	23	24	24	18	12	5	9	7	1	5	6	7	3	3	2	3	12	13	14	13	13	15	13	30	62	81	58	13	31	25	20	8	4	8	13	10	5	4	24	40	8	33	32	20	14	8	7	7	3	8	9	7	1	2	1	6	6	4	14	11	58	64	19	21	23	5	9	22	14	22	32	24	18	14	17	20	15	15	23	49	24	4	8	15	7	6	9	8	6	3	4	8	4	0	4	1	18	27	14	25	20	5	16	16	4	26	18	10	8	7	10	8	2	7	1	5	4	4	4	1	1	1	3	14	15	0	10	6	10	13	15	11	10	24	18	10	7	9	8	4	1	1	3	4	4	4	0	4	3	4	3	2	8	5	9	10	2	2	5	11	8	8	8	7	9	5	4	3	1	6	8	10	10	3	3	4	9	9	12	10	2	2	5	5	5	13	7	9	4	12	9	4	4	8	12	7	7	7	7	2	10	8	10	7	16	10	7	11	7	1	1	8	8	4	3	4	5	11	10	8	1	6	2	5	8	7	10	10	3	7	7	3	1	4	2	11	7	2	6	7	7	2	5	9	10	2	5	7	6	3	4	7	7	4	5	7	8	12	8	2	6	3	1	5	5	1	2	11	
2	4	5	7	7	3	2	3	1	5	4	5	9	8	8	8	10	7	3	5	9	8	5	5	10	10	3	7	4	6	6	6	7	2	7	4	1	3	5	5	1	7	4	2	7	7	7	15	4	9	10	5	3	1	4	1	4	4	3	3	4	8	9	3	7	7	7	5	5	4	7	8	8	7	4	0	2	2	1	2	4	1	2	7	8	8	8	8	7	8	10	4	10	16	4	12	19	21	16	21	12	9	9	7	5	3	8	4	3	5	2	5	8	4	3	3	7	24	48	49	18	11	8	20	36	26	8	8	12	10	2	1	29	56	36	36	62	14	50	67	33	7	4	15	34	37	31	34	38	5	29	21	19	59	51	15	3	8	15	19	14	1	7	1	11	41	65	36	47	64	24	16	32	45	40	37	35	10	66	56	55	54	57	44	8	17	12	12	43	54	12	55	38	15	15	15	22	41	20	48	28	37	36	11	16	26	31	19	14	14	53	35	18	15	6	4	7	8	3	13	17	15	8	2	19	50	43	15	47	33	16	6	5	13	22	47	49	25	6	51	47	43	100	70	28	26	53	42	37	18	47	23	51	65	62	58	36	12	47	42	50	29	18	20	47	64	19	28	32	24	20	2	29	12	6	4	15	33	10	17	28	19	6	13	7	29	32	8	27	23	16	14	10	8	17	13	42	35	6	30	39	50	46	25	13	14	31	30	34	83	73	40	8	17	13	42	43	27	26	2	31	72	50	13	45	75	54	15	41	60	42	7	22	30	30	31	21	14	16	11	25	19	27	31	16	8	14	7	4	14	36	35	37	60	61	79	89	21	39	18	11	47	63	48	26	29	34	37	42	35	26	34	22	5	8	7	4	4	3	3	2	5	3	6	1	11	11	8	14	15	29	55	62	55	28	38	25	8	2	14	16	20	16	10	8	16	36	34	14	38	21	9	10	7	3	3	6	8	8	4	6	4	4	4	5	6	16	33	68	53	6	29	19	10	10	13	15	0	21	24	12	5	13	15	12	3	27	46	22	8	10	10	9	5	7	9	6	3	6	5	1	3	8	7	20	35	10	27	21	4	15	12	11	20	9	7	4	1	2	7	10	7	18	20	16	11	5	1	4	7	9	7	14	8	5	7	2	8	14	16	17	18	12	7	8	10	9	5	2	4	4	4	4	4	4	5	5	9	6	7	7	4	7	12	9	7	8	7	3	9	13	3	8	5	5	8	9	7	12	14	11	5	4	9	11	3	14	7	4	3	4	5	8	14	5	8	1	10	5	7	7	10	13	8	7	3	3	8	8	7	7	7	13	5	6	11	6	5	5	13	3	5	4	5	5	8	3	13	3	10	2	4	5	9	7	4	6	4	4	4	2	7	6	13	8	7	7	6	5	8	13	14	8	3	4	6	4	6	4	5	2	5	5	5	4	8	8	1	6	9	5	3	7	1	4	14	
5	5	6	6	7	8	4	2	0	3	4	7	8	4	5	6	11	14	11	10	8	7	7	8	11	5	4	2	2	4	4	3	2	3	5	3	0	3	6	1	4	1	5	3	6	5	8	11	2	13	10	5	3	3	6	7	9	8	7	7	5	6	5	6	5	5	8	6	3	9	5	1	7	10	9	4	2	3	0	2	5	5	5	9	8	8	7	3	4	10	11	4	9	18	7	9	13	12	16	17	7	1	4	10	6	5	8	4	2	3	5	4	8	8	7	6	7	5	17	43	43	22	12	30	35	24	5	16	17	7	9	7	41	49	16	36	46	14	47	48	25	25	22	12	13	11	14	28	38	14	19	27	13	65	54	11	8	12	14	15	15	6	9	5	10	49	70	26	44	68	31	12	33	47	41	28	14	43	79	48	42	42	81	60	13	24	19	12	47	44	41	73	46	32	32	21	20	27	14	38	17	35	33	9	10	25	31	15	10	25	56	27	24	23	6	5	8	18	19	7	16	17	10	6	14	51	45	34	55	29	5	7	10	6	15	49	58	27	15	49	36	51	88	44	43	46	41	30	29	7	35	10	39	37	22	17	11	38	43	15	62	39	8	1	27	61	52	23	25	26	21	1	23	16	2	2	24	32	5	13	28	30	27	47	56	61	56	19	27	22	13	7	5	18	26	42	78	43	38	32	36	45	42	9	21	38	53	44	43	92	43	21	31	24	22	41	44	8	15	17	48	68	50	12	35	76	69	14	51	68	35	3	23	18	10	11	21	27	23	5	28	26	16	32	15	4	9	6	10	18	38	53	42	24	32	71	58	45	77	66	66	48	44	27	40	75	92	89	56	16	9	37	49	31	7	5	7	5	4	4	5	2	10	5	5	2	18	21	24	10	39	70	55	4	55	44	4	20	28	24	19	29	21	9	7	31	48	21	38	45	16	5	7	6	5	4	3	5	8	2	9	7	4	4	2	4	10	44	56	22	12	20	15	3	13	7	9	13	7	22	13	5	12	12	11	14	24	36	18	13	11	5	4	7	7	12	9	6	4	5	4	5	7	3	25	37	10	28	23	6	17	5	16	19	12	8	5	5	7	3	12	28	37	32	30	21	10	4	8	7	7	4	10	12	3	7	7	1	7	8	10	9	4	7	11	13	17	15	7	8	4	1	0	3	5	10	11	8	4	10	5	4	2	5	7	7	4	2	4	6	13	4	8	5	5	7	5	7	12	14	4	9	5	8	11	9	10	2	3	7	2	3	5	10	3	10	5	9	7	10	5	9	10	3	3	5	4	4	6	14	8	12	12	4	8	11	3	5	7	12	5	2	4	1	4	4	7	12	4	12	3	4	2	4	2	5	9	8	5	7	7	8	5	13	7	4	2	5	1	5	10	11	7	4	1	1	4	4	9	9	8	7	4	3	2	5	9	8	6	5	10	1	9	5	5	11	
6	2	2	2	1	7	7	2	1	1	2	4	5	2	3	3	4	9	8	8	10	11	11	8	8	3	6	2	4	3	4	4	3	3	3	3	5	6	4	1	1	5	4	4	5	0	5	5	5	11	7	6	3	3	8	6	1	6	14	12	10	2	6	6	1	4	8	7	4	9	5	2	3	4	10	4	1	4	4	5	5	7	5	8	5	4	4	6	6	8	9	5	7	15	7	12	14	8	9	7	1	3	5	8	4	9	9	7	7	6	4	4	8	15	18	16	14	3	2	29	54	39	9	38	40	26	3	19	18	6	10	12	45	36	21	30	26	16	32	31	26	28	33	30	10	36	43	44	36	12	22	23	22	62	51	11	12	13	12	17	18	7	16	7	13	41	63	48	48	55	30	8	27	35	47	50	19	59	83	36	21	33	98	62	30	28	30	19	48	34	47	65	24	23	47	27	8	19	14	23	10	34	31	8	11	27	31	18	8	32	45	13	24	22	5	12	21	17	29	21	8	7	8	4	10	44	40	29	37	14	5	4	13	11	8	40	59	32	17	36	22	63	80	10	33	42	28	28	27	6	40	42	65	80	69	49	12	36	50	41	47	29	17	12	5	33	47	27	16	26	20	4	15	21	15	5	31	26	7	11	31	46	36	35	13	37	47	16	18	23	13	4	7	26	31	67	98	12	59	30	11	34	44	5	42	35	65	55	59	79	24	20	19	9	7	29	40	26	23	41	49	50	32	11	32	73	63	25	60	58	31	5	22	31	30	20	18	18	15	14	17	22	18	28	13	5	9	5	11	15	35	64	75	74	53	74	42	83	94	54	62	62	52	22	50	74	77	72	56	28	24	21	48	48	22	3	4	7	6	3	5	7	3	7	2	15	29	21	34	15	48	65	39	32	62	28	20	22	22	11	20	16	26	29	6	44	62	13	59	45	7	9	9	12	8	5	4	5	7	1	12	7	4	7	9	15	25	55	40	3	11	8	14	13	14	4	4	15	10	14	17	17	21	19	11	9	13	28	16	10	8	10	5	3	5	12	7	4	2	8	3	4	10	10	26	38	8	28	24	5	16	3	20	17	7	8	5	7	8	11	21	28	24	12	25	23	14	7	9	10	3	4	10	8	5	2	7	5	3	1	4	1	7	11	11	11	16	22	16	12	8	5	2	4	7	7	8	3	8	8	2	4	6	5	3	2	3	3	6	4	12	6	8	5	5	10	5	1	10	12	6	8	2	5	2	5	3	2	5	7	2	5	8	7	3	8	5	7	10	6	7	10	9	1	1	5	7	6	11	11	3	11	11	4	8	9	2	5	7	9	1	5	5	5	4	0	7	7	8	8	2	4	1	4	5	10	6	7	4	4	2	7	6	10	5	0	0	4	3	4	10	12	4	7	4	4	2	3	5	6	17	9	11	0	4	2	4	7	10	4	12	3	13	11	10	5	
5	3	3	2	2	3	7	7	5	3	1	4	2	5	4	4	4	4	4	1	1	6	7	4	4	2	4	3	5	5	7	7	5	5	4	5	8	11	10	5	2	3	2	5	3	2	3	3	4	5	5	8	8	4	5	7	10	7	15	18	11	14	5	4	6	3	8	7	1	8	8	7	11	11	9	4	2	1	0	4	1	4	3	6	4	4	4	7	4	7	11	8	7	8	5	11	13	8	14	10	0	4	7	7	8	12	10	6	4	3	3	6	7	8	13	20	20	10	9	24	55	49	13	36	45	24	3	13	15	11	10	14	39	36	44	34	6	13	10	21	17	14	25	31	4	48	41	24	14	8	22	29	37	50	43	13	13	18	14	13	13	4	21	10	15	35	48	34	33	35	21	5	18	20	45	71	24	77	87	36	20	34	108	56	40	24	32	33	50	33	48	79	61	48	71	31	17	23	17	8	16	35	26	8	7	19	31	21	11	44	36	6	17	14	8	16	19	9	31	24	7	8	9	5	4	33	33	9	35	31	10	5	5	7	2	29	55	34	10	24	7	61	67	19	41	18	8	25	20	20	65	72	66	80	83	69	28	16	22	30	31	17	10	10	5	17	38	30	11	27	18	4	7	20	22	10	34	24	7	10	34	48	39	26	26	50	38	9	14	20	13	9	23	32	28	56	104	57	40	20	37	52	73	23	48	10	50	61	87	73	29	25	15	10	24	39	33	18	16	43	59	46	22	5	33	75	42	43	75	55	28	13	9	16	21	24	29	21	6	8	12	17	14	28	17	12	21	21	25	20	28	17	53	72	68	76	40	60	77	27	12	11	15	34	69	74	17	55	79	45	39	43	19	48	31	8	7	5	4	7	2	5	7	2	8	16	22	17	29	8	54	42	23	38	45	15	27	29	5	28	25	7	9	36	19	56	78	24	75	46	8	11	13	15	7	7	8	7	5	5	11	4	8	10	7	5	21	61	48	7	15	7	2	6	4	7	18	28	27	10	22	25	30	25	9	2	7	24	15	5	1	10	8	1	4	12	8	7	5	11	3	7	6	9	26	36	5	30	23	5	14	1	18	18	8	8	5	8	4	15	33	22	3	19	28	18	10	14	9	6	1	8	11	4	3	8	3	4	6	5	5	2	6	4	1	3	1	13	11	4	5	10	8	1	10	11	4	13	11	4	2	4	5	7	8	7	5	4	8	1	8	9	3	5	6	7	5	4	10	10	4	2	5	1	2	0	2	11	14	12	7	9	10	4	3	7	1	4	2	8	11	7	5	6	3	5	4	4	7	2	5	9	7	7	10	4	0	5	7	7	4	4	3	11	6	5	5	2	4	4	4	4	2	4	5	9	5	7	3	3	7	12	14	10	2	2	2	4	0	4	8	12	4	7	5	7	4	4	9	13	18	4	14	3	7	5	6	7	8	4	11	4	18	16	9	7	
3	0	0	2	0	1	3	5	7	7	4	3	1	4	4	4	3	3	4	5	7	7	4	4	3	3	0	4	4	3	2	1	4	5	3	3	6	4	4	7	1	6	5	2	7	7	5	3	3	1	2	2	5	4	1	2	6	7	12	21	2	17	10	4	7	0	8	7	2	6	10	7	7	10	7	2	1	3	3	5	2	2	5	3	2	4	3	4	3	5	9	8	4	2	1	7	14	11	11	10	3	1	5	5	8	9	5	2	2	2	2	5	7	4	6	17	16	7	5	17	46	54	35	30	42	20	3	6	9	4	9	16	33	32	29	22	27	16	12	12	33	20	16	28	10	55	40	7	11	11	2	18	21	25	37	21	8	19	14	16	23	11	19	16	10	31	42	23	15	32	27	2	13	18	53	76	17	94	87	33	18	43	115	50	49	31	31	35	29	17	18	62	73	59	75	45	52	17	13	4	15	27	18	11	15	14	30	20	26	51	25	5	7	11	9	7	19	31	33	17	2	11	11	8	3	27	43	24	29	35	21	3	4	7	10	19	48	35	3	20	4	59	56	33	47	29	21	23	21	24	62	59	16	44	86	86	32	10	5	12	13	11	11	8	6	6	29	30	22	29	15	5	9	21	14	21	35	25	6	18	32	40	40	24	22	40	21	4	20	21	4	24	31	25	20	29	79	69	29	13	14	22	65	33	38	30	31	69	65	22	27	38	21	11	20	25	19	23	36	49	57	47	22	7	41	81	23	55	50	15	3	12	30	29	8	12	15	8	10	5	15	28	24	36	22	13	25	22	36	41	39	27	28	38	83	49	17	22	72	49	22	18	13	32	67	71	37	81	78	44	37	60	26	34	35	13	10	6	3	5	8	4	7	10	7	8	20	28	15	23	49	16	22	30	27	10	21	33	22	36	24	21	12	35	23	66	92	25	86	50	9	10	13	17	11	4	4	3	1	4	10	7	7	6	5	14	32	62	56	20	24	20	2	5	5	18	23	15	31	37	23	37	45	27	6	3	5	21	24	7	4	7	8	2	4	11	12	7	10	11	2	9	8	6	31	34	7	35	20	8	15	7	17	20	7	8	7	12	7	15	36	23	8	22	19	6	4	8	8	3	7	14	7	6	2	5	3	3	4	4	7	4	7	5	2	4	7	3	11	4	6	10	17	12	1	11	10	14	2	7	6	2	2	3	2	4	2	1	8	8	2	6	8	5	2	3	7	5	10	10	3	2	5	6	5	5	10	15	11	8	8	15	10	0	2	4	2	4	8	11	5	2	4	1	5	6	1	3	5	3	4	7	6	11	10	5	2	4	2	4	5	2	8	14	7	11	5	3	3	2	1	2	1	2	2	7	7	4	3	0	8	6	5	2	3	0	1	4	3	4	8	11	3	8	7	9	10	10	11	10	9	3	11	4	8	8	8	12	12	11	12	8	20	13	4	11	
5	4	4	4	3	1	0	2	1	4	6	1	0	4	4	4	3	4	5	8	5	9	8	4	2	4	4	4	1	2	6	6	2	6	4	4	6	4	3	9	7	6	5	6	3	1	0	1	4	6	5	3	5	5	2	3	4	6	10	15	8	14	8	2	5	2	6	5	5	0	10	13	7	4	4	3	1	2	4	7	4	5	8	9	7	1	0	1	3	5	8	9	5	2	7	11	17	18	15	10	5	2	4	3	9	8	5	5	4	4	7	7	5	3	7	16	14	5	3	7	28	45	41	27	33	16	2	6	9	1	15	12	22	15	12	38	43	16	32	19	48	42	43	49	25	52	39	12	20	9	13	11	5	10	31	29	6	15	10	14	21	17	13	23	2	26	42	35	16	31	45	16	12	21	52	60	44	96	70	19	8	48	112	45	54	44	29	33	18	5	15	21	47	36	54	27	57	44	26	9	8	28	30	11	20	25	24	9	48	48	11	13	5	4	15	14	26	37	31	16	8	10	7	6	7	24	49	23	28	35	20	6	12	17	23	13	45	40	3	19	23	68	38	45	47	35	38	27	25	29	63	76	53	28	83	96	37	12	11	7	11	14	10	4	5	11	20	14	20	19	7	4	17	25	6	35	36	22	11	22	29	39	50	34	20	43	28	4	20	15	9	31	22	12	15	15	46	63	54	28	19	58	72	39	33	50	41	31	11	34	53	52	35	31	24	37	45	31	21	41	50	37	16	1	47	82	20	52	58	43	21	28	42	32	30	14	4	9	12	5	23	34	25	45	38	22	23	12	16	21	11	25	31	91	100	41	9	1	55	48	4	4	16	28	55	57	24	75	60	37	25	51	39	10	39	13	4	6	6	1	7	8	3	0	2	3	10	15	18	40	42	3	24	18	12	5	11	24	19	31	19	20	13	26	22	76	100	25	96	49	11	15	18	22	15	5	3	2	3	4	7	5	4	4	11	15	47	74	48	8	16	19	11	7	11	26	5	32	53	42	8	50	54	18	9	11	14	19	31	20	6	2	9	4	5	1	4	8	11	14	14	5	5	15	37	27	20	38	12	11	15	11	12	24	8	4	5	13	5	18	37	24	12	24	24	18	7	2	5	10	7	16	4	7	0	4	2	3	8	2	7	7	10	7	7	8	7	7	14	10	7	3	7	14	9	2	4	6	7	9	5	4	0	4	2	7	3	7	5	10	7	1	9	7	4	4	5	7	9	9	9	7	7	8	8	9	11	8	4	4	8	18	12	5	4	1	4	7	7	4	3	3	7	7	5	3	4	3	4	4	4	7	6	8	4	7	3	3	3	3	8	4	10	12	5	13	7	3	6	4	4	3	3	4	4	4	4	1	4	1	10	5	8	5	2	4	4	4	3	4	7	8	2	7	4	2	6	6	2	2	2	5	4	5	9	10	10	14	13	16	14	8	20	9	7	10	
4	4	4	4	4	1	1	4	3	1	8	0	4	6	7	5	4	4	5	11	10	3	5	3	4	4	3	3	2	4	4	5	4	5	5	4	7	4	6	11	5	1	7	8	2	5	6	4	2	4	4	4	7	6	1	3	7	5	8	5	7	9	4	1	4	3	1	6	7	7	4	14	10	4	4	3	2	2	8	8	4	5	7	5	10	5	3	2	4	4	5	9	7	2	13	9	8	4	5	7	9	10	10	12	13	8	5	5	7	8	9	5	4	4	8	17	16	7	3	4	14	28	29	23	24	13	5	10	10	8	19	8	17	13	22	51	39	17	47	24	40	47	48	56	22	44	40	8	23	15	15	13	9	13	22	27	6	11	4	1	18	19	10	24	4	21	31	39	37	10	46	24	10	22	53	39	47	79	44	9	9	43	91	49	47	45	20	23	30	24	11	23	33	21	45	8	30	33	27	19	12	24	41	31	11	12	0	32	47	18	22	24	18	12	21	16	17	24	15	16	14	7	8	7	9	17	45	37	32	22	13	6	23	30	35	23	47	45	16	20	44	77	24	66	41	22	25	26	30	34	60	85	88	61	65	79	45	28	13	8	8	8	12	5	3	9	12	2	10	7	3	4	29	35	28	47	27	15	14	21	27	43	66	55	44	43	20	5	13	12	5	26	25	12	13	5	22	50	63	33	32	70	55	18	29	49	55	36	34	42	46	34	16	32	7	16	27	32	4	39	49	31	17	18	46	74	35	39	56	50	20	32	36	15	29	24	18	13	26	23	28	30	14	40	60	52	33	17	11	10	16	18	41	101	66	35	18	6	48	51	11	10	16	31	53	50	29	78	53	22	5	33	47	10	38	22	5	7	3	2	2	10	16	18	15	9	11	14	23	56	44	10	32	17	10	8	10	20	5	28	12	21	18	18	29	89	91	41	106	43	17	15	15	27	21	10	7	7	2	3	5	3	2	13	9	3	55	70	12	26	28	21	5	8	20	32	11	54	53	21	29	54	44	13	14	7	2	12	39	27	10	6	13	9	11	12	10	4	6	12	17	16	10	16	40	20	29	33	5	9	12	15	4	23	15	7	13	11	10	38	46	26	15	18	22	24	17	4	1	7	8	9	5	5	3	5	4	6	8	2	4	5	4	2	1	8	15	12	14	12	1	10	12	8	9	2	1	4	7	3	2	4	4	5	3	7	4	12	5	12	8	1	8	5	4	7	4	7	6	7	10	8	5	4	4	4	3	6	7	4	6	17	13	3	6	0	2	2	6	7	5	4	11	7	1	4	7	7	5	5	4	4	3	7	4	7	6	4	5	0	11	7	10	13	6	8	8	7	7	1	3	4	2	4	3	1	5	5	4	2	9	7	9	5	6	1	5	4	4	2	7	3	1	4	7	7	4	1	1	4	3	3	4	11	13	8	8	12	2	20	16	10	21	12	9	13	
4	3	2	3	5	4	5	5	5	3	9	3	7	5	4	6	4	2	4	10	10	6	4	1	8	13	12	9	6	8	5	4	6	4	6	4	7	4	6	10	7	5	4	7	0	6	1	6	4	0	0	3	8	6	4	5	9	11	10	0	6	2	6	6	2	2	3	4	5	8	3	13	9	4	6	5	6	9	11	7	1	4	8	3	5	7	5	5	5	1	5	10	6	6	13	2	8	3	2	6	9	12	14	12	8	4	2	4	7	7	5	1	2	3	5	17	21	16	11	5	12	21	13	12	14	8	6	13	17	13	19	9	17	13	24	54	37	35	44	12	14	10	25	71	44	51	53	8	14	23	20	10	14	17	19	24	11	13	7	7	15	11	17	17	3	17	19	27	34	21	38	23	6	23	61	48	45	65	25	3	1	31	68	53	27	37	30	12	21	16	16	45	42	40	56	32	7	17	28	33	14	13	37	37	21	16	14	33	28	20	38	27	23	17	17	12	15	22	3	21	15	1	7	9	7	8	26	23	18	11	8	4	38	38	36	23	45	44	18	21	56	75	20	82	34	20	12	7	17	13	16	46	70	60	24	48	70	69	47	27	10	9	10	5	3	9	10	2	6	8	9	7	36	45	25	63	36	6	10	14	10	23	51	55	59	47	22	11	9	8	3	24	29	15	10	2	22	51	65	33	44	82	37	21	34	29	36	31	21	33	37	25	15	29	9	21	31	29	21	34	67	69	42	29	47	60	44	10	50	60	20	35	30	18	18	11	32	30	27	38	31	34	34	11	28	40	45	44	41	38	41	29	67	88	20	39	25	10	36	50	20	10	20	29	50	41	32	81	56	12	14	18	39	24	27	26	7	4	4	5	7	9	12	13	14	11	15	12	31	71	40	19	37	19	7	4	15	27	11	37	12	26	21	6	29	80	60	49	104	44	15	18	5	27	28	12	8	10	4	5	2	1	5	16	5	5	56	73	16	41	34	31	30	17	23	41	17	66	57	23	50	46	25	8	4	9	18	27	38	21	8	2	9	7	3	2	4	4	2	1	7	9	5	18	42	13	32	24	6	0	11	19	7	22	21	14	10	4	25	44	36	16	18	12	11	22	19	6	2	3	1	3	1	2	5	7	4	2	4	9	8	7	7	9	10	11	8	5	12	10	10	8	8	12	10	4	1	3	3	2	5	8	8	8	7	7	7	13	8	13	7	5	8	4	3	4	4	5	4	3	3	7	4	3	4	5	8	9	8	6	5	16	17	7	4	1	5	9	8	7	3	2	11	8	3	4	4	4	4	7	7	7	4	8	5	5	4	4	7	1	11	9	8	11	3	4	4	2	3	1	2	4	2	5	5	6	5	11	5	1	9	8	8	9	5	7	0	7	10	11	6	0	1	2	0	4	7	4	8	10	8	7	12	14	9	5	2	12	14	23	13	10	22	19	6	19	
4	4	6	3	7	8	7	0	10	7	13	10	6	12	10	3	2	4	4	6	8	9	6	5	6	3	16	16	3	11	6	3	5	4	3	4	4	4	1	7	10	9	7	7	4	7	4	5	4	1	3	3	7	7	4	4	4	12	13	5	3	4	4	5	5	2	3	4	4	7	0	12	8	2	2	0	4	8	8	4	6	3	7	6	3	5	4	2	0	7	8	7	2	7	9	4	4	7	7	10	11	5	5	0	3	2	2	4	3	1	2	0	1	4	3	9	14	14	10	6	15	20	6	7	8	10	12	12	15	8	15	5	13	13	31	48	17	30	29	4	13	18	43	77	40	44	58	24	10	7	7	6	18	16	12	19	9	10	11	11	14	19	21	12	9	16	15	21	24	20	30	20	10	14	48	64	25	57	26	8	4	20	49	47	26	33	38	12	22	19	30	47	31	19	52	50	22	8	30	34	16	23	25	25	23	17	1	25	34	34	29	14	14	11	10	9	12	19	9	18	12	2	4	3	1	8	16	9	2	8	10	14	50	30	36	22	41	46	6	19	62	62	39	89	30	25	21	8	11	18	13	3	31	50	34	6	22	41	54	41	18	7	7	5	0	7	12	5	7	11	9	3	28	54	18	52	44	17	8	15	11	12	27	17	18	16	30	25	10	7	8	34	30	8	7	8	19	55	71	41	51	82	31	30	38	26	25	17	5	30	33	17	3	21	26	34	52	49	30	27	43	66	46	19	43	33	38	38	53	52	17	26	29	20	15	19	39	26	16	35	25	27	41	22	10	7	28	46	49	41	46	44	74	55	16	40	20	1	23	51	32	3	14	31	63	66	45	74	50	4	12	10	22	22	18	22	13	4	13	9	16	8	3	1	7	5	14	5	58	72	20	30	35	16	2	3	16	26	14	41	14	26	26	18	47	55	33	44	83	52	3	23	17	21	32	14	6	10	7	4	3	4	3	12	13	9	59	61	8	37	22	3	25	22	25	49	22	59	70	41	55	41	16	2	3	9	11	12	24	18	8	12	17	20	19	16	12	7	1	7	12	12	3	37	50	19	36	23	11	10	7	19	3	27	23	7	3	7	25	43	33	6	17	20	18	21	10	8	8	5	3	0	2	5	7	4	4	10	10	8	5	6	9	8	6	12	15	8	8	23	28	24	12	2	2	4	3	2	3	4	3	6	4	4	3	5	7	14	11	7	5	4	6	5	5	3	3	3	4	4	2	8	9	7	8	8	6	4	13	8	3	10	13	7	1	5	9	8	7	5	2	3	9	8	1	3	4	1	8	11	10	10	4	6	2	3	0	3	7	4	7	11	8	13	6	7	4	4	4	4	2	5	5	3	9	6	10	14	4	8	14	8	10	13	4	8	7	6	3	11	11	3	3	4	7	6	2	8	10	4	6	2	10	8	2	6	3	5	8	15	5	9	20	23	5	20	
3	2	7	5	3	8	10	10	11	4	11	13	7	7	9	7	4	1	5	7	3	2	3	5	10	10	15	15	4	11	5	1	3	2	2	2	3	7	7	2	4	3	4	7	4	6	4	4	2	4	4	3	4	8	0	5	3	8	9	7	2	1	2	3	3	2	1	3	4	5	1	11	8	0	3	3	7	9	4	2	7	8	12	11	6	8	5	4	6	8	5	2	2	5	6	3	1	2	4	8	9	3	7	4	3	3	5	3	4	3	4	3	3	1	7	10	7	6	9	8	15	20	7	10	14	15	10	8	10	7	17	9	14	27	49	40	7	28	21	5	21	24	33	62	41	33	47	24	24	23	11	3	19	18	11	15	13	4	8	10	18	21	15	8	13	15	13	16	20	23	31	25	13	3	16	49	25	38	26	13	13	15	39	34	25	32	34	9	34	26	17	32	38	14	28	45	26	17	29	17	25	29	13	14	24	25	20	22	28	21	5	10	21	16	14	10	9	14	12	11	7	3	2	7	10	10	15	11	8	11	4	22	55	22	46	35	42	54	17	30	61	30	58	84	28	21	30	31	18	7	7	10	3	33	55	60	52	37	45	40	19	7	4	7	5	2	14	8	13	14	7	1	11	37	34	37	35	15	7	14	10	9	26	20	21	11	20	28	19	9	17	40	24	8	4	16	11	47	73	34	54	68	20	24	43	40	27	14	8	28	38	20	8	12	33	56	32	11	6	14	22	64	53	24	46	11	35	59	55	39	24	24	32	12	21	32	39	17	18	28	27	36	44	19	7	15	23	10	5	17	19	38	56	17	16	21	24	24	28	56	44	6	5	7	32	57	46	50	36	8	10	11	11	8	15	15	11	7	17	7	22	12	4	4	3	8	6	30	65	48	6	26	37	21	5	2	13	16	27	36	11	18	31	49	61	26	18	45	61	46	4	22	20	22	34	17	7	5	6	3	4	2	3	2	3	24	64	52	17	35	12	26	34	15	32	48	15	36	53	12	46	30	13	9	0	11	14	30	44	41	12	23	18	16	11	10	7	4	7	11	12	1	35	65	48	24	34	27	24	17	15	21	12	32	13	20	25	12	18	50	39	7	17	21	20	19	10	9	9	11	10	7	2	10	7	2	6	5	7	12	10	5	2	7	11	5	7	17	31	33	34	34	24	23	24	16	7	3	5	4	0	5	5	5	3	6	2	3	5	2	5	7	3	2	5	2	2	2	2	4	5	10	16	8	5	4	2	7	13	8	4	8	11	11	1	11	13	7	13	4	0	4	9	11	5	1	4	5	9	4	9	7	3	2	6	5	3	1	7	10	1	9	3	12	4	8	6	2	2	3	1	6	4	2	7	8	15	9	3	13	13	2	13	12	4	8	11	4	6	8	9	5	5	8	8	10	7	5	8	8	11	11	15	15	7	3	5	8	11	15	5	12	20	20	5	18	
4	2	3	7	4	2	8	8	4	2	8	8	10	10	5	2	2	3	2	9	5	3	1	1	4	6	6	10	6	8	4	0	0	3	4	5	8	7	8	7	7	4	6	3	3	3	7	8	4	3	2	5	7	11	7	4	1	6	9	9	4	5	8	11	11	8	5	4	4	4	3	9	8	3	1	5	7	6	7	2	6	10	11	7	7	10	6	4	3	4	4	2	3	5	8	2	2	4	4	7	7	4	7	4	5	8	5	6	8	4	7	3	3	5	5	5	3	1	8	13	18	23	11	13	17	11	6	14	3	17	22	17	21	45	61	21	28	32	24	13	30	19	25	58	47	14	35	12	12	20	14	15	22	18	10	10	11	2	5	8	13	13	11	12	12	13	15	14	12	15	23	14	13	8	7	23	32	28	24	20	14	14	36	23	18	20	16	5	32	27	20	35	51	41	31	39	16	13	20	4	23	14	14	21	40	30	18	10	8	11	11	16	25	21	24	17	8	5	6	4	1	5	4	12	7	2	16	13	13	15	6	27	45	17	51	36	36	55	44	46	39	13	67	69	24	12	20	25	16	2	2	2	11	6	20	40	50	45	32	33	23	12	7	1	5	10	25	21	26	24	12	11	9	13	22	30	24	8	4	10	7	12	31	19	16	16	10	25	24	12	21	42	21	11	5	16	7	50	75	17	63	55	11	15	36	52	40	12	15	27	38	23	5	11	25	46	51	55	50	46	43	56	47	25	58	13	35	31	33	29	22	12	30	38	24	46	53	14	16	21	41	54	42	19	14	5	19	29	29	23	7	36	35	14	21	29	36	41	44	72	60	17	11	22	35	23	8	28	25	12	11	19	10	5	8	6	5	8	15	1	18	14	12	9	6	17	9	51	55	27	16	18	43	30	3	8	11	4	29	25	11	14	31	73	70	4	43	50	55	34	6	14	28	38	32	18	12	14	12	9	9	4	3	7	5	20	63	60	17	38	5	20	13	4	33	46	17	36	49	4	46	24	8	12	7	8	15	31	39	57	20	24	7	15	11	8	4	3	12	13	8	14	57	63	26	27	29	27	31	20	17	13	20	31	13	48	41	43	17	72	48	17	24	16	14	17	8	8	8	7	1	9	4	11	8	4	4	9	17	15	9	8	5	11	7	10	11	42	38	16	24	27	31	35	27	21	12	10	7	5	4	5	7	7	4	4	4	3	6	10	8	1	2	2	4	6	5	6	5	3	2	10	20	8	2	0	4	8	11	8	3	8	9	11	4	14	14	7	17	5	2	1	5	10	7	5	7	5	7	6	8	2	5	7	2	1	3	5	4	10	6	8	5	11	8	11	8	4	4	4	5	8	8	4	2	7	8	2	8	11	8	8	9	10	8	7	10	4	11	12	6	5	10	10	5	5	7	4	5	3	10	7	10	13	8	6	5	5	10	17	9	17	23	14	2	13	
1	4	4	4	3	2	0	2	0	3	5	3	7	7	5	3	0	4	7	8	2	5	2	0	0	0	1	5	6	7	5	3	1	1	3	4	4	2	4	3	3	3	7	3	4	3	8	7	10	5	7	8	8	11	5	3	4	6	10	11	2	9	10	8	11	12	11	8	5	3	5	8	8	4	3	7	2	3	7	9	6	2	4	8	14	12	8	5	3	0	4	5	4	6	11	4	7	8	8	7	5	4	7	5	7	5	0	8	10	3	8	5	4	4	5	8	5	1	2	7	16	22	11	14	16	5	11	14	8	21	13	3	17	55	64	16	41	39	24	18	34	21	16	56	52	13	40	17	10	15	24	20	21	14	4	7	10	5	3	5	5	2	10	12	11	12	15	13	5	4	19	13	12	15	8	16	24	19	17	17	8	16	28	15	10	5	5	11	22	19	10	21	44	39	17	23	12	9	21	17	17	1	10	26	36	14	7	10	1	8	19	27	28	7	23	24	8	2	2	1	3	2	9	13	2	1	18	13	14	13	17	37	29	14	47	26	21	46	57	66	43	26	63	54	22	9	10	31	24	10	7	7	2	17	17	2	13	22	23	27	26	11	7	6	3	18	28	14	32	35	8	13	14	4	12	19	13	3	3	7	8	14	25	23	26	17	10	21	27	21	29	42	16	12	2	13	24	75	74	22	78	50	13	21	41	55	42	5	28	34	27	16	19	28	33	19	20	53	58	50	28	28	42	26	74	31	59	44	18	17	19	18	20	39	34	45	51	9	14	18	51	59	21	7	15	15	15	13	7	3	12	44	37	16	17	14	16	34	42	85	81	35	28	47	63	65	56	38	29	24	21	31	18	8	13	4	2	3	10	6	10	8	11	11	17	18	22	72	53	27	18	20	59	39	14	14	2	13	23	19	8	7	29	72	67	15	51	54	41	19	11	8	19	23	16	9	7	7	9	8	10	7	5	3	5	16	56	80	32	36	8	27	12	2	25	48	20	36	38	25	44	19	7	15	12	5	7	25	13	51	17	15	5	16	14	10	10	10	12	14	6	21	64	56	4	19	21	26	34	19	12	12	21	24	26	52	29	58	35	85	31	25	31	16	8	14	15	14	12	15	12	5	3	9	9	4	4	8	7	2	7	8	6	13	19	7	37	60	29	26	18	13	28	26	28	34	19	7	2	3	2	3	8	6	10	2	4	6	4	4	8	7	5	1	4	6	5	4	5	1	7	11	15	8	2	0	5	8	7	8	1	8	8	8	10	14	10	5	15	8	5	3	4	10	10	7	7	6	3	4	1	8	7	12	5	8	10	7	4	6	4	3	2	4	7	7	5	6	9	7	4	5	7	1	2	8	5	7	5	6	4	1	5	10	9	3	5	6	8	2	8	9	6	1	2	2	5	4	5	7	10	8	12	7	5	8	11	10	4	10	7	14	20	5	6	8	
0	2	1	2	1	2	5	5	3	3	3	4	4	4	3	1	3	4	7	2	7	7	6	0	1	3	4	5	7	7	5	4	3	1	1	5	9	7	2	0	0	3	5	6	5	7	9	3	8	8	5	4	3	13	7	2	3	6	10	10	6	8	11	7	4	5	7	8	5	3	8	9	7	2	4	7	1	4	7	13	7	4	5	9	11	10	7	5	4	2	2	5	6	6	12	7	7	5	3	1	5	4	8	8	6	2	3	8	8	4	10	4	2	5	10	12	11	3	4	3	14	19	11	14	13	3	10	12	14	14	6	6	13	53	55	21	46	38	16	17	28	24	29	60	42	33	53	26	24	8	23	28	24	10	8	7	14	9	7	5	3	8	7	5	10	12	15	13	12	13	22	25	2	17	15	14	13	10	6	14	8	10	18	14	8	4	3	4	17	17	10	10	34	31	4	18	17	12	17	16	10	5	13	25	21	11	11	8	4	8	18	33	42	29	22	24	7	1	0	2	3	4	8	9	4	3	15	11	13	6	27	42	18	35	36	10	12	27	51	64	45	21	68	57	25	7	22	39	18	18	20	16	17	0	19	12	4	6	19	28	24	7	4	5	10	22	19	8	28	37	14	10	17	5	13	15	2	2	1	5	10	13	20	27	25	15	11	17	24	21	28	31	4	14	7	12	43	85	43	40	79	48	5	32	61	54	23	15	35	34	13	6	11	20	28	24	37	36	4	25	30	25	44	39	75	14	54	40	21	29	31	27	16	12	37	45	34	5	14	20	45	59	28	26	29	24	18	17	15	15	32	56	38	12	8	5	5	23	3	61	77	47	49	60	58	45	72	65	39	20	8	34	29	5	19	5	6	11	14	11	5	2	2	11	20	12	48	81	50	26	12	50	62	23	18	16	13	14	12	20	15	17	49	68	50	4	50	58	31	5	11	3	16	16	5	5	7	7	5	5	10	4	7	8	8	13	28	71	33	32	20	23	17	13	24	50	27	26	28	31	29	8	7	16	14	1	4	20	17	48	17	12	8	12	13	14	10	13	8	9	10	28	64	52	8	16	22	28	31	24	12	2	17	13	33	40	28	38	58	74	4	40	33	14	4	11	18	16	7	5	9	7	5	9	15	13	15	4	8	11	8	6	6	6	5	31	62	52	22	39	12	14	13	16	34	40	18	6	6	2	3	3	11	3	10	7	4	4	4	4	4	4	8	7	4	4	8	10	8	5	7	7	6	8	8	8	10	9	3	7	6	7	9	4	7	8	3	3	9	8	8	8	9	12	13	7	4	5	5	8	2	10	2	11	9	7	4	1	6	4	3	4	5	7	10	5	5	3	8	10	5	5	7	0	0	7	4	5	4	4	4	4	2	10	9	7	11	12	3	8	12	2	10	14	12	5	3	2	4	4	8	10	8	1	2	4	7	8	9	5	5	11	17	9	8	5	
0	2	0	3	2	4	4	4	4	2	2	4	1	4	5	2	2	6	4	5	7	6	8	2	2	4	2	1	0	1	3	7	5	4	2	7	7	8	8	7	4	0	3	5	6	10	11	4	2	1	4	5	4	10	9	5	2	6	10	7	4	5	9	7	4	4	2	4	5	5	11	10	5	2	4	5	4	7	13	14	5	7	6	4	6	7	4	4	2	3	7	7	4	8	12	7	7	4	2	1	6	4	4	7	7	5	4	7	7	11	11	5	3	5	6	6	13	7	3	1	10	14	10	7	8	2	4	9	12	10	6	5	18	52	43	11	41	27	6	16	20	25	37	47	40	46	39	3	17	4	17	31	33	14	20	4	18	17	12	8	11	6	2	4	7	14	17	16	18	14	12	29	12	8	4	6	7	13	3	10	8	4	15	17	13	12	12	10	20	18	8	1	31	24	18	36	34	20	13	2	5	12	19	21	11	2	6	12	15	17	6	15	31	30	22	19	7	3	2	3	1	5	5	6	8	7	8	7	12	6	35	44	5	48	30	8	12	21	58	76	56	29	84	77	27	17	30	32	17	29	30	19	28	18	27	18	13	17	24	18	8	1	0	3	11	22	29	20	23	36	16	10	18	10	13	18	5	2	1	3	8	10	7	6	5	7	10	14	18	14	18	18	3	12	10	7	54	78	26	55	67	39	8	35	77	48	10	35	38	20	9	14	4	18	35	18	23	45	44	47	42	27	39	48	56	12	54	32	7	3	7	4	7	12	11	11	13	9	14	25	36	44	21	25	24	15	33	31	12	11	37	41	15	8	4	12	11	12	40	49	42	33	46	41	26	11	64	66	44	29	3	33	34	5	20	5	7	14	15	15	7	7	11	15	13	10	54	65	34	13	21	64	46	13	19	2	16	15	7	12	18	24	56	65	37	20	56	54	25	5	7	14	16	30	18	10	11	9	8	4	9	2	1	5	4	10	42	89	65	47	35	15	20	1	24	46	27	15	14	16	11	7	3	16	14	2	5	13	21	44	13	11	4	9	10	15	13	3	7	13	31	58	79	56	24	27	22	20	41	48	37	21	15	21	33	11	21	20	73	48	28	44	24	5	3	13	18	14	7	1	5	5	8	14	27	24	27	25	10	9	4	3	10	20	41	56	54	23	25	39	12	14	9	20	36	33	15	13	7	3	2	5	10	6	5	5	4	4	3	4	1	6	5	9	8	7	5	3	2	7	11	6	1	4	10	13	13	10	8	8	8	7	12	4	5	4	2	4	8	8	4	1	0	3	8	6	5	8	7	10	3	9	2	7	7	2	6	7	4	3	4	4	8	14	8	13	4	6	8	9	5	3	4	3	1	7	3	6	4	3	6	2	12	18	15	14	14	12	12	10	4	8	15	11	12	9	4	3	5	3	4	3	1	3	3	4	2	4	8	9	4	10	10	12	12	7	
1	3	4	5	3	6	4	5	2	4	4	1	3	4	5	0	2	7	8	8	7	7	10	4	2	5	5	7	7	5	4	4	4	2	3	6	2	1	6	7	7	3	0	2	1	7	11	7	6	6	5	4	5	4	5	6	4	4	7	8	5	3	8	5	4	7	7	4	4	9	10	8	5	4	3	4	7	7	8	5	2	6	5	7	8	6	1	4	5	6	5	2	3	13	13	7	7	5	4	4	4	7	4	4	3	5	2	7	11	11	5	7	4	4	7	7	8	7	8	7	10	11	9	4	4	2	2	4	5	4	4	4	29	57	36	20	42	23	1	15	21	30	35	28	17	21	9	18	17	10	16	37	43	14	23	16	22	19	7	6	15	8	5	7	0	11	17	16	19	17	9	29	15	7	3	8	4	12	10	8	7	2	4	11	14	13	13	15	25	24	23	25	39	36	30	37	24	23	27	11	11	14	15	12	4	3	10	20	16	29	20	10	14	15	14	11	4	3	4	4	5	6	3	8	12	4	2	10	17	12	39	45	6	46	29	6	5	12	60	82	47	27	88	86	26	23	31	24	25	28	27	17	29	24	19	10	9	20	15	1	9	7	4	4	9	19	27	24	17	34	12	14	22	13	12	22	10	4	4	4	7	10	7	7	6	0	7	13	17	17	16	13	5	11	7	11	57	54	21	52	52	25	7	28	76	50	26	31	12	4	20	24	28	10	34	42	24	7	17	15	16	25	7	43	36	32	55	30	15	17	14	12	10	10	11	10	12	11	21	35	44	38	10	18	13	6	39	40	5	6	31	29	29	20	10	11	7	26	34	30	10	9	13	13	30	29	52	55	38	36	11	32	34	5	13	10	18	17	10	14	6	5	7	7	9	13	58	61	29	15	23	63	37	12	8	14	14	10	10	6	15	17	52	68	28	38	67	48	17	4	3	23	25	36	38	15	8	9	8	4	10	5	2	0	3	27	75	79	22	33	30	8	21	29	48	52	25	18	10	9	8	8	4	17	16	2	2	11	20	34	15	12	6	10	6	11	15	12	19	42	70	89	74	38	22	38	18	15	27	38	41	36	34	43	34	21	17	52	53	7	45	39	18	3	4	16	17	13	8	5	5	1	6	9	37	41	26	45	30	4	6	0	1	23	41	41	30	7	21	36	23	19	21	21	33	19	13	13	11	7	5	6	8	3	5	5	4	4	4	5	2	7	4	4	7	5	4	2	1	4	12	13	2	4	2	4	9	11	12	10	7	5	12	11	8	7	7	4	5	6	5	5	7	7	7	3	11	10	10	10	7	9	5	4	7	7	3	0	1	3	5	7	8	10	3	8	6	7	8	10	5	4	4	7	7	10	5	10	5	2	5	12	15	13	7	7	3	10	15	11	2	10	13	7	7	7	3	4	5	4	7	6	3	3	2	1	1	3	3	4	5	8	4	7	7	7	
3	0	0	3	4	4	4	6	8	0	5	4	4	2	3	6	5	5	7	6	4	4	10	7	3	1	5	5	4	3	0	1	4	2	2	1	6	7	4	4	7	4	4	4	4	1	8	8	7	4	0	1	3	7	8	11	8	6	1	5	8	4	7	4	2	2	3	4	5	9	7	5	4	1	4	6	8	7	5	7	6	1	3	7	12	7	3	6	4	9	9	6	9	14	10	5	7	5	4	6	1	4	5	7	7	5	4	2	2	4	3	7	4	3	1	1	4	7	7	7	8	9	11	7	1	3	5	6	5	1	4	1	36	59	26	30	41	20	4	14	20	31	37	26	8	6	8	15	5	1	13	39	44	14	13	8	14	8	10	10	12	8	3	7	2	10	19	15	18	18	10	27	12	3	7	12	5	8	4	5	1	4	5	2	5	8	10	17	28	26	29	26	35	30	23	22	14	11	31	31	18	15	14	8	2	2	13	26	4	21	18	14	7	4	6	4	3	1	2	1	5	5	6	12	15	2	8	7	6	11	39	40	4	38	29	1	6	7	49	87	65	47	76	76	25	21	29	14	9	10	20	10	18	19	11	2	7	14	5	10	11	13	12	9	7	7	17	24	14	26	10	14	20	9	11	22	12	1	7	9	12	11	8	5	1	5	2	5	8	14	14	10	7	11	6	20	48	33	31	41	33	14	11	13	67	62	7	36	30	20	21	22	41	42	4	26	25	14	10	16	32	40	32	51	24	33	53	36	7	7	3	5	10	12	7	3	8	2	22	34	39	26	10	19	10	3	32	49	12	8	13	21	19	14	8	20	15	28	40	10	8	2	18	43	54	43	29	52	34	35	18	37	48	34	32	13	18	22	7	12	2	4	5	9	14	17	60	60	29	7	42	66	33	17	16	17	10	2	12	6	8	8	48	71	32	43	73	43	12	5	8	40	62	62	73	42	11	7	12	7	9	11	7	9	7	64	92	31	45	63	35	12	7	23	45	39	14	26	14	10	15	14	7	21	18	7	7	2	9	24	24	11	5	11	6	9	9	6	20	59	79	65	29	4	19	35	19	12	10	17	35	42	48	49	47	54	54	49	9	56	62	37	13	4	2	17	19	16	8	4	7	4	8	5	38	54	16	40	40	11	4	7	10	31	43	32	20	13	25	45	44	7	20	17	22	12	11	14	14	15	17	18	11	6	11	9	8	9	10	7	3	5	8	4	2	7	7	0	3	4	10	17	11	3	3	7	12	8	7	4	6	6	4	7	9	9	3	8	10	5	4	6	3	0	3	3	10	2	9	6	4	5	2	4	8	11	8	7	3	1	0	4	5	2	4	2	1	4	8	8	5	6	4	4	5	10	9	8	3	7	13	13	7	6	8	9	11	15	13	7	3	5	13	14	12	8	4	2	5	10	8	7	7	2	7	5	4	4	1	7	5	4	2	2	7	12	
4	6	5	4	4	1	5	1	7	6	3	1	1	3	4	4	3	2	3	2	1	2	7	11	5	3	3	1	2	4	3	1	4	4	0	3	4	7	7	2	5	7	7	5	5	5	1	5	3	2	3	3	5	4	7	11	7	5	4	3	4	3	5	3	1	3	3	1	4	7	6	4	5	6	4	9	7	5	4	4	5	6	5	8	14	7	4	9	4	7	8	5	11	13	8	4	5	4	4	5	2	1	2	0	2	3	4	7	7	4	4	3	6	8	7	6	7	7	5	7	4	5	8	7	5	4	3	10	9	4	5	5	39	53	18	41	38	19	12	19	20	22	34	31	17	12	14	15	11	26	42	45	31	7	17	21	27	22	13	6	4	13	11	5	0	10	18	14	19	16	16	25	6	2	12	7	10	10	4	2	4	4	3	8	4	4	4	2	14	16	17	11	27	16	15	10	12	10	12	21	8	13	14	8	4	1	17	22	5	16	4	8	8	3	2	2	4	3	0	2	2	5	4	14	15	4	5	10	22	30	43	34	9	34	25	3	5	4	27	69	56	32	48	60	32	11	27	15	5	4	20	15	8	14	15	14	7	10	7	8	10	8	18	14	7	4	8	17	9	16	8	10	16	10	7	17	13	8	9	11	18	15	15	14	7	2	6	7	4	4	4	2	1	5	7	20	34	41	44	33	14	8	16	4	52	78	36	43	38	19	15	24	26	53	24	19	23	14	13	19	27	17	28	53	27	33	39	36	12	10	8	10	10	5	2	3	9	4	24	33	36	23	21	15	2	10	23	56	26	8	7	15	28	18	5	11	20	17	31	18	17	14	25	57	58	67	14	51	39	29	27	56	83	70	68	31	21	18	6	13	1	5	6	14	29	53	72	46	16	26	64	64	27	18	13	8	3	1	7	10	12	14	50	78	41	38	73	42	19	11	23	73	93	71	95	76	23	5	13	11	4	7	8	15	13	97	98	35	73	24	24	28	32	46	60	33	12	29	14	11	22	13	12	24	12	10	4	10	22	30	32	17	8	6	8	11	7	5	20	69	80	23	20	11	9	27	23	7	14	4	17	18	22	28	41	59	57	18	35	57	34	15	12	12	9	9	16	18	14	12	10	4	6	5	34	50	20	31	35	13	3	11	6	32	56	41	11	7	5	32	55	24	5	5	8	12	10	13	16	17	18	26	26	17	13	8	5	4	5	6	5	5	8	8	2	6	8	3	4	4	4	10	11	9	13	14	11	3	8	12	10	9	6	2	2	3	12	14	7	3	3	7	5	4	4	1	9	18	15	7	5	6	4	3	5	7	4	3	5	5	6	7	5	6	4	2	3	4	11	11	8	5	2	4	7	2	5	3	12	14	8	2	1	2	7	10	8	10	7	2	4	2	3	8	12	13	9	4	3	3	6	7	5	2	6	4	8	7	7	5	3	2	2	2	8	11	
1	0	2	2	1	2	1	5	3	2	4	4	3	2	4	3	2	3	4	4	2	4	3	11	10	6	1	3	2	2	4	4	4	4	3	5	5	3	8	3	3	3	3	2	5	8	4	7	7	4	3	4	7	8	10	10	1	3	3	4	2	4	7	4	1	0	1	3	5	8	10	8	8	8	7	11	8	4	1	1	5	10	11	8	10	7	8	8	1	7	9	4	12	12	5	2	4	3	3	4	1	1	4	5	2	3	4	4	4	4	5	3	5	6	5	1	3	2	10	8	1	5	7	4	11	14	8	8	14	6	1	14	40	38	18	41	30	14	10	22	27	20	21	25	24	25	27	27	13	31	34	24	15	4	22	31	35	31	11	5	7	5	8	4	4	10	13	13	20	14	21	23	7	2	13	4	16	9	8	7	5	8	5	4	2	1	2	4	3	7	3	11	20	12	13	10	7	10	12	21	6	15	11	3	6	12	22	11	14	17	10	3	7	8	5	1	3	4	5	2	2	4	6	12	13	5	5	24	28	30	35	14	26	39	24	9	7	8	15	51	44	30	34	42	35	3	20	18	13	10	19	17	6	11	15	17	15	11	9	8	16	7	17	15	7	4	4	13	4	12	8	7	12	7	4	12	15	15	11	7	15	16	14	14	8	4	2	1	6	6	1	5	7	8	9	8	21	35	35	26	16	10	13	11	41	95	62	29	38	19	16	24	21	47	18	25	26	21	22	27	39	38	20	46	7	29	37	30	4	12	11	16	14	3	3	4	10	3	22	34	37	20	11	2	6	16	17	63	37	15	19	7	32	36	21	8	11	12	12	16	21	25	47	78	38	76	51	54	71	55	44	65	84	36	74	58	28	16	10	14	8	8	18	17	24	51	53	30	16	29	60	44	5	14	5	4	3	3	2	4	7	7	37	85	66	25	72	41	22	17	32	85	81	7	80	88	36	8	9	8	4	3	3	11	19	110	100	32	84	39	24	42	40	44	81	46	14	23	11	19	26	8	18	17	19	31	31	21	27	28	43	29	9	5	5	11	10	7	17	72	81	21	15	13	22	32	25	2	11	7	18	19	23	28	33	14	32	56	48	28	20	11	2	10	13	8	12	13	7	3	1	9	8	12	33	39	15	16	29	21	10	12	5	35	66	46	10	25	38	36	46	26	5	8	10	9	7	8	13	12	11	17	26	21	13	7	4	3	4	1	6	7	8	8	4	2	6	4	4	2	5	8	6	2	8	7	2	4	10	9	3	2	3	3	1	5	11	6	4	7	4	8	7	6	3	4	9	7	5	3	3	8	7	1	7	5	3	3	5	8	2	10	9	0	2	3	5	8	11	8	3	3	3	9	10	8	8	10	18	9	5	7	5	1	2	4	6	11	8	1	2	3	3	4	5	2	6	5	3	3	4	2	2	3	7	9	11	12	15	8	1	4	2	5	7	8	
6	7	4	1	1	3	4	3	2	2	1	4	6	4	5	7	2	3	3	3	2	4	2	5	10	7	6	3	4	4	3	0	4	7	6	7	7	3	7	6	0	2	4	0	0	5	8	10	7	4	4	5	5	10	12	9	3	5	7	8	10	16	15	12	7	2	4	5	8	10	10	8	8	4	11	14	10	6	2	3	6	1	4	3	10	15	13	6	1	9	11	4	14	14	5	4	5	4	4	5	4	4	4	4	4	5	7	7	4	4	2	7	6	1	5	4	3	2	11	7	3	8	5	5	5	11	11	5	14	8	5	23	38	20	21	35	21	7	3	16	33	27	15	18	20	25	29	34	9	29	31	17	15	13	34	33	12	36	13	1	9	4	4	5	7	11	9	9	19	14	23	21	11	10	8	3	14	5	11	11	6	9	10	10	5	1	1	5	7	7	7	12	11	7	10	12	7	2	10	13	11	20	8	5	12	25	25	11	21	7	11	5	3	5	8	8	5	3	4	3	4	0	8	10	8	6	13	28	18	14	18	12	44	38	17	12	13	6	14	34	34	38	31	25	28	11	10	12	8	7	13	14	5	6	7	8	7	9	7	5	12	8	12	14	10	5	7	14	3	11	7	5	9	4	7	10	16	19	7	1	4	10	14	16	12	10	12	14	10	2	5	7	2	5	5	7	15	15	13	13	15	14	7	11	33	105	79	21	49	21	22	16	32	38	4	20	16	12	10	2	25	31	15	48	17	43	43	22	13	15	4	17	12	4	3	7	8	7	15	36	40	20	5	10	12	21	14	66	45	19	32	19	7	31	31	11	12	15	7	2	4	21	65	84	18	81	85	43	75	66	43	51	53	20	56	54	43	26	12	10	15	5	28	16	16	45	40	18	17	48	65	37	6	14	6	0	2	3	4	5	7	15	5	65	84	20	70	44	21	15	24	75	99	69	58	80	45	15	5	4	6	5	10	14	24	107	93	22	66	32	15	40	38	29	80	46	11	15	8	21	21	7	18	12	27	27	38	44	29	17	45	28	14	9	3	7	14	7	27	79	74	13	10	15	6	40	34	10	13	1	18	23	34	51	68	76	69	66	31	4	13	14	9	5	8	7	12	14	10	9	10	14	5	23	42	34	15	13	29	31	17	9	17	44	58	37	21	46	42	48	36	13	5	5	4	11	5	5	0	7	3	1	10	12	11	11	8	7	8	8	3	5	10	6	2	5	3	2	2	2	5	7	6	5	10	7	1	6	5	7	9	6	3	5	6	10	14	12	8	7	5	12	15	8	9	0	11	13	11	7	6	4	7	1	7	7	8	7	5	8	5	7	9	4	1	8	10	12	14	13	5	4	7	10	5	7	10	11	11	4	6	5	5	4	7	8	5	10	11	3	2	2	6	9	12	13	9	4	2	5	10	11	8	5	4	2	8	10	8	13	5	4	6	8	5	5	
4	4	4	3	2	4	6	9	7	1	3	4	0	8	6	6	7	5	5	2	1	2	5	4	4	6	6	4	1	6	7	5	6	6	0	7	4	2	5	5	0	1	4	2	1	1	6	5	1	2	4	2	7	9	11	7	4	7	8	11	13	15	12	14	14	6	5	8	4	6	12	10	6	7	12	7	1	4	3	3	5	11	15	15	12	8	5	4	4	10	12	3	11	13	8	7	7	4	4	5	7	7	5	4	4	5	8	10	8	7	3	7	3	4	1	4	3	2	8	8	7	11	4	4	16	22	9	8	11	7	5	27	34	13	30	30	14	4	4	7	25	32	27	23	13	11	15	43	19	27	31	25	24	9	36	35	34	41	17	10	5	4	5	7	5	11	9	6	13	12	18	17	7	11	9	7	14	14	15	15	12	13	15	14	11	5	4	5	4	4	10	12	8	5	8	8	11	9	13	20	26	19	7	6	16	33	17	22	22	10	15	6	3	1	5	8	8	7	3	4	3	1	8	12	4	10	20	37	24	16	18	24	43	21	1	4	4	6	19	18	12	20	16	11	18	8	5	11	8	7	12	12	9	4	7	9	3	4	2	7	6	3	8	14	11	0	9	10	9	11	5	5	7	4	8	7	17	18	8	24	24	10	9	14	14	12	10	11	10	6	6	2	9	13	12	14	14	7	7	5	7	10	7	8	26	100	93	4	50	33	15	14	33	31	8	13	11	15	15	11	26	18	22	46	11	50	55	17	13	15	15	15	11	11	13	14	11	5	13	44	46	15	4	9	7	21	5	60	54	6	26	38	34	2	34	13	21	16	16	22	35	51	83	68	4	70	84	40	39	43	11	28	31	30	28	35	48	29	8	3	18	4	33	11	9	45	45	25	18	52	64	33	2	10	8	8	7	4	4	6	5	13	27	38	71	15	64	47	18	8	7	38	73	77	39	60	49	20	1	6	10	10	7	15	28	102	73	41	52	9	31	39	17	39	75	38	14	13	8	18	12	8	14	7	20	7	29	45	44	41	42	20	11	14	1	4	20	12	43	89	62	7	22	26	14	43	42	8	22	23	34	50	31	31	48	58	47	35	7	16	7	21	12	3	5	3	11	13	11	10	8	11	4	40	56	31	10	2	20	36	25	2	30	46	36	21	38	59	37	27	15	3	2	4	11	11	4	5	7	11	10	12	8	6	14	15	9	5	5	9	8	10	8	2	4	8	9	7	2	4	1	7	11	3	14	8	4	5	7	7	5	4	2	7	8	8	11	10	7	7	7	14	22	7	10	6	4	8	9	6	4	3	5	4	2	6	7	10	7	1	7	6	7	4	10	15	12	14	14	15	12	9	7	7	4	1	4	1	9	13	5	6	6	5	3	2	7	8	10	4	2	4	5	4	4	4	1	1	3	5	4	5	7	7	8	5	8	10	5	13	5	5	8	7	1	3	
3	2	2	4	3	2	2	0	4	5	2	3	2	5	8	5	10	4	10	2	4	1	2	6	7	5	2	4	5	3	2	7	8	4	4	8	3	3	3	4	1	0	1	4	4	2	4	5	7	7	8	3	6	7	10	8	4	5	6	2	5	9	4	8	14	10	3	6	7	7	14	8	4	12	9	4	7	6	2	2	6	10	11	9	7	7	7	4	0	8	12	9	7	11	10	8	7	4	0	3	5	8	10	8	5	4	7	6	10	8	4	5	1	2	6	8	8	6	4	4	4	11	10	9	24	21	19	18	10	7	5	27	31	21	29	19	6	2	6	6	13	17	20	27	17	4	13	44	22	22	31	29	28	5	33	16	17	19	8	2	2	8	17	13	4	10	13	8	6	3	10	11	7	5	8	9	12	11	11	12	8	8	6	8	14	12	7	1	4	3	7	11	11	9	5	4	10	16	20	22	20	10	15	7	13	35	15	24	17	7	6	6	5	4	4	2	10	8	3	5	3	1	9	14	1	13	9	35	21	17	21	23	36	15	4	8	4	5	22	13	7	5	8	10	14	10	8	15	14	8	17	14	11	11	12	7	6	6	3	7	5	2	8	12	8	6	3	8	11	7	2	7	1	8	7	4	19	11	40	64	65	46	6	9	8	7	0	2	6	8	8	12	13	13	12	8	8	1	7	5	5	3	4	4	15	77	107	56	28	50	19	34	19	20	18	6	12	22	24	5	21	14	42	40	5	42	51	25	5	11	6	10	13	12	11	7	4	4	24	55	40	7	14	18	17	13	8	45	57	26	14	32	52	31	26	11	34	27	26	35	39	43	65	43	17	53	69	77	71	52	29	35	30	12	5	27	53	30	6	1	13	17	29	4	12	52	52	11	31	59	52	24	1	8	4	3	4	5	1	8	16	23	27	45	52	5	60	50	15	1	7	2	35	64	32	38	54	24	6	5	8	2	10	17	44	97	42	40	26	22	39	34	18	51	65	28	10	14	12	19	11	10	13	2	16	7	17	28	28	8	25	13	7	10	5	8	27	11	61	98	44	22	12	25	5	45	40	10	38	32	28	64	52	15	4	12	10	13	4	18	2	19	13	3	4	3	15	20	17	11	8	9	7	54	59	10	12	6	17	37	26	5	36	43	21	8	32	40	21	5	13	8	4	7	6	6	1	4	4	9	8	4	7	1	12	17	12	5	1	7	7	2	5	4	5	10	6	11	6	2	3	3	11	9	16	7	5	8	11	10	10	5	0	7	7	4	6	5	4	7	8	14	25	15	9	6	1	2	0	2	1	2	5	1	3	4	7	13	4	5	5	6	5	5	15	13	8	12	10	11	12	12	10	4	1	5	1	8	8	11	14	4	2	4	5	10	10	7	5	4	3	4	4	0	4	10	7	5	5	8	10	8	7	2	4	8	9	7	8	5	4	5	6	4	4	4	
5	6	5	3	2	4	8	9	5	3	6	7	5	5	8	8	6	1	10	5	3	2	4	2	2	2	0	1	5	7	7	8	8	3	4	7	3	3	2	5	4	3	1	1	4	3	0	5	5	5	10	8	1	7	10	7	2	4	6	1	4	8	6	11	11	6	1	4	4	6	12	5	7	11	3	10	7	4	3	3	4	4	7	6	10	10	4	3	2	5	7	7	4	9	10	8	5	4	3	1	4	7	6	8	5	1	4	6	11	7	3	5	3	4	5	8	11	11	9	7	3	8	12	18	27	11	15	26	15	4	2	19	22	18	12	7	10	5	4	9	11	7	6	23	25	1	7	37	32	10	28	33	29	3	38	25	34	52	58	41	14	24	22	18	14	7	18	12	5	5	8	7	10	6	2	4	5	7	7	7	3	8	7	5	4	8	7	4	1	5	3	5	10	7	3	2	7	12	13	14	11	13	20	5	11	27	14	24	18	14	11	8	7	6	7	7	10	6	0	4	1	3	9	12	2	10	12	29	12	13	18	17	30	17	8	15	7	4	18	13	11	14	16	17	16	13	12	20	28	10	15	15	8	7	3	4	10	7	5	8	8	1	8	8	7	3	7	9	8	8	23	20	14	8	4	3	18	14	72	80	71	75	18	9	9	7	1	1	3	4	7	7	5	5	7	1	7	7	8	13	10	7	5	8	6	36	91	88	26	58	31	34	29	6	15	21	20	15	31	14	11	33	60	36	36	50	43	25	4	18	14	17	11	6	10	4	7	4	21	53	37	9	13	10	23	8	19	34	52	36	19	8	35	35	17	21	52	47	44	24	27	15	41	48	2	38	34	31	31	19	4	23	27	20	19	33	56	37	11	1	5	26	18	18	11	70	68	24	51	45	26	25	18	16	14	14	4	9	4	8	16	28	25	34	38	19	65	54	12	5	4	5	9	46	40	22	61	30	8	7	5	5	17	4	74	91	18	34	8	29	34	10	31	60	53	21	7	4	8	17	9	12	14	4	12	6	8	28	54	54	59	32	7	8	10	15	26	9	81	98	22	18	29	51	32	58	35	21	44	26	21	65	57	18	8	14	11	14	5	15	12	13	14	11	12	10	17	27	15	15	15	3	21	58	48	5	13	3	17	36	20	15	39	43	16	13	27	49	46	13	15	15	8	3	3	8	3	8	11	17	18	13	6	2	8	16	14	10	8	4	6	5	6	7	1	10	5	4	6	4	4	2	4	8	11	4	3	7	9	11	13	7	4	3	5	6	1	5	4	7	7	8	20	15	7	1	4	5	5	2	1	4	5	4	4	1	5	10	6	5	2	3	4	7	14	8	8	12	8	4	5	13	14	11	5	4	2	8	4	8	10	6	8	8	8	11	9	9	5	2	4	2	4	5	9	11	7	10	13	14	12	8	5	4	3	7	9	4	7	5	2	0	4	4	1	2	
4	3	7	5	4	5	5	5	5	2	3	3	3	1	2	4	2	4	4	7	7	7	7	8	5	4	4	3	2	3	4	5	8	2	4	5	6	5	5	8	5	4	3	0	2	6	8	9	7	0	4	8	8	3	13	7	2	4	5	1	3	8	5	11	8	3	2	4	1	5	9	5	4	7	7	13	5	5	4	4	4	1	5	9	8	7	2	3	2	4	4	4	3	8	11	8	4	4	4	3	4	4	3	8	7	5	11	21	22	15	10	6	5	11	10	7	3	4	2	0	8	0	17	22	19	13	9	23	18	4	5	11	8	8	3	6	10	9	5	9	11	8	7	18	25	8	11	28	41	30	31	37	29	9	38	36	22	55	69	73	24	28	11	25	19	7	19	15	7	5	8	7	8	7	3	1	2	0	4	2	4	8	8	11	9	7	4	2	5	4	2	2	4	8	7	5	10	8	7	6	5	16	17	8	13	21	11	20	15	13	14	5	5	1	4	6	5	1	5	7	7	6	4	10	13	10	14	20	15	17	20	12	26	15	4	10	15	10	14	9	11	15	10	12	12	7	4	8	29	18	11	12	5	3	3	7	7	4	3	7	11	0	7	5	5	7	13	10	13	31	48	44	44	17	14	9	16	21	86	66	60	86	26	10	9	4	4	5	5	3	3	2	4	1	8	7	2	7	7	15	4	8	8	10	10	7	65	82	25	49	35	12	28	28	10	19	26	8	18	27	17	31	44	12	65	55	17	20	34	29	19	26	10	7	13	8	8	8	16	34	41	25	2	12	19	13	15	30	47	32	15	31	29	10	14	39	45	10	38	20	31	9	22	54	21	38	33	17	16	9	15	34	45	41	40	51	69	67	45	16	15	29	6	31	21	86	69	14	57	50	45	40	22	5	5	12	8	7	2	8	6	21	39	56	41	22	69	53	12	13	17	17	41	55	44	22	66	38	4	7	3	6	17	27	90	71	6	26	11	16	36	12	39	57	37	12	10	7	11	14	5	12	12	2	9	7	7	52	77	40	66	47	8	1	9	21	22	17	94	93	20	18	38	23	50	74	33	31	45	29	41	55	49	21	1	12	11	17	18	2	11	7	12	19	11	14	12	29	11	9	17	17	34	53	25	14	8	7	18	35	15	33	50	38	7	5	12	28	54	36	4	15	10	7	4	7	4	9	5	7	12	14	7	4	2	11	15	14	19	22	19	12	7	7	9	6	3	3	0	4	5	2	2	7	5	0	2	7	3	11	12	4	3	2	3	4	5	8	7	8	11	10	12	11	4	4	2	1	3	3	5	7	5	4	5	2	4	8	4	1	1	2	3	5	9	8	9	13	10	4	9	9	11	14	7	3	5	3	7	10	4	5	10	11	9	11	9	10	10	4	4	4	7	10	14	8	3	3	4	4	7	7	7	7	10	10	5	4	5	7	5	4	4	7	6	5	
8	7	4	4	4	5	5	0	4	5	5	4	5	6	5	2	5	1	1	3	4	5	5	8	5	3	4	4	3	1	2	5	7	2	3	1	3	4	4	4	3	5	5	3	4	5	7	11	11	8	8	7	7	4	12	4	6	3	3	6	6	9	6	6	6	7	4	2	2	5	8	5	3	5	5	8	2	6	5	5	5	4	4	3	2	3	2	1	3	4	5	4	4	10	12	7	3	3	5	5	3	2	7	9	5	7	19	26	21	17	17	6	24	27	19	7	1	4	2	7	5	10	23	21	14	5	6	19	18	5	7	10	4	4	6	4	4	6	3	5	10	12	8	10	20	16	10	12	28	41	41	35	20	4	22	45	64	61	28	77	36	16	10	29	18	7	17	15	11	12	14	13	7	4	4	2	3	2	7	5	8	9	11	5	8	3	3	1	4	8	7	4	5	10	7	4	11	9	6	2	9	14	12	7	12	21	14	14	10	5	11	4	2	2	1	2	2	3	4	4	3	2	2	8	13	12	18	17	17	20	25	8	20	13	8	5	15	16	11	5	10	16	14	13	9	5	7	8	24	16	5	8	7	7	7	9	4	6	7	7	10	2	5	5	7	13	18	14	20	58	68	55	72	39	17	11	10	31	88	47	64	79	31	3	8	7	4	2	9	4	4	5	5	1	6	7	7	11	9	17	8	8	11	3	9	17	67	67	4	39	27	8	11	28	29	16	13	17	5	22	37	51	63	42	65	41	18	42	40	20	25	24	5	3	15	15	10	25	29	16	15	35	26	11	17	24	17	26	43	28	34	42	31	22	25	27	42	51	12	42	46	29	38	68	40	50	59	35	31	23	14	37	40	20	4	18	44	67	70	32	24	34	20	38	40	93	53	15	34	27	36	46	39	14	24	18	7	2	7	7	14	19	31	57	52	46	62	43	20	15	19	59	71	65	48	41	78	54	10	3	3	4	10	30	86	54	11	10	15	11	35	21	47	60	30	7	1	6	13	10	9	11	10	5	10	10	8	65	72	22	71	54	21	14	2	26	22	24	100	89	11	19	28	48	73	66	11	32	25	43	68	54	31	22	4	14	17	8	20	14	13	11	6	24	8	14	4	25	24	10	5	25	55	44	5	25	19	17	15	34	8	39	45	14	15	21	33	34	39	39	11	7	11	14	10	3	5	5	4	10	16	20	20	14	9	3	13	15	17	19	18	13	10	12	19	20	13	6	4	5	7	8	4	2	7	8	8	11	8	13	7	2	4	4	2	1	6	5	2	3	11	12	8	9	7	2	4	7	6	4	7	5	2	4	7	4	4	8	5	1	2	1	4	5	8	10	8	12	7	3	11	10	3	11	8	7	7	2	7	7	7	11	7	3	3	10	7	7	10	11	11	8	6	9	9	4	3	6	8	7	3	1	2	5	7	7	5	7	9	6	1	2	9	11	4	2	
8	12	9	7	4	4	5	4	0	4	5	1	4	1	3	3	3	5	2	0	0	3	2	7	7	3	4	4	4	4	4	7	7	6	5	4	3	1	2	5	5	5	5	4	7	8	2	8	7	7	8	8	6	6	9	1	2	5	4	4	4	7	5	4	10	9	4	3	2	7	7	6	1	3	4	8	7	5	6	7	7	7	9	10	8	4	4	6	5	5	8	6	1	9	10	5	1	1	6	7	1	5	9	7	3	12	24	18	9	18	20	10	33	23	22	10	1	4	6	7	3	17	16	16	15	8	12	19	20	9	9	15	7	4	2	3	6	4	2	5	11	18	15	8	10	15	13	7	5	17	20	17	7	4	1	22	75	72	25	52	37	16	15	22	16	4	16	14	5	8	11	8	4	1	6	6	8	4	9	3	8	11	13	2	9	1	5	2	2	4	8	5	6	8	8	10	12	4	6	9	7	8	12	12	11	17	12	5	5	5	8	4	0	1	3	4	3	4	4	2	6	7	4	5	4	7	14	7	14	18	28	10	16	13	5	3	11	15	13	8	3	11	21	23	19	8	6	7	17	12	4	5	2	8	12	12	3	2	8	11	5	2	5	7	10	16	19	9	29	82	81	35	70	42	13	14	7	54	87	30	63	70	39	14	11	9	7	4	7	10	10	12	9	9	8	1	9	7	10	18	14	9	8	13	3	46	79	46	18	34	13	8	5	13	26	24	11	8	18	12	17	33	49	14	48	36	28	41	20	39	38	25	11	2	15	18	7	34	25	5	3	23	23	22	23	22	15	30	48	21	27	17	10	7	29	13	16	27	53	59	40	33	43	59	22	43	75	59	18	33	12	39	26	30	42	31	7	56	81	28	52	40	38	45	42	97	46	19	26	10	5	38	61	44	12	19	10	4	7	12	12	7	29	35	28	43	43	32	25	4	41	75	56	22	26	42	91	84	27	10	7	2	10	28	84	62	14	16	10	13	45	28	58	66	27	10	4	3	12	8	3	7	11	7	5	10	11	61	52	49	72	44	11	21	12	32	28	27	98	82	21	32	32	42	39	34	18	36	7	46	46	34	24	17	11	13	22	28	31	24	16	17	12	18	9	12	7	16	27	25	10	42	70	27	29	33	30	30	8	35	12	42	47	21	32	34	37	37	28	28	17	7	12	18	18	4	3	3	3	18	30	32	23	13	14	6	4	6	5	3	4	10	10	14	17	19	22	22	19	13	11	14	2	7	10	11	9	11	5	9	2	5	9	12	10	7	3	2	3	9	7	7	4	7	8	1	7	5	4	3	6	4	4	5	4	1	4	6	2	2	2	3	3	1	5	10	12	12	5	5	9	8	5	5	6	11	9	4	9	9	7	14	16	15	12	17	7	7	5	5	6	5	4	7	5	3	5	4	2	3	4	3	1	5	4	4	2	5	13	13	8	4	15	10	4	2	
9	12	8	4	6	4	2	4	3	4	6	0	3	1	2	5	4	2	5	7	7	3	3	8	8	4	5	6	5	4	2	5	5	4	4	4	4	4	4	4	4	3	5	3	9	11	0	8	4	1	3	4	1	8	9	5	6	3	2	4	2	4	8	10	4	8	7	5	2	5	8	12	10	4	4	5	7	4	4	8	8	4	6	8	11	5	5	7	6	3	8	9	1	9	11	6	3	4	4	6	4	7	8	7	10	15	21	13	3	16	19	11	31	8	23	15	1	1	7	9	8	16	11	12	19	8	10	21	23	14	2	13	13	7	2	7	5	4	0	5	4	15	20	10	1	4	13	13	7	13	8	11	9	10	1	24	66	51	18	23	22	26	22	18	18	6	17	20	8	11	12	5	3	4	11	7	8	3	7	4	10	13	9	0	5	5	3	3	3	5	0	5	5	8	8	10	9	5	4	2	1	2	7	9	8	13	11	3	4	1	6	4	0	1	4	7	4	4	4	4	4	4	3	2	4	7	10	5	11	14	30	14	18	19	7	9	10	11	11	7	4	2	3	13	17	4	2	5	12	8	6	5	6	4	13	16	7	4	8	8	7	7	7	7	12	15	15	6	47	98	80	21	72	50	20	15	21	75	75	9	66	68	46	16	18	20	10	11	8	14	14	11	6	14	13	5	5	13	18	13	12	13	4	12	24	75	78	15	44	29	4	9	17	11	8	21	25	15	8	24	22	24	46	22	42	46	23	53	8	43	52	26	8	8	14	17	8	22	27	23	10	19	7	5	21	29	34	58	75	49	56	32	20	20	35	23	46	47	62	53	6	18	31	41	13	34	66	73	16	33	4	35	17	7	2	25	13	61	60	52	58	21	40	43	32	96	52	21	28	4	10	11	55	78	41	11	7	2	0	5	7	17	32	18	11	28	25	22	22	4	46	65	47	38	36	14	70	93	31	3	10	8	14	16	85	85	20	25	15	16	55	18	79	71	21	9	2	1	12	13	8	12	15	13	5	6	10	50	33	50	48	14	8	31	18	37	33	37	91	55	25	28	18	2	14	29	4	32	12	56	39	10	7	11	15	14	19	20	21	12	8	8	6	12	5	10	11	5	16	30	15	54	66	6	45	21	23	33	9	30	21	25	50	38	29	24	7	4	11	23	16	5	5	12	22	11	5	6	5	23	30	18	12	16	15	7	1	3	4	4	2	5	8	8	11	8	15	18	17	14	14	18	12	7	2	3	4	11	3	8	0	8	8	10	14	12	4	4	2	10	8	5	4	7	10	5	8	5	4	3	1	6	6	0	6	7	8	9	10	9	10	10	8	2	4	3	7	7	2	5	8	6	3	3	4	10	12	2	10	14	7	4	7	6	15	23	7	9	10	10	8	3	1	5	4	1	4	7	7	3	2	3	2	2	3	4	4	10	7	9	12	7	14	5	3	2	
5	8	5	4	7	5	1	3	4	4	4	3	3	1	2	4	6	1	4	7	7	7	6	5	4	3	4	4	4	3	1	4	4	0	0	0	1	3	2	0	2	3	5	0	9	11	4	8	5	4	4	7	4	8	9	6	2	2	4	5	5	1	9	11	4	9	8	4	6	4	10	12	12	4	3	1	4	2	2	9	11	5	4	5	12	7	7	6	5	4	7	7	6	5	11	11	5	5	3	1	5	7	8	10	10	8	13	14	7	10	14	10	21	10	17	16	4	0	2	7	9	12	11	9	14	15	6	22	30	36	29	9	13	10	3	10	2	8	10	13	10	9	21	13	2	5	6	10	8	12	10	11	11	15	13	45	80	45	21	9	14	31	22	15	18	10	17	22	5	10	15	10	9	10	9	4	12	3	7	1	10	13	6	2	3	4	3	5	4	4	1	2	4	4	4	8	5	6	6	1	6	8	7	8	10	14	12	3	6	3	7	5	0	4	9	9	5	4	3	3	1	1	3	2	1	4	7	5	8	13	29	11	23	14	8	10	7	12	16	12	5	11	22	24	17	6	5	9	12	5	3	2	8	8	10	17	13	4	10	2	10	10	4	7	13	11	11	4	61	103	65	24	73	56	28	12	40	84	49	28	69	63	41	8	24	18	9	18	12	13	11	5	3	11	18	10	12	27	23	10	9	20	17	6	47	90	59	42	64	25	21	10	18	25	15	2	13	26	22	4	23	32	32	14	41	47	12	51	41	16	52	41	8	6	15	12	4	10	13	18	23	20	11	10	23	38	46	52	46	8	53	33	19	16	50	36	51	43	25	52	13	11	21	28	15	30	45	62	39	32	15	35	26	23	33	28	5	55	31	58	35	48	40	29	29	94	56	22	31	16	7	15	21	68	47	15	3	2	8	10	10	15	28	14	22	21	17	17	15	4	43	51	29	36	56	21	71	98	41	18	9	3	17	10	81	93	22	35	30	34	65	7	89	70	11	5	8	9	8	14	8	5	11	12	4	5	9	37	28	40	24	7	7	32	13	42	31	57	87	24	14	8	8	10	10	39	18	42	14	46	34	25	17	10	17	12	12	9	8	4	17	13	12	12	4	8	13	8	4	24	12	51	55	14	38	21	21	20	13	13	25	14	20	20	7	20	9	6	16	19	6	8	11	8	18	11	11	10	4	20	35	18	15	21	14	7	4	4	4	5	4	2	4	4	11	5	7	10	10	6	8	12	13	7	5	8	10	13	4	9	0	9	7	5	11	10	8	5	2	7	10	11	9	8	11	7	8	4	3	2	2	2	2	5	4	5	7	7	8	20	11	9	12	6	4	7	7	1	4	3	9	6	2	2	1	8	15	11	4	14	12	8	7	11	18	21	4	14	16	11	12	8	4	5	4	0	1	4	10	7	5	6	2	1	3	4	5	11	7	5	8	5	8	5	4	2	
2	4	4	5	8	9	5	5	7	7	4	3	0	1	4	7	4	2	5	7	7	10	7	2	3	3	4	5	5	1	2	3	4	1	0	0	0	1	4	3	3	4	0	5	4	8	11	13	8	4	1	4	7	12	7	2	6	5	4	5	5	2	5	10	7	4	8	2	9	7	3	7	11	7	3	7	8	7	5	12	11	3	1	3	7	7	4	1	5	6	6	4	7	7	8	13	3	4	4	5	6	4	7	9	6	2	7	13	13	4	7	8	9	8	9	14	7	2	2	2	2	8	15	12	8	15	12	20	42	53	53	29	5	9	11	12	5	17	15	17	19	6	15	18	11	4	2	2	2	9	11	8	5	9	33	80	81	19	32	4	13	36	25	16	13	3	10	17	20	21	21	15	12	9	3	8	10	7	7	2	7	14	9	3	3	4	6	1	4	2	3	2	6	5	2	5	13	28	28	18	10	9	10	10	10	11	11	3	7	4	8	9	4	4	9	5	8	5	3	2	3	4	3	6	3	3	4	4	2	15	20	10	23	7	15	6	4	15	24	13	9	21	21	16	8	1	5	17	18	11	8	4	6	10	5	16	12	2	8	7	7	7	7	11	12	6	11	4	76	105	43	22	55	64	46	11	59	79	21	39	45	55	54	15	21	15	13	18	10	2	5	4	6	5	5	15	27	24	12	20	9	10	15	25	61	80	31	75	65	18	28	19	6	14	20	12	7	10	28	37	27	24	21	18	38	27	10	25	36	5	45	43	6	6	13	8	4	5	4	11	17	19	24	23	13	37	54	31	36	53	69	43	36	26	66	53	26	32	25	47	25	14	18	18	5	23	29	42	51	41	21	31	41	29	12	20	27	34	12	36	17	58	50	31	28	92	57	18	25	10	4	11	33	66	42	17	8	10	12	8	8	11	20	10	18	11	15	18	16	10	54	55	26	31	56	8	74	91	39	7	12	1	14	17	75	75	31	50	35	43	62	38	83	55	9	9	20	12	9	10	4	12	17	8	8	5	10	21	16	23	10	6	4	35	18	43	27	64	72	10	11	8	10	4	19	41	13	33	41	46	22	7	24	24	22	13	5	9	7	10	17	7	7	15	10	7	15	17	10	15	12	34	55	24	17	36	24	1	16	17	2	26	40	43	32	33	13	14	14	13	16	16	14	11	13	3	3	6	7	12	28	32	29	22	11	0	8	13	11	5	7	9	9	8	10	12	21	22	19	13	8	5	6	12	7	6	8	8	3	10	0	5	9	10	5	4	9	10	5	2	3	3	1	4	8	3	5	4	5	3	1	5	4	4	4	4	3	3	8	21	11	11	16	7	6	8	6	1	4	5	12	5	5	0	4	2	11	11	3	8	11	7	13	13	11	18	2	17	15	2	9	7	5	8	5	3	4	6	15	12	6	11	5	4	4	5	8	11	7	5	8	9	4	2	4	7	
4	1	2	1	4	8	5	4	5	7	7	7	6	5	3	3	1	4	6	10	10	5	4	3	2	2	2	4	7	6	5	2	3	3	0	1	3	4	4	3	6	0	4	2	1	5	10	10	5	3	1	5	11	13	7	7	4	6	5	7	7	4	0	5	8	4	6	3	10	7	2	7	7	10	9	8	8	5	9	14	8	10	11	8	4	3	1	2	2	5	8	5	4	4	4	8	9	8	5	4	1	2	7	10	7	4	4	5	10	8	1	2	2	7	7	8	8	8	6	8	5	10	20	13	4	10	24	23	26	30	51	44	12	8	11	7	11	25	17	14	19	14	1	15	18	11	5	1	1	9	8	4	10	21	63	94	44	34	37	12	7	32	33	22	13	8	11	18	22	20	16	8	3	4	2	4	12	12	5	11	9	11	13	4	4	4	5	7	2	2	3	2	7	6	3	10	48	66	58	35	4	5	3	5	5	5	10	7	5	6	4	8	8	7	15	14	9	4	4	5	4	2	3	6	3	1	0	3	4	11	11	14	15	4	17	4	5	10	26	29	22	24	19	7	10	3	4	22	17	5	6	4	4	12	11	17	13	4	4	7	9	6	7	14	12	7	9	20	97	99	15	21	24	58	64	12	67	69	6	33	12	48	75	35	14	14	7	14	10	9	8	9	14	19	16	18	31	18	10	21	10	4	2	14	58	92	85	85	43	21	21	20	23	12	15	8	10	19	9	23	48	52	20	33	28	12	21	40	48	18	54	43	5	3	11	14	15	15	14	12	7	11	36	34	16	27	50	22	11	24	47	21	34	18	65	36	3	10	37	44	19	7	10	13	6	22	28	34	45	44	32	34	57	61	31	20	21	8	12	16	14	35	49	43	25	84	55	14	28	24	24	25	45	59	32	16	10	21	12	11	8	10	16	5	14	5	10	22	21	23	75	59	32	36	43	4	69	86	50	17	11	0	11	31	80	46	21	42	15	42	42	41	59	29	13	20	25	2	7	12	7	11	7	14	17	8	14	12	6	14	12	13	7	38	25	38	33	47	57	27	10	18	10	16	20	28	25	11	32	41	31	26	11	35	24	7	5	4	1	9	15	16	12	18	17	9	11	16	19	15	17	20	45	45	35	35	31	16	9	7	19	21	32	29	20	41	29	13	7	4	9	10	12	7	10	8	13	16	6	10	5	18	20	9	3	13	19	22	22	12	7	11	5	9	10	12	15	10	9	11	11	10	7	7	11	8	8	10	6	7	1	3	7	7	4	4	3	7	7	3	0	3	5	7	8	5	5	4	3	1	4	0	2	1	4	6	5	5	8	13	10	11	10	3	13	10	6	3	4	9	12	2	4	2	2	5	11	10	5	6	9	4	10	4	7	17	1	18	12	6	8	4	7	12	8	8	8	8	17	18	4	8	5	7	5	4	8	9	5	6	9	8	7	4	4	10	
4	5	7	7	4	6	4	1	2	4	8	13	12	8	4	2	3	2	2	3	3	4	6	5	5	2	6	7	7	7	8	8	6	2	1	4	4	3	1	3	5	3	2	3	3	5	8	4	7	4	3	7	10	7	7	11	4	2	3	7	10	10	8	7	5	2	3	1	8	5	5	5	1	10	15	7	5	6	8	11	6	8	8	8	7	3	3	6	4	3	5	2	1	1	4	7	4	2	4	5	6	5	5	11	6	1	3	4	8	9	4	3	2	3	3	3	9	14	8	10	10	13	20	11	9	8	22	38	34	4	39	49	27	7	2	5	18	27	15	8	14	12	9	8	19	13	7	4	5	13	11	11	8	32	82	80	8	47	21	8	7	21	37	32	14	7	6	6	5	4	2	2	4	7	4	5	5	7	17	15	11	7	10	7	7	5	3	4	3	2	2	2	5	2	5	24	66	50	48	56	12	12	5	5	5	3	5	5	7	4	3	6	14	10	7	6	4	7	8	4	2	4	4	2	4	4	4	2	7	5	8	11	5	6	13	7	2	4	7	17	20	15	12	1	10	7	8	16	14	25	22	14	10	12	11	15	11	4	2	7	10	12	12	15	14	11	5	43	105	79	9	24	17	50	68	19	72	72	14	28	14	24	76	48	5	13	2	10	10	11	13	17	18	13	15	22	23	7	15	18	5	7	14	18	11	48	58	48	19	27	17	7	10	5	8	9	17	26	32	13	26	60	53	26	12	15	2	32	28	36	63	33	3	8	11	15	14	8	4	5	5	5	38	42	9	21	40	16	10	21	38	5	31	13	56	33	12	21	31	18	6	2	5	14	8	9	15	22	25	38	32	40	61	79	48	19	23	22	16	14	24	21	40	35	28	76	42	14	36	40	33	26	25	41	39	31	15	22	7	10	7	7	16	1	16	8	6	21	20	46	83	51	29	27	22	14	55	92	68	29	3	8	5	52	84	23	30	19	21	27	23	35	34	8	17	32	35	12	10	13	12	17	14	10	6	4	15	15	4	14	13	8	12	38	33	23	51	27	29	36	29	12	5	17	24	31	38	25	13	21	13	33	34	33	17	4	8	9	4	3	8	13	15	21	16	9	8	11	18	21	16	14	53	64	29	19	29	23	31	32	27	17	22	23	44	45	26	4	5	9	14	14	10	2	8	5	5	4	15	18	13	12	13	13	12	9	11	8	15	17	8	10	1	5	4	7	8	4	2	3	2	8	9	4	7	11	12	13	10	6	5	7	5	7	8	5	7	8	7	3	0	4	6	4	6	5	4	7	0	2	1	6	6	3	3	4	2	4	5	7	2	3	10	12	7	6	2	1	2	9	15	7	1	1	3	7	10	7	2	8	6	5	6	5	13	16	4	18	10	3	5	4	7	13	6	2	7	4	17	17	4	7	4	4	4	5	11	11	4	2	1	7	3	5	6	6	
3	4	4	2	2	3	4	2	1	7	8	9	10	8	8	4	2	3	5	7	8	7	5	7	4	8	12	12	12	9	8	8	7	2	3	4	0	2	1	1	4	4	1	0	1	6	7	2	8	5	4	8	8	7	7	10	6	0	3	4	5	8	11	11	8	5	4	2	4	7	8	8	7	5	12	10	8	5	4	6	3	0	2	1	2	5	7	7	8	7	4	0	2	4	2	7	9	10	9	8	8	5	7	10	7	1	0	5	8	6	2	2	2	2	3	7	12	13	4	11	14	12	15	11	6	10	9	33	40	16	29	50	36	14	8	12	21	22	9	7	15	14	12	4	18	14	7	4	8	17	15	16	18	55	89	55	17	43	17	0	6	16	39	39	12	5	2	4	7	7	5	5	5	4	3	7	7	9	20	11	4	4	10	14	12	9	7	4	4	4	4	5	4	4	4	43	70	22	59	63	10	12	5	5	5	4	4	5	8	7	7	8	16	7	14	13	9	6	1	3	3	0	2	1	1	4	5	5	8	0	7	3	3	4	10	10	8	12	15	10	2	3	6	4	5	10	14	7	15	27	27	22	12	9	10	14	11	8	7	8	7	4	7	13	10	6	11	57	94	61	17	27	29	59	62	2	77	71	17	28	16	24	72	47	2	10	7	6	10	9	11	18	13	8	6	20	12	7	21	21	14	15	17	19	27	17	4	5	9	30	25	11	7	4	2	5	6	16	32	22	11	34	43	28	10	26	25	43	53	65	55	18	9	12	5	3	5	10	13	14	10	13	37	53	28	25	25	27	47	39	25	2	24	16	45	25	25	36	21	3	3	4	2	9	14	7	1	9	8	31	22	32	34	89	83	12	12	26	21	41	22	9	41	27	49	72	21	25	45	45	17	21	11	38	55	56	28	10	17	15	9	7	16	10	8	14	9	12	33	66	69	42	27	15	18	41	48	96	75	30	11	14	9	66	74	11	29	8	11	12	36	45	32	15	10	17	39	29	15	10	10	14	11	9	14	10	4	17	5	14	12	5	8	30	43	31	35	48	14	56	31	9	7	14	29	37	45	23	14	26	22	9	22	15	5	8	8	10	7	7	6	9	13	14	7	3	4	8	13	14	12	45	62	38	23	37	24	4	11	21	21	11	7	28	46	37	18	5	2	10	16	20	16	10	8	7	13	18	25	19	13	17	20	16	9	4	8	10	8	15	11	10	4	4	4	7	5	2	4	5	5	12	4	10	2	4	5	8	11	12	10	4	1	3	8	10	9	7	4	1	0	3	5	5	7	6	1	7	5	1	3	7	5	10	7	10	6	1	4	8	1	2	4	0	5	10	9	4	5	5	15	10	1	3	5	8	8	3	5	4	4	4	3	9	18	13	8	20	10	5	7	4	5	9	7	7	8	2	19	18	3	9	7	7	5	5	10	10	5	5	7	9	4	7	5	3	
2	3	6	7	4	3	4	3	3	8	13	2	5	7	8	5	7	7	6	7	7	4	7	7	3	8	8	7	10	8	6	5	6	2	4	2	4	4	4	2	2	6	2	2	2	6	5	3	7	7	4	9	10	11	11	7	4	2	4	2	2	1	0	2	2	1	3	4	2	3	4	4	4	5	6	4	2	1	1	2	4	4	5	7	9	5	6	2	6	9	5	4	3	7	1	10	10	4	1	1	3	5	8	7	9	7	3	7	7	1	5	7	2	5	5	8	8	7	7	14	10	7	16	20	10	11	7	35	46	18	24	43	37	18	9	12	20	17	8	8	19	21	13	4	17	12	8	5	9	18	11	5	18	69	83	40	26	30	18	6	1	12	44	43	5	11	5	6	5	5	6	5	3	0	4	4	4	6	13	17	17	11	9	10	8	5	4	3	3	4	2	4	7	3	13	54	63	5	61	56	7	12	8	7	0	6	8	7	5	5	7	11	14	7	13	7	2	4	6	3	4	7	7	5	2	5	6	10	8	2	6	2	3	3	10	17	20	11	5	8	9	5	5	4	2	9	20	10	20	17	7	15	12	12	9	7	11	10	14	10	4	1	7	10	5	8	24	67	79	34	29	27	20	53	53	61	90	43	37	42	30	14	59	51	13	7	11	3	5	4	11	17	4	9	5	16	4	14	21	13	10	21	20	18	22	37	30	15	4	28	32	11	4	7	9	16	23	13	24	26	12	11	36	46	9	36	25	11	16	38	25	8	19	21	11	11	8	8	5	11	14	9	24	48	50	38	10	31	29	25	19	12	26	25	48	29	36	30	7	4	6	3	3	7	8	2	2	7	5	22	11	26	13	75	95	60	27	12	39	50	11	21	42	37	71	70	18	41	44	29	5	28	25	22	22	44	40	10	13	12	7	6	8	14	7	15	13	19	57	60	34	34	22	14	23	48	27	115	86	23	10	19	10	67	73	17	32	34	43	43	43	35	29	28	31	20	27	38	23	8	7	12	21	11	8	13	6	13	13	8	13	4	4	17	38	51	18	40	14	59	23	25	13	31	19	61	52	21	14	20	20	17	5	5	8	8	19	19	15	12	9	8	7	4	2	2	2	7	8	9	45	65	41	5	29	34	30	27	19	9	5	6	14	27	32	18	5	10	6	13	10	5	8	7	6	5	10	17	20	9	4	5	11	11	11	8	5	9	2	10	1	5	4	10	11	8	3	2	4	1	5	11	2	10	5	3	0	3	5	6	4	6	2	3	6	7	4	0	2	3	6	8	8	10	8	2	5	3	4	6	5	10	7	13	0	11	6	5	7	12	5	10	13	12	8	10	19	12	8	4	11	12	5	4	4	5	7	5	7	6	3	4	6	8	18	11	13	24	9	7	7	7	7	7	1	4	11	6	18	20	0	14	10	7	5	4	4	10	12	8	5	5	6	10	4	9	
3	1	3	4	6	7	5	5	5	8	17	7	4	7	8	2	3	3	4	4	2	3	7	5	2	5	8	4	5	2	5	9	4	2	4	1	3	2	3	4	2	8	2	5	4	8	9	10	8	7	2	5	7	7	4	3	5	7	5	2	4	4	3	0	2	2	3	4	2	3	5	7	4	1	5	4	0	4	4	3	1	3	9	8	4	2	3	7	5	4	7	6	4	8	0	9	9	5	7	7	5	5	7	3	5	8	8	8	7	6	6	9	7	7	4	2	8	8	8	10	2	6	10	18	14	12	7	43	44	17	35	32	29	18	0	13	17	15	10	6	19	27	15	5	15	10	7	7	6	19	14	6	37	82	63	13	27	24	11	7	12	16	49	45	3	14	4	2	1	0	3	2	4	4	5	6	4	5	4	10	13	13	14	7	12	5	3	4	0	3	4	4	5	2	15	53	58	10	53	56	13	11	10	3	4	2	4	3	2	2	17	24	13	4	8	4	3	6	1	5	7	4	5	5	4	9	8	14	11	5	4	1	2	6	10	17	28	22	16	11	5	5	8	7	6	7	18	16	14	12	5	6	5	6	8	7	18	12	13	10	3	5	8	4	6	5	24	82	77	15	32	18	15	52	71	86	62	20	66	48	37	22	38	69	46	17	10	1	8	11	12	24	10	8	1	12	10	8	20	20	17	19	14	27	36	36	46	34	2	30	37	14	8	2	11	28	22	87	147	160	105	33	30	46	18	27	15	18	17	31	17	12	35	26	22	20	7	8	7	3	1	8	22	42	58	40	4	34	26	18	13	21	43	13	53	43	41	26	3	8	6	6	7	8	7	2	3	4	6	18	3	25	11	48	75	66	40	12	51	35	20	27	26	31	65	50	23	54	40	15	14	36	42	27	38	57	41	11	6	5	7	7	4	10	13	17	19	37	68	37	19	24	20	39	52	71	28	110	89	18	4	21	7	52	77	22	38	38	31	34	25	10	8	13	20	22	24	33	27	10	6	15	22	14	9	11	9	7	15	7	12	3	5	15	33	43	26	34	18	57	26	25	19	32	49	86	51	27	20	20	14	12	6	5	6	11	25	17	4	7	7	1	2	2	3	7	8	4	6	19	64	58	8	20	17	15	7	24	29	19	13	7	17	36	29	14	7	15	5	11	13	18	18	11	3	1	9	11	8	1	4	6	9	2	3	6	4	9	7	10	8	10	8	4	5	4	8	6	2	2	3	7	7	2	9	8	4	1	3	3	2	7	4	7	4	4	4	4	1	10	14	19	21	16	9	5	3	2	5	6	10	10	9	10	7	11	1	8	4	11	5	5	2	3	2	17	20	2	11	6	6	9	5	2	2	5	8	7	5	5	8	7	4	5	14	9	14	22	2	7	2	7	12	10	3	2	5	10	15	15	5	15	10	5	7	8	8	9	11	9	1	4	4	8	8	10	
5	4	4	4	1	5	5	8	11	3	16	11	2	9	9	2	4	4	1	0	2	3	5	5	3	7	11	8	4	5	7	7	3	4	2	4	7	7	4	2	0	7	10	7	3	5	10	12	10	5	2	4	6	5	8	11	9	13	8	2	3	1	3	4	4	5	3	1	4	7	7	7	7	7	8	5	7	7	6	7	8	7	8	8	2	3	3	3	4	3	5	5	7	7	2	8	8	1	3	4	7	7	7	4	2	4	9	11	8	3	1	4	3	5	1	7	8	10	7	4	2	7	8	6	9	2	21	41	26	26	35	30	26	18	4	18	14	12	13	2	21	25	15	0	13	14	10	9	4	15	21	6	61	94	52	22	22	10	9	20	17	22	46	44	10	12	3	5	6	5	3	8	10	5	3	7	7	8	5	12	55	59	56	26	11	10	2	5	5	4	2	2	4	5	11	50	57	14	42	55	19	8	11	5	1	5	5	3	5	7	43	51	44	24	8	5	5	7	6	5	6	3	7	1	8	8	2	10	10	7	6	7	7	4	10	3	20	23	20	14	10	6	10	10	6	6	11	14	7	4	6	5	8	18	12	14	20	10	4	8	6	7	7	3	4	10	22	103	80	30	46	17	34	12	17	37	9	68	62	28	32	46	20	60	67	34	11	4	7	8	10	25	14	7	9	7	11	2	9	11	15	19	20	34	52	28	49	52	7	41	43	17	20	16	21	32	54	166	167	200	199	100	18	33	18	20	7	0	20	30	18	18	43	18	22	23	5	3	4	4	2	12	23	30	47	58	28	29	46	37	39	32	65	53	23	41	49	35	8	10	12	4	9	12	5	7	8	7	9	16	9	24	10	36	87	89	24	42	51	13	26	20	11	11	39	36	39	52	34	10	14	41	45	26	65	67	32	6	5	6	8	6	4	24	36	37	37	38	81	34	33	17	21	34	36	69	18	88	103	34	2	14	18	40	73	29	38	45	14	15	15	9	4	4	10	22	29	28	18	10	4	13	17	16	14	7	4	5	9	3	7	10	12	20	38	36	7	41	35	63	44	19	18	33	72	82	32	18	13	19	21	19	13	10	13	18	18	11	12	8	5	5	4	6	4	8	10	8	1	24	64	43	22	21	5	20	16	23	43	31	30	17	23	35	27	14	8	16	15	13	5	7	1	6	4	5	7	12	7	3	3	5	5	10	11	10	6	8	7	7	7	5	10	8	9	14	11	5	3	1	4	8	11	9	4	11	8	6	5	1	1	5	9	7	3	4	7	9	6	16	15	12	8	5	3	4	6	6	7	4	14	10	12	11	5	5	4	4	4	5	5	4	9	10	13	17	10	8	11	4	4	8	5	4	2	5	5	3	3	2	4	10	7	5	13	9	11	21	17	13	10	5	14	12	5	7	4	7	11	6	2	11	10	12	14	10	5	2	5	9	6	5	5	4	8	8	
7	7	4	2	2	2	2	4	10	11	8	10	4	10	12	3	2	4	4	4	3	0	4	8	10	10	11	12	4	6	3	4	8	6	4	4	4	4	4	4	5	8	11	10	6	4	4	3	3	2	3	4	4	10	12	6	3	9	8	6	2	2	3	4	0	5	7	8	7	4	4	5	3	2	7	8	9	6	5	6	5	4	5	5	1	4	7	5	3	6	1	5	8	7	4	8	7	3	5	4	0	2	4	4	4	3	4	7	8	7	7	7	4	3	6	7	4	5	3	2	9	18	20	13	4	17	26	23	12	18	23	20	16	8	8	19	10	8	15	8	21	20	12	6	5	14	15	10	6	4	25	2	80	95	30	27	34	11	21	12	15	24	37	43	17	7	2	6	1	5	7	12	6	7	4	8	4	8	7	48	93	75	90	66	19	8	3	3	5	7	7	7	8	8	13	55	59	15	40	54	24	4	10	7	3	4	5	5	11	14	75	66	67	58	17	13	10	7	4	3	2	2	4	2	8	4	5	4	7	7	5	5	8	4	10	5	7	12	14	10	7	4	11	9	3	2	5	9	8	5	7	6	14	18	7	22	13	8	6	2	6	4	7	6	9	13	19	112	85	32	50	14	32	28	41	60	55	69	43	12	25	59	36	32	59	32	11	4	4	7	12	20	12	5	12	2	13	5	8	2	12	22	25	38	54	21	57	68	17	49	51	22	1	14	35	36	55	186	162	50	172	123	9	27	15	14	21	24	32	28	7	29	38	8	21	25	12	10	5	3	2	15	19	17	34	61	66	30	31	29	55	59	46	78	68	46	43	37	11	9	11	6	10	8	2	3	9	11	7	17	19	17	6	32	100	93	12	60	30	17	34	21	16	12	15	39	39	29	25	17	16	49	45	3	61	78	43	8	7	6	9	10	15	38	42	38	52	16	77	57	4	25	37	16	33	65	18	85	100	36	4	7	5	45	72	32	38	50	27	8	4	7	5	6	14	20	19	11	4	12	14	10	8	7	4	4	6	9	8	5	5	8	14	25	42	34	15	58	36	61	57	19	19	33	63	60	13	10	13	24	19	14	10	9	10	11	7	5	12	13	4	5	3	8	3	7	10	3	10	28	51	36	34	18	16	17	21	8	49	44	15	27	35	33	22	15	8	19	22	16	14	11	13	12	10	8	6	7	7	3	0	5	3	2	2	2	3	4	3	5	5	5	6	5	10	12	5	6	5	1	5	4	11	12	7	16	17	17	19	12	4	5	8	6	5	8	11	14	12	17	9	7	12	8	2	2	1	5	7	2	13	7	8	11	4	1	3	5	10	10	5	6	5	10	14	11	1	7	5	2	5	7	5	4	2	9	4	4	4	5	6	7	4	7	14	12	4	14	8	5	8	10	18	16	11	11	11	6	5	2	1	7	10	11	7	6	10	9	10	10	8	5	5	1	10	8	
8	4	1	0	0	1	5	4	2	7	3	6	7	9	13	0	2	1	3	5	7	7	4	4	14	14	4	10	4	4	3	5	5	7	6	2	0	2	6	7	5	7	6	7	5	4	3	3	3	2	2	4	7	11	8	10	14	10	2	4	4	2	4	7	4	1	3	4	3	2	7	8	7	6	0	5	4	3	3	3	4	4	4	3	3	2	4	5	5	3	2	2	7	7	5	8	4	2	2	5	5	4	4	4	1	5	3	3	8	13	13	1	10	2	8	5	5	5	3	4	12	12	7	15	8	20	21	13	8	10	20	17	12	11	9	15	7	6	14	17	21	16	9	7	1	12	19	9	5	2	21	36	90	82	17	19	35	18	20	13	19	22	29	37	19	2	3	5	5	0	7	7	5	10	5	12	4	8	33	78	86	28	69	77	38	7	4	0	2	1	5	4	4	2	32	61	48	4	40	54	27	1	8	8	7	7	2	9	13	21	94	66	64	87	26	8	10	8	2	4	4	3	0	0	7	11	5	1	3	3	1	2	6	6	7	8	5	12	21	21	20	28	34	24	8	1	2	6	15	15	15	16	18	11	15	23	7	2	6	2	1	1	6	4	6	7	26	100	72	47	43	15	23	29	42	54	56	49	29	13	17	60	40	43	68	34	8	2	2	0	11	13	9	3	13	10	24	37	41	24	14	20	15	34	50	7	64	71	14	35	52	48	27	21	41	31	25	132	207	181	173	108	17	32	30	27	24	31	27	14	9	36	29	3	18	27	17	8	7	2	8	21	9	8	23	74	70	29	60	68	67	51	14	27	41	38	26	27	11	10	4	7	7	5	6	8	4	11	6	10	7	4	6	29	103	90	17	52	14	34	36	20	10	19	24	29	25	6	18	34	5	49	52	7	50	73	50	17	8	12	13	19	26	33	23	27	55	27	70	79	34	29	47	7	47	42	64	115	82	28	12	12	12	57	77	23	43	41	30	24	11	7	0	4	8	12	8	1	2	1	5	4	4	8	7	4	5	2	1	6	7	9	14	18	35	32	23	70	36	46	63	18	10	17	45	44	14	2	15	18	7	3	4	2	2	6	4	6	4	10	7	3	0	8	3	3	12	11	8	27	34	31	31	31	31	18	24	17	38	58	50	45	43	29	11	10	13	5	8	10	12	3	7	8	6	1	1	7	7	2	2	7	4	7	8	8	8	7	4	9	8	9	7	5	9	7	4	5	7	4	7	1	11	5	12	14	18	13	17	16	4	8	6	7	6	7	4	8	8	7	8	18	19	12	7	8	10	14	11	8	14	9	7	11	5	6	13	22	21	14	5	6	8	11	11	6	4	7	5	5	9	7	0	5	2	11	10	6	2	5	9	7	2	5	12	14	7	11	9	7	3	6	15	16	9	15	14	7	5	4	4	2	2	1	5	7	11	11	5	4	5	1	3	6	8	6	
8	1	0	0	0	3	7	4	7	5	4	4	7	10	8	2	2	2	1	2	2	3	6	2	10	15	10	8	5	4	2	2	4	2	4	4	1	3	4	5	6	5	2	6	2	2	1	2	5	5	3	6	7	8	2	9	12	12	12	8	3	4	4	7	7	0	0	1	2	2	7	8	4	3	4	4	1	4	2	3	3	7	7	4	2	3	5	2	1	1	2	5	5	3	5	7	3	0	3	1	4	4	5	7	7	1	5	4	5	12	15	12	14	8	11	8	8	7	5	7	12	19	16	7	3	13	18	15	13	14	23	17	13	13	3	10	12	12	14	17	14	8	9	6	1	11	18	9	9	12	29	78	96	49	8	9	36	22	18	7	20	20	25	34	20	5	7	4	8	9	7	1	6	7	5	12	7	22	78	100	50	12	41	58	42	14	5	3	5	7	8	5	7	9	40	53	30	15	36	49	26	2	4	7	7	8	9	9	6	27	90	67	51	91	38	6	7	10	6	0	1	3	4	1	6	5	10	4	2	2	4	3	3	4	5	9	8	8	18	30	38	36	49	52	25	2	8	20	31	30	33	37	26	8	20	22	11	11	12	7	4	5	7	10	5	6	32	70	52	57	41	31	28	24	40	8	18	28	22	12	17	53	37	35	60	20	12	12	8	1	12	10	8	9	12	11	55	72	63	50	5	20	17	39	54	48	72	51	13	9	29	46	39	29	40	23	7	42	104	128	110	42	41	25	40	43	21	16	6	2	17	35	22	4	16	27	22	0	9	4	10	20	4	12	30	63	55	68	76	54	35	20	20	36	32	11	14	16	6	3	5	4	2	4	7	7	8	5	12	5	7	4	7	45	110	77	23	41	17	35	22	9	5	34	41	29	34	38	21	23	25	38	62	28	56	82	60	26	8	13	21	36	32	8	26	52	56	12	62	75	32	29	50	6	43	58	97	83	39	17	10	3	12	64	80	10	50	30	17	21	6	2	3	1	5	14	15	7	8	8	2	4	6	9	2	4	8	1	11	14	13	16	17	17	35	43	31	65	41	28	70	45	13	32	49	46	22	8	11	11	6	4	4	5	6	8	5	5	6	6	9	4	4	8	7	2	5	8	8	20	17	18	17	26	28	31	25	14	13	26	24	32	31	11	5	10	17	13	2	14	11	2	2	3	1	6	2	12	5	5	0	7	4	1	1	0	0	1	2	13	10	8	12	11	10	4	4	4	9	12	7	6	7	8	10	5	15	12	11	18	3	10	3	4	0	4	3	2	1	8	14	15	11	25	18	18	22	8	4	11	17	12	7	12	5	11	21	25	17	17	8	7	13	13	12	9	10	7	7	10	8	1	4	7	7	7	7	1	4	10	5	4	3	5	10	9	5	8	8	3	4	8	17	20	2	15	13	7	4	4	6	5	4	5	7	7	8	11	4	2	6	7	4	6	5	7	
8	3	1	3	3	5	7	1	4	5	4	5	8	7	1	7	7	5	4	2	3	4	5	3	5	8	7	7	5	4	5	0	6	4	1	4	4	4	4	5	9	6	6	4	3	3	3	0	0	6	7	4	4	5	1	10	8	7	12	10	7	6	4	10	8	3	1	2	0	1	5	8	7	6	1	4	2	2	2	2	5	4	2	3	1	2	4	4	5	2	3	4	3	1	3	4	1	2	3	2	3	1	3	5	9	7	4	3	5	8	7	13	15	10	11	8	7	4	4	8	15	18	17	10	2	7	16	21	20	13	29	19	5	8	8	7	10	9	8	7	2	5	13	8	1	7	15	16	21	28	60	86	62	23	8	9	26	27	15	2	24	15	23	37	20	5	12	15	13	20	12	6	8	4	11	11	1	46	122	107	53	38	33	50	38	15	5	4	4	0	4	6	5	8	38	54	27	10	27	37	25	11	1	8	6	4	8	5	4	34	76	56	33	79	48	9	1	9	13	14	12	5	4	5	12	11	5	3	4	6	7	5	4	3	3	10	7	23	37	31	43	43	17	55	38	4	17	32	35	30	31	32	30	23	24	24	17	14	12	10	12	7	5	7	5	8	31	40	27	29	20	29	38	29	29	12	9	19	13	8	18	51	51	28	74	45	22	20	21	9	10	10	7	7	9	16	86	66	65	72	13	21	14	28	31	43	57	23	3	8	14	34	35	31	29	10	4	5	24	39	28	20	46	5	45	41	15	2	5	2	17	33	21	4	22	31	20	6	10	13	15	21	9	10	26	49	27	31	26	10	20	17	22	33	29	35	24	19	15	9	4	1	2	4	11	10	12	10	6	3	4	5	11	74	111	47	34	35	14	27	17	17	6	45	51	29	35	46	55	18	13	25	58	40	34	91	78	36	7	12	31	44	20	19	35	33	13	51	87	71	21	37	46	4	14	42	53	29	19	10	7	11	19	51	67	30	49	34	27	25	12	7	5	5	7	10	17	12	3	10	0	3	6	7	11	15	21	18	22	12	11	20	13	14	28	41	39	52	37	13	61	71	43	24	47	47	27	9	4	10	12	7	3	6	1	9	7	2	5	4	4	5	1	4	5	7	6	5	6	14	7	4	20	21	4	6	9	3	11	15	3	12	17	23	21	15	19	14	1	11	11	6	4	7	7	6	3	14	14	9	6	8	11	9	9	10	9	7	4	11	12	3	9	11	8	5	5	6	9	9	9	13	16	17	9	3	10	14	11	15	1	8	4	4	5	6	5	2	5	5	5	9	14	32	21	20	31	12	8	12	17	11	3	10	11	18	19	8	14	22	10	9	18	16	14	12	17	12	9	10	10	8	1	5	7	14	13	8	3	10	7	4	2	7	10	5	1	5	9	4	4	5	14	24	9	12	12	8	3	2	1	4	2	4	6	8	13	11	4	3	2	6	7	3	2	5	
7	4	4	4	4	6	5	9	8	7	4	1	4	4	11	10	8	5	5	2	3	4	4	0	3	4	6	4	1	4	5	2	4	4	1	2	1	4	5	5	3	5	7	4	3	2	4	2	3	7	6	2	4	4	4	9	9	4	3	6	7	7	11	13	8	5	4	2	0	2	4	4	4	6	5	3	3	1	4	3	7	11	9	7	4	1	3	2	4	2	5	4	0	1	4	8	9	5	2	2	2	3	4	3	4	6	0	4	9	7	3	7	7	5	8	5	3	2	4	10	11	13	15	12	8	10	19	16	19	20	25	30	17	14	8	1	5	4	3	2	7	5	13	13	5	5	10	12	14	25	81	94	33	36	27	20	14	37	25	18	25	8	21	40	19	7	23	21	12	26	16	5	18	14	17	7	9	73	139	70	50	53	32	52	41	18	7	6	3	4	5	7	8	10	33	57	32	4	20	29	26	17	6	8	7	3	0	2	8	44	72	43	18	68	60	17	9	8	13	15	15	12	3	7	1	8	9	1	7	5	5	5	4	3	1	8	9	37	52	56	46	29	18	50	38	3	23	31	21	13	14	3	21	32	29	28	18	5	4	15	15	4	4	5	7	7	29	23	11	9	6	14	26	33	27	12	12	19	13	11	12	49	78	31	67	54	19	17	24	15	12	8	5	4	7	42	101	42	81	80	16	16	20	26	15	29	35	2	7	12	6	20	18	22	11	8	13	8	4	3	11	32	40	27	36	29	19	7	11	12	18	31	24	3	27	35	16	10	9	12	15	18	13	14	22	48	22	17	26	16	21	21	26	31	19	42	28	11	6	10	4	2	6	8	13	12	5	9	7	5	4	3	27	91	89	13	39	26	8	24	29	31	18	55	61	21	18	20	50	38	21	24	46	65	39	59	84	56	19	10	37	38	15	27	29	13	28	64	60	34	7	39	40	2	4	36	40	26	25	10	14	20	24	32	39	30	39	35	22	11	4	7	5	7	9	13	15	7	4	6	5	1	2	8	10	30	30	20	35	30	5	20	10	2	15	16	16	34	26	2	33	52	51	43	49	39	22	9	2	5	8	8	4	4	1	5	8	4	2	3	7	7	9	7	6	3	7	7	7	9	5	10	29	24	17	17	8	7	8	11	11	8	24	28	20	25	25	15	6	8	9	12	14	13	14	10	11	15	19	13	10	12	15	14	10	9	10	10	7	6	13	10	7	7	4	4	6	7	5	6	12	18	19	15	12	8	3	9	7	7	6	5	3	5	8	7	9	4	3	5	6	7	8	28	22	15	29	11	4	9	15	9	1	7	15	18	12	2	15	19	11	12	18	15	14	6	13	17	10	7	10	11	10	1	10	13	10	8	7	7	4	4	3	8	9	5	2	5	10	7	4	4	10	20	10	8	11	8	4	1	2	5	5	7	12	13	13	10	6	5	7	5	1	4	2	4	
6	5	6	3	4	5	4	7	8	10	8	7	7	8	12	3	4	4	6	4	7	7	4	4	2	1	2	2	0	4	4	1	2	3	1	4	4	5	4	4	7	5	3	4	2	3	5	5	3	7	4	2	4	7	7	8	6	2	4	5	4	3	4	5	1	10	8	5	4	4	4	3	3	2	5	5	3	1	4	7	4	8	7	4	3	2	1	4	7	4	7	3	3	3	4	3	5	5	3	1	4	5	6	5	3	5	3	4	8	3	8	8	3	4	7	4	3	2	4	8	5	8	14	14	17	22	27	9	12	27	24	25	15	7	5	2	6	2	4	2	10	5	11	17	9	3	4	4	2	41	81	67	41	52	27	38	28	28	33	34	25	7	16	35	22	11	23	8	19	27	10	27	52	50	48	18	29	98	117	40	86	58	24	53	51	11	10	6	3	4	5	8	8	5	34	54	27	5	11	31	29	13	7	1	9	5	2	4	10	63	83	43	25	72	77	26	15	4	1	5	15	11	5	29	54	56	40	36	37	30	13	11	8	3	0	6	3	40	61	46	44	20	21	39	34	8	24	36	32	18	19	32	26	24	31	29	20	8	12	17	10	0	1	2	7	7	29	17	3	9	10	9	5	5	5	10	15	20	12	12	3	45	80	42	62	46	9	10	23	15	12	3	4	7	4	71	105	18	89	76	24	12	18	22	18	21	30	11	12	6	11	14	2	2	13	19	15	15	7	2	7	26	41	40	27	17	19	15	3	10	19	28	22	7	24	41	14	3	2	8	14	12	4	3	13	40	36	11	16	35	42	36	36	42	12	31	28	20	8	7	10	1	2	6	10	7	6	7	3	4	3	4	36	89	67	30	26	10	13	1	17	32	36	53	64	8	4	5	36	30	10	12	25	56	64	21	69	62	22	10	33	27	18	12	19	13	31	63	42	13	13	30	39	12	14	19	41	38	26	7	15	28	29	23	12	13	19	25	18	8	18	13	15	7	3	10	11	4	3	7	10	10	4	9	1	32	36	8	20	32	17	12	10	4	15	14	13	34	26	4	28	31	20	9	26	22	18	13	0	6	8	4	5	4	4	0	7	13	11	14	16	14	19	9	10	8	4	0	2	4	8	17	27	22	7	18	14	5	7	5	10	11	13	12	21	32	24	10	2	5	13	24	19	13	14	11	11	8	12	10	9	11	12	12	5	2	2	7	6	5	15	12	4	3	5	2	2	4	6	11	15	13	10	7	12	15	8	2	4	1	4	3	1	6	10	1	7	6	2	4	3	0	4	27	25	17	29	8	5	12	13	5	4	6	9	12	8	9	15	16	13	15	14	9	13	10	11	18	7	6	7	11	14	5	9	8	5	5	8	10	8	7	1	8	11	10	3	7	8	4	4	7	12	15	9	3	10	10	6	0	2	7	7	4	16	13	8	6	0	6	9	11	10	4	0	4	
7	6	4	4	7	4	4	4	1	5	4	5	7	7	8	1	4	5	7	4	5	4	4	6	3	2	2	2	3	5	4	3	5	5	3	4	1	6	4	0	0	2	1	4	1	2	3	5	5	8	6	3	3	6	7	5	3	1	5	5	2	1	3	5	7	11	4	3	2	2	4	4	5	4	1	1	2	2	4	6	4	7	5	4	4	1	0	2	4	2	7	3	4	4	6	4	8	8	5	4	4	4	4	3	1	3	4	4	7	3	10	8	0	4	4	3	4	4	3	7	4	4	7	11	15	27	36	18	10	5	5	11	24	13	5	2	5	8	10	9	15	4	14	17	7	11	9	10	14	62	69	27	18	11	28	53	25	16	36	41	27	9	6	27	28	8	19	6	25	24	5	53	70	56	76	36	64	115	73	28	68	33	16	37	65	27	8	7	5	6	5	10	8	23	51	47	8	9	0	38	35	7	5	4	6	4	2	1	39	106	108	61	53	85	77	21	14	4	4	12	13	2	19	72	103	118	108	90	70	53	17	8	3	5	1	8	6	45	80	41	17	25	24	37	41	21	19	37	43	21	18	30	36	24	24	23	19	15	13	10	4	6	4	4	6	14	29	13	12	12	14	22	27	41	43	24	16	16	8	8	5	40	54	41	68	39	27	4	15	10	11	10	9	13	10	87	95	19	88	62	17	10	9	12	18	21	23	18	5	13	17	12	10	14	15	14	3	16	11	7	5	10	20	27	25	17	16	12	5	10	21	28	18	4	20	38	15	5	5	10	10	8	10	15	22	21	28	29	11	50	51	26	25	43	19	18	27	20	14	4	12	8	2	9	10	5	11	11	11	7	2	16	45	71	43	26	21	14	13	20	26	29	42	47	55	1	4	10	36	49	34	27	22	13	51	27	57	70	21	15	26	12	4	8	18	25	25	78	53	14	17	25	39	17	17	15	45	38	19	11	15	29	33	16	4	3	9	22	20	8	19	10	20	10	4	11	12	3	7	8	8	11	8	7	2	23	31	21	13	21	15	5	9	7	9	17	6	30	31	13	34	25	10	6	21	16	13	16	9	5	5	3	4	7	10	7	9	10	15	21	13	19	23	9	3	4	7	7	5	1	7	20	26	25	11	16	18	5	17	18	11	10	23	24	25	29	14	7	7	11	24	26	14	8	11	7	2	7	10	3	4	3	4	10	5	0	7	9	4	8	15	10	3	2	4	4	4	7	10	11	7	4	6	2	8	15	17	8	3	4	0	1	4	8	14	8	3	8	5	5	9	32	46	41	22	20	30	11	12	17	12	4	5	11	14	15	8	10	16	11	3	8	6	6	10	8	14	12	3	7	7	10	12	10	5	11	4	2	6	6	4	7	6	2	8	10	4	7	5	4	6	8	11	9	8	4	6	10	8	5	3	5	12	12	8	12	15	13	8	3	1	5	11	8	5	5	
7	7	5	7	7	4	4	4	4	4	1	1	2	2	7	5	6	7	7	3	3	1	4	5	5	4	4	3	3	6	4	4	7	0	5	4	8	13	11	9	8	6	2	4	3	3	3	3	4	7	8	1	7	5	6	4	1	2	6	2	2	0	1	2	3	6	5	5	3	3	4	1	4	4	5	4	1	6	5	2	2	5	4	3	1	0	0	1	4	3	4	2	1	3	5	6	8	7	6	7	8	7	9	8	5	3	4	3	5	4	9	7	2	3	2	1	1	4	3	4	3	3	1	5	5	17	31	28	6	7	5	11	24	27	16	5	2	5	5	10	18	8	13	12	15	24	18	18	21	68	53	15	5	22	34	40	17	20	41	48	31	13	6	17	24	12	13	6	22	19	33	72	58	22	76	46	85	114	47	49	64	31	35	33	75	49	4	5	8	7	5	13	10	43	69	35	18	8	13	33	45	16	4	2	8	5	6	3	66	127	90	37	64	88	93	54	15	3	4	9	11	19	49	120	101	84	84	69	66	69	26	11	15	10	5	9	8	60	74	28	18	21	16	26	45	41	8	35	58	26	34	35	13	14	12	14	14	12	6	3	10	10	8	12	15	17	17	8	20	14	17	31	36	37	51	56	31	9	5	10	8	39	36	19	40	7	31	8	11	7	13	12	4	2	28	82	69	47	80	46	14	11	16	18	16	10	12	16	8	19	13	7	7	5	3	10	11	14	14	7	4	3	3	8	15	17	12	3	4	4	22	34	17	6	24	27	12	4	1	8	5	12	22	26	17	15	10	25	27	50	49	18	12	35	36	16	23	23	16	6	7	11	9	7	7	5	4	4	6	8	3	21	52	58	19	14	14	19	29	31	24	16	29	46	44	14	0	21	34	74	43	34	43	17	39	41	44	84	32	32	33	17	7	15	16	30	31	85	48	19	27	22	30	10	18	21	44	28	13	5	10	27	32	15	3	5	8	25	21	14	25	20	31	25	11	10	13	5	4	7	6	10	7	5	7	15	21	16	7	13	9	6	11	19	22	16	1	24	21	34	46	22	6	24	30	16	4	13	16	9	5	1	6	10	8	10	14	9	7	15	10	27	19	5	5	2	2	6	9	2	2	19	35	36	13	20	18	8	23	10	17	19	6	8	15	21	6	4	4	12	22	16	10	2	8	12	8	10	8	4	4	4	7	7	3	5	11	5	5	14	11	4	4	4	8	10	8	8	8	4	5	12	12	7	5	7	16	14	9	3	0	2	5	4	11	10	2	7	7	1	37	79	84	62	18	13	23	15	12	13	4	10	4	16	24	17	3	17	20	9	4	6	5	6	4	11	12	5	3	5	5	8	7	10	6	10	3	3	4	2	4	5	7	2	7	9	5	5	6	2	3	6	11	5	4	7	2	9	7	5	4	3	5	10	7	3	10	9	5	16	17	10	3	4	5	8	
